; generated by PrusaSlicer 2.3.3+win64 on 2022-01-28 at 22:34:00 UTC

; 

; external perimeters extrusion width = 0.45mm
; perimeters extrusion width = 0.45mm
; infill extrusion width = 0.45mm
; solid infill extrusion width = 0.45mm
; top infill extrusion width = 0.40mm
; first layer extrusion width = 0.42mm

M73 P0 R19
M73 Q0 S20
M201 X1000 Y1000 Z200 E5000 ; sets maximum accelerations, mm/sec^2
M203 X200 Y200 Z12 E120 ; sets maximum feedrates, mm/sec
M204 P1250 R1250 T1250 ; sets acceleration (P, T) and retract acceleration (R), mm/sec^2
M205 X8.00 Y8.00 Z0.40 E4.50 ; sets the jerk limits, mm/sec
M205 S0 T0 ; sets the minimum extruding and travel feed rate, mm/sec
M107
;TYPE:Custom
M862.3 P "MK3S" ; printer model check
M862.1 P0.4 ; nozzle diameter check
M115 U3.10.0 ; tell printer latest fw version
G90 ; use absolute coordinates
M83 ; extruder relative mode
M104 S215 ; set extruder temp
M140 S65 ; set bed temp
M190 S65 ; wait for bed temp
M109 S215 ; wait for extruder temp
G28 W ; home all without mesh bed level
G80 ; mesh bed leveling
G1 Y-3.0 F1000.0 ; go outside print area
G92 E0.0
G1 X60.0 E9.0 F1000.0 ; intro line
G1 X100.0 E12.5 F1000.0 ; intro line
G92 E0.0
M221 S95

; Don't change E values below. Excessive value can damage the printer.
M907 E430 ; set extruder motor current
G21 ; set units to millimeters
G90 ; use absolute coordinates
M83 ; use relative distances for extrusion
M900 K0.05 ; Filament gcode LA 1.5
M900 K30 ; Filament gcode LA 1.0
;LAYER_CHANGE
;Z:0.2
;HEIGHT:0.2
;BEFORE_LAYER_CHANGE
G92 E0.0
;0.2


G1 E-0.80000 F2100.000
G1 Z0.400 F10800.000
;AFTER_LAYER_CHANGE
;0.2
G1 X107.464 Y83.676
G1 Z0.200
G1 E0.80000 F2100.000
M204 S1000
;TYPE:Skirt
;WIDTH:0.42
G1 F1200.000
G1 X107.979 Y83.288 E0.02024
G1 X108.430 Y83.094 E0.01538
G1 X108.911 Y82.997 E0.01538
G1 X111.141 Y82.987 E0.06993
G1 X133.318 Y83.180 E0.69537
G1 X142.634 Y83.891 E0.29293
G1 X143.439 Y84.158 E0.02661
G1 X144.103 Y84.693 E0.02673
G1 X149.376 Y93.744 E0.32842
G1 X149.664 Y94.637 E0.02942
G1 X149.679 Y124.967 E0.95097
G1 X149.615 Y125.457 E0.01550
G1 X149.451 Y125.923 E0.01550
G1 X149.194 Y126.345 E0.01550
G1 X148.855 Y126.705 E0.01550
G1 X148.307 Y127.060 E0.02048
M73 Q0 S19
G1 X147.683 Y127.252 E0.02048
G1 X145.283 Y127.283 E0.07524
G1 X114.063 Y126.400 E0.97929
M73 P1 R19
M73 Q1 S19
G1 X113.573 Y126.333 E0.01550
G1 X113.111 Y126.168 E0.01538
G1 X112.693 Y125.912 E0.01538
G1 X112.336 Y125.575 E0.01538
G1 X111.971 Y125.002 E0.02130
G1 X111.783 Y124.349 E0.02130
G1 X106.761 Y85.430 E1.23041
G1 X106.831 Y84.788 E0.02024
G1 X107.071 Y84.189 E0.02024
G1 X107.427 Y83.724 E0.01836
; printing object FingerBraceConnector-120degree.stl id:2 copy 0
;WIPE_START
G1 F8640.000
G1 X107.979 Y83.288 E-0.16244
G1 X108.430 Y83.094 E-0.11325
G1 X108.911 Y82.997 E-0.11326
G1 X110.518 Y82.990 E-0.37105
;WIPE_END
G1 E-0.04000 F2100.000
G1 Z0.600 F10800.000
G1 X110.501 Y86.151
G1 Z0.200
G1 E0.80000 F2100.000
;TYPE:Perimeter
G1 F1200.000
G1 X110.683 Y86.151 E0.00572
G1 X115.350 Y94.235 E0.29268
G1 X115.350 Y123.237 E0.90934
G1 X114.924 Y123.237 E0.01335
G1 X114.924 Y93.813 E0.92256
G1 X110.531 Y86.203 E0.27553
G1 X109.848 Y85.774 F10800.000
;TYPE:External perimeter
G1 F1200.000
G1 X110.901 Y85.774 E0.03302
G1 X115.727 Y94.134 E0.30268
G1 X115.727 Y123.614 E0.92433
G1 X114.547 Y123.614 E0.03700
G1 X114.547 Y93.914 E0.93122
G1 X109.878 Y85.826 E0.29284
M73 P2 R19
M73 Q2 S19
G1 X110.202 Y85.959 F10800.000
; stop printing object FingerBraceConnector-120degree.stl id:2 copy 0
; printing object FingerBraceConnector-120degree.stl id:0 copy 0
;WIPE_START
G1 F8640.000
G1 X110.901 Y85.774 E-0.23655
G1 X112.034 Y87.737 E-0.52345
;WIPE_END
G1 E-0.04000 F2100.000
G1 Z0.600 F10800.000
G1 X122.863 Y86.457
G1 Z0.200
G1 E0.80000 F2100.000
;TYPE:Perimeter
G1 F1200.000
G1 X123.046 Y86.457 E0.00572
G1 X127.713 Y94.541 E0.29268
G1 X127.713 Y123.543 E0.90934
G1 X127.287 Y123.543 E0.01335
G1 X127.287 Y94.119 E0.92256
G1 X122.893 Y86.509 E0.27553
G1 X122.210 Y86.080 F10800.000
;TYPE:External perimeter
G1 F1200.000
G1 X123.263 Y86.080 E0.03302
G1 X128.090 Y94.440 E0.30268
G1 X128.090 Y123.920 E0.92433
G1 X126.910 Y123.920 E0.03700
G1 X126.910 Y94.220 E0.93122
G1 X122.240 Y86.132 E0.29284
G1 X122.564 Y86.265 F10800.000
; stop printing object FingerBraceConnector-120degree.stl id:0 copy 0
; printing object FingerBraceConnector-120degree.stl id:1 copy 0
;WIPE_START
G1 F8640.000
G1 X123.263 Y86.080 E-0.23655
G1 X124.397 Y88.043 E-0.52345
;WIPE_END
G1 E-0.04000 F2100.000
G1 Z0.600 F10800.000
G1 X132.558 Y86.341
G1 Z0.200
G1 E0.80000 F2100.000
;TYPE:Perimeter
G1 F1200.000
G1 X132.740 Y86.341 E0.00572
G1 X137.408 Y94.425 E0.29268
G1 X137.408 Y123.427 E0.90934
G1 X136.982 Y123.427 E0.01335
G1 X136.982 Y94.003 E0.92256
M73 P3 R19
M73 Q3 S19
G1 X132.588 Y86.393 E0.27553
G1 X131.905 Y85.964 F10800.000
;TYPE:External perimeter
G1 F1200.000
G1 X132.958 Y85.964 E0.03302
G1 X137.785 Y94.324 E0.30268
G1 X137.785 Y123.804 E0.92433
G1 X136.605 Y123.804 E0.03700
G1 X136.605 Y94.104 E0.93122
G1 X131.935 Y86.016 E0.29284
G1 X132.259 Y86.150 F10800.000
; stop printing object FingerBraceConnector-120degree.stl id:1 copy 0
; printing object FingerBraceConnector-120degree.stl id:3 copy 0
;WIPE_START
G1 F8640.000
G1 X132.958 Y85.964 E-0.23655
G1 X134.092 Y87.927 E-0.52345
;WIPE_END
G1 E-0.04000 F2100.000
G1 Z0.600 F10800.000
G1 X141.666 Y87.032
G1 Z0.200
G1 E0.80000 F2100.000
;TYPE:Perimeter
G1 F1200.000
G1 X141.848 Y87.032 E0.00572
G1 X146.515 Y95.116 E0.29268
G1 X146.515 Y124.119 E0.90934
G1 X146.089 Y124.119 E0.01335
G1 X146.089 Y94.695 E0.92256
G1 X141.696 Y87.084 E0.27553
G1 X141.012 Y86.655 F10800.000
;TYPE:External perimeter
G1 F1200.000
G1 X142.066 Y86.655 E0.03302
G1 X146.892 Y95.015 E0.30268
G1 X146.892 Y124.496 E0.92433
M73 P4 R19
G1 X145.712 Y124.496 E0.03700
M73 Q4 S19
G1 X145.712 Y94.796 E0.93122
G1 X141.042 Y86.707 E0.29284
G1 X141.367 Y86.841 F10800.000
; stop printing object FingerBraceConnector-120degree.stl id:3 copy 0
M106 S84.15
;LAYER_CHANGE
;Z:0.3
;HEIGHT:0.1
;BEFORE_LAYER_CHANGE
G92 E0.0
;0.3


;WIPE_START
G1 F8640.000
G1 X142.066 Y86.655 E-0.23655
G1 X143.199 Y88.619 E-0.52345
;WIPE_END
G1 E-0.04000 F2100.000
G1 Z0.600 F10800.000
;AFTER_LAYER_CHANGE
;0.3
G1 X144.103 Y84.693
G1 Z0.300
G1 E0.80000 F2100.000
;TYPE:Skirt
G1 F3000.000
G1 X149.376 Y93.744 E0.17356
G1 X149.664 Y94.637 E0.01555
G1 X149.679 Y124.967 E0.50255
G1 X149.615 Y125.457 E0.00819
G1 X149.451 Y125.923 E0.00819
G1 X149.194 Y126.345 E0.00819
G1 X148.855 Y126.705 E0.00819
G1 X148.307 Y127.060 E0.01082
G1 X147.683 Y127.252 E0.01082
G1 X145.283 Y127.283 E0.03976
G1 X114.063 Y126.400 E0.51751
G1 X113.573 Y126.333 E0.00819
G1 X113.111 Y126.168 E0.00813
G1 X112.693 Y125.912 E0.00813
G1 X112.336 Y125.575 E0.00813
G1 X111.971 Y125.002 E0.01126
G1 X111.783 Y124.349 E0.01126
G1 X106.761 Y85.430 E0.65022
G1 X106.831 Y84.788 E0.01070
G1 X107.071 Y84.189 E0.01070
G1 X107.464 Y83.676 E0.01070
G1 X107.979 Y83.288 E0.01070
G1 X108.430 Y83.094 E0.00813
G1 X108.911 Y82.997 E0.00813
G1 X111.141 Y82.987 E0.03695
G1 X133.318 Y83.180 E0.36747
G1 X142.634 Y83.891 E0.15480
G1 X143.439 Y84.158 E0.01406
G1 X144.056 Y84.656 E0.01313
; printing object FingerBraceConnector-120degree.stl id:2 copy 0
;WIPE_START
G1 F8640.000
G1 X145.719 Y87.496 E-0.76000
;WIPE_END
G1 E-0.04000 F2100.000
G1 Z0.700 F10800.000
G1 X115.484 Y94.199
G1 Z0.300
G1 E0.80000 F2100.000
M204 S800
;TYPE:Perimeter
;WIDTH:0.45
G1 F2700.000
G1 X115.484 Y123.370 E0.51973
G1 X114.791 Y123.370 E0.01235
G1 X114.791 Y93.849 E0.52597
G1 X110.269 Y86.017 E0.16112
G1 X110.760 Y86.017 E0.00874
G1 X115.454 Y94.147 E0.16725
M204 S1000
G1 X115.825 Y93.933 F10800.000
M204 S800
;TYPE:External perimeter
G1 F1500.000
G1 X115.912 Y94.084 E0.00311
G1 X115.912 Y123.799 E0.52942
G1 X114.362 Y123.799 E0.02762
G1 X114.362 Y93.964 E0.53156
M73 P4 R18
G1 X109.527 Y85.589 E0.17230
G1 X111.007 Y85.589 E0.02638
G1 X115.795 Y93.881 E0.17059
M204 S1000
M73 P5 R18
G1 X115.744 Y94.088 F10800.000
;WIPE_START
G1 F8640.000
G1 X115.912 Y94.084 E-0.05422
G1 X115.912 Y97.141 E-0.70578
;WIPE_END
M73 Q5 S19
G1 E-0.04000 F2100.000
G1 Z0.700 F10800.000
G1 X115.137 Y123.156
G1 Z0.300
G1 E0.80000 F2100.000
;TYPE:Gap fill
;WIDTH:0.285844
G1 F2400.000
G1 X115.137 Y94.028 E0.32018
; stop printing object FingerBraceConnector-120degree.stl id:2 copy 0
; printing object FingerBraceConnector-120degree.stl id:0 copy 0
;WIPE_START
G1 F8640.000
G1 X115.137 Y97.319 E-0.76000
;WIPE_END
G1 E-0.04000 F2100.000
G1 Z0.700 F10800.000
G1 X122.632 Y86.323
G1 Z0.300
G1 E0.80000 F2100.000
M204 S800
;TYPE:Perimeter
;WIDTH:0.45
G1 F2700.000
G1 X123.123 Y86.323 E0.00874
G1 X127.846 Y94.505 E0.16832
G1 X127.846 Y123.677 E0.51973
G1 X127.154 Y123.677 E0.01235
G1 X127.154 Y94.155 E0.52597
G1 X122.662 Y86.375 E0.16005
M204 S1000
G1 X121.890 Y85.895 F10800.000
M204 S800
;TYPE:External perimeter
G1 F1500.000
G1 X123.370 Y85.895 E0.02638
G1 X128.275 Y94.390 E0.17478
G1 X128.275 Y124.105 E0.52942
G1 X126.725 Y124.105 E0.02762
G1 X126.725 Y94.270 E0.53156
G1 X121.920 Y85.947 E0.17123
M204 S1000
G1 X122.244 Y86.080 F10800.000
;WIPE_START
G1 F8640.000
G1 X123.370 Y85.895 E-0.33511
G1 X124.290 Y87.488 E-0.42489
;WIPE_END
G1 E-0.04000 F2100.000
G1 Z0.700 F10800.000
G1 X127.500 Y123.462
G1 Z0.300
G1 E0.80000 F2100.000
;TYPE:Gap fill
;WIDTH:0.285844
G1 F2400.000
G1 X127.500 Y94.334 E0.32018
; stop printing object FingerBraceConnector-120degree.stl id:0 copy 0
; printing object FingerBraceConnector-120degree.stl id:1 copy 0
;WIPE_START
G1 F8640.000
G1 X127.500 Y97.625 E-0.76000
;WIPE_END
G1 E-0.04000 F2100.000
G1 Z0.700 F10800.000
G1 X136.848 Y94.039
G1 Z0.300
G1 E0.80000 F2100.000
M204 S800
;TYPE:Perimeter
;WIDTH:0.45
G1 F2700.000
G1 X132.327 Y86.208 E0.16112
G1 X132.818 Y86.208 E0.00874
G1 X137.541 Y94.389 E0.16832
G1 X137.541 Y123.561 E0.51973
G1 X136.848 Y123.561 E0.01235
G1 X136.848 Y94.099 E0.52491
M204 S1000
G1 X136.420 Y94.154 F10800.000
M204 S800
;TYPE:External perimeter
G1 F1500.000
G1 X131.585 Y85.779 E0.17230
M73 P6 R18
G1 X133.065 Y85.779 E0.02638
G1 X137.970 Y94.275 E0.17478
M73 Q6 S19
G1 X137.970 Y123.989 E0.52942
M73 Q6 S18
G1 X136.420 Y123.989 E0.02762
G1 X136.420 Y94.214 E0.53049
M204 S1000
G1 X136.672 Y93.843 F10800.000
;WIPE_START
G1 F8640.000
G1 X134.783 Y91.359 E-0.76000
;WIPE_END
G1 E-0.04000 F2100.000
G1 Z0.700 F10800.000
G1 X137.195 Y123.347
G1 Z0.300
G1 E0.80000 F2100.000
;TYPE:Gap fill
;WIDTH:0.285844
G1 F2400.000
G1 X137.195 Y94.218 E0.32018
; stop printing object FingerBraceConnector-120degree.stl id:1 copy 0
; printing object FingerBraceConnector-120degree.stl id:3 copy 0
;WIPE_START
G1 F8640.000
G1 X137.195 Y97.509 E-0.76000
;WIPE_END
G1 E-0.04000 F2100.000
G1 Z0.700 F10800.000
G1 X145.956 Y94.730
G1 Z0.300
G1 E0.80000 F2100.000
M204 S800
;TYPE:Perimeter
;WIDTH:0.45
G1 F2700.000
G1 X141.434 Y86.899 E0.16112
G1 X141.925 Y86.899 E0.00874
G1 X146.649 Y95.081 E0.16832
G1 X146.649 Y124.252 E0.51973
G1 X145.956 Y124.252 E0.01235
G1 X145.956 Y94.790 E0.52491
M204 S1000
G1 X145.527 Y94.845 F10800.000
M204 S800
;TYPE:External perimeter
G1 F1500.000
G1 X140.692 Y86.470 E0.17230
G1 X142.172 Y86.470 E0.02638
G1 X147.077 Y94.966 E0.17478
G1 X147.077 Y124.681 E0.52942
G1 X145.527 Y124.681 E0.02762
G1 X145.527 Y94.905 E0.53049
M204 S1000
G1 X145.779 Y94.534 F10800.000
;WIPE_START
G1 F8640.000
G1 X143.890 Y92.050 E-0.76000
;WIPE_END
G1 E-0.04000 F2100.000
G1 Z0.700 F10800.000
G1 X146.302 Y124.038
G1 Z0.300
G1 E0.80000 F2100.000
;TYPE:Gap fill
;WIDTH:0.285844
G1 F2400.000
G1 X146.302 Y94.909 E0.32018
; stop printing object FingerBraceConnector-120degree.stl id:3 copy 0
M106 S170.85
;LAYER_CHANGE
;Z:0.4
;HEIGHT:0.1
;BEFORE_LAYER_CHANGE
G92 E0.0
;0.4


;WIPE_START
M73 P7 R18
G1 F8640.000
G1 X146.302 Y98.201 E-0.76000
;WIPE_END
G1 E-0.04000 F2100.000
G1 Z0.700 F10800.000
;AFTER_LAYER_CHANGE
;0.4
G1 X149.664 Y94.637
M73 Q7 S18
G1 Z0.400
G1 E0.80000 F2100.000
;TYPE:Skirt
;WIDTH:0.42
G1 F3000.000
G1 X149.679 Y124.967 E0.50255
G1 X149.615 Y125.457 E0.00819
G1 X149.451 Y125.923 E0.00819
G1 X149.194 Y126.345 E0.00819
G1 X148.855 Y126.705 E0.00819
G1 X148.307 Y127.060 E0.01082
G1 X147.683 Y127.252 E0.01082
G1 X145.283 Y127.283 E0.03976
G1 X114.063 Y126.400 E0.51751
G1 X113.573 Y126.333 E0.00819
G1 X113.111 Y126.168 E0.00813
G1 X112.693 Y125.912 E0.00813
G1 X112.336 Y125.575 E0.00813
G1 X111.971 Y125.002 E0.01126
G1 X111.783 Y124.349 E0.01126
G1 X106.761 Y85.430 E0.65022
G1 X106.831 Y84.788 E0.01070
G1 X107.071 Y84.189 E0.01070
G1 X107.464 Y83.676 E0.01070
G1 X107.979 Y83.288 E0.01070
G1 X108.430 Y83.094 E0.00813
G1 X108.911 Y82.997 E0.00813
G1 X111.141 Y82.987 E0.03695
G1 X133.318 Y83.180 E0.36747
G1 X142.634 Y83.891 E0.15480
G1 X143.439 Y84.158 E0.01406
G1 X144.103 Y84.693 E0.01412
G1 X149.376 Y93.744 E0.17356
G1 X149.646 Y94.580 E0.01456
; printing object FingerBraceConnector-120degree.stl id:2 copy 0
;WIPE_START
G1 F8640.000
G1 X149.649 Y97.871 E-0.76000
;WIPE_END
G1 E-0.04000 F2100.000
G1 Z0.800 F10800.000
G1 X115.484 Y94.199
G1 Z0.400
G1 E0.80000 F2100.000
M204 S800
;TYPE:Perimeter
;WIDTH:0.45
G1 F2700.000
G1 X115.484 Y123.370 E0.51973
G1 X114.791 Y123.370 E0.01235
G1 X114.791 Y93.849 E0.52597
G1 X110.269 Y86.017 E0.16112
G1 X110.760 Y86.017 E0.00874
G1 X115.454 Y94.147 E0.16725
M204 S1000
G1 X115.825 Y93.933 F10800.000
M204 S800
;TYPE:External perimeter
G1 F1500.000
G1 X115.912 Y94.084 E0.00311
G1 X115.912 Y123.799 E0.52942
G1 X114.362 Y123.799 E0.02762
G1 X114.362 Y93.964 E0.53156
G1 X109.527 Y85.589 E0.17230
G1 X111.007 Y85.589 E0.02638
G1 X115.795 Y93.881 E0.17059
M204 S1000
G1 X115.744 Y94.088 F10800.000
;WIPE_START
G1 F8640.000
G1 X115.912 Y94.084 E-0.05422
G1 X115.912 Y97.141 E-0.70578
;WIPE_END
G1 E-0.04000 F2100.000
G1 Z0.800 F10800.000
G1 X115.137 Y123.156
G1 Z0.400
G1 E0.80000 F2100.000
;TYPE:Gap fill
;WIDTH:0.285844
G1 F2400.000
G1 X115.137 Y94.028 E0.32018
; stop printing object FingerBraceConnector-120degree.stl id:2 copy 0
; printing object FingerBraceConnector-120degree.stl id:0 copy 0
;WIPE_START
G1 F8640.000
G1 X115.137 Y97.319 E-0.76000
;WIPE_END
G1 E-0.04000 F2100.000
G1 Z0.800 F10800.000
G1 X122.632 Y86.323
G1 Z0.400
G1 E0.80000 F2100.000
M204 S800
;TYPE:Perimeter
;WIDTH:0.45
G1 F2700.000
G1 X123.123 Y86.323 E0.00874
G1 X127.846 Y94.505 E0.16832
M73 P8 R18
G1 X127.846 Y123.677 E0.51973
M73 Q8 S18
G1 X127.154 Y123.677 E0.01235
G1 X127.154 Y94.155 E0.52597
G1 X122.662 Y86.375 E0.16005
M204 S1000
G1 X121.890 Y85.895 F10800.000
M204 S800
;TYPE:External perimeter
G1 F1500.000
G1 X123.370 Y85.895 E0.02638
G1 X128.275 Y94.390 E0.17478
G1 X128.275 Y124.105 E0.52942
G1 X126.725 Y124.105 E0.02762
G1 X126.725 Y94.270 E0.53156
G1 X121.920 Y85.947 E0.17123
M204 S1000
G1 X122.244 Y86.080 F10800.000
;WIPE_START
G1 F8640.000
G1 X123.370 Y85.895 E-0.33511
G1 X124.290 Y87.488 E-0.42489
;WIPE_END
G1 E-0.04000 F2100.000
G1 Z0.800 F10800.000
G1 X127.500 Y123.462
G1 Z0.400
G1 E0.80000 F2100.000
;TYPE:Gap fill
;WIDTH:0.285844
G1 F2400.000
G1 X127.500 Y94.334 E0.32018
; stop printing object FingerBraceConnector-120degree.stl id:0 copy 0
; printing object FingerBraceConnector-120degree.stl id:1 copy 0
;WIPE_START
G1 F8640.000
G1 X127.500 Y97.625 E-0.76000
;WIPE_END
G1 E-0.04000 F2100.000
G1 Z0.800 F10800.000
G1 X136.848 Y94.039
G1 Z0.400
G1 E0.80000 F2100.000
M204 S800
;TYPE:Perimeter
;WIDTH:0.45
G1 F2700.000
G1 X132.327 Y86.208 E0.16112
G1 X132.818 Y86.208 E0.00874
G1 X137.541 Y94.389 E0.16832
G1 X137.541 Y123.561 E0.51973
G1 X136.848 Y123.561 E0.01235
G1 X136.848 Y94.099 E0.52491
M204 S1000
G1 X136.420 Y94.154 F10800.000
M204 S800
;TYPE:External perimeter
G1 F1500.000
G1 X131.585 Y85.779 E0.17230
G1 X133.065 Y85.779 E0.02638
G1 X137.970 Y94.275 E0.17478
G1 X137.970 Y123.989 E0.52942
G1 X136.420 Y123.989 E0.02762
G1 X136.420 Y94.214 E0.53049
M204 S1000
M73 P9 R18
M73 Q9 S18
G1 X136.672 Y93.843 F10800.000
;WIPE_START
G1 F8640.000
G1 X134.783 Y91.359 E-0.76000
;WIPE_END
G1 E-0.04000 F2100.000
G1 Z0.800 F10800.000
G1 X137.195 Y123.347
G1 Z0.400
G1 E0.80000 F2100.000
;TYPE:Gap fill
;WIDTH:0.285844
G1 F2400.000
