; generated by PrusaSlicer 2.3.3+win64 on 2022-01-24 at 17:09:47 UTC

; 

; external perimeters extrusion width = 0.45mm
; perimeters extrusion width = 0.45mm
; infill extrusion width = 0.45mm
; solid infill extrusion width = 0.45mm
; top infill extrusion width = 0.40mm
; first layer extrusion width = 0.42mm

M73 P0 R10
M73 Q0 S10
M201 X1000 Y1000 Z200 E5000 ; sets maximum accelerations, mm/sec^2
M203 X200 Y200 Z12 E120 ; sets maximum feedrates, mm/sec
M204 P1250 R1250 T1250 ; sets acceleration (P, T) and retract acceleration (R), mm/sec^2
M205 X8.00 Y8.00 Z0.40 E4.50 ; sets the jerk limits, mm/sec
M205 S0 T0 ; sets the minimum extruding and travel feed rate, mm/sec
M107
;TYPE:Custom
M862.3 P "MK3S" ; printer model check
M862.1 P0.4 ; nozzle diameter check
M115 U3.10.0 ; tell printer latest fw version
G90 ; use absolute coordinates
M83 ; extruder relative mode
M104 S215 ; set extruder temp
M140 S60 ; set bed temp
M190 S60 ; wait for bed temp
M109 S215 ; wait for extruder temp
G28 W ; home all without mesh bed level
G80 ; mesh bed leveling
G1 Y-3.0 F1000.0 ; go outside print area
G92 E0.0
G1 X60.0 E9.0 F1000.0 ; intro line
G1 X100.0 E12.5 F1000.0 ; intro line
G92 E0.0
M221 S95

; Don't change E values below. Excessive value can damage the printer.
M907 E430 ; set extruder motor current
G21 ; set units to millimeters
G90 ; use absolute coordinates
M83 ; use relative distances for extrusion
M900 K0.05 ; Filament gcode LA 1.5
M900 K30 ; Filament gcode LA 1.0
;LAYER_CHANGE
;Z:0.2
;HEIGHT:0.2
;BEFORE_LAYER_CHANGE
G92 E0.0
;0.2


M73 P1 R10
M73 Q1 S10
G1 E-0.80000 F2100.000
G1 Z0.400 F10800.000
;AFTER_LAYER_CHANGE
;0.2
G1 X127.013 Y82.439
G1 Z0.200
G1 E0.80000 F2100.000
M204 S1000
;TYPE:Skirt
;WIDTH:0.42
G1 F1200.000
G1 X127.884 Y82.991 E0.03233
G1 X128.491 Y83.825 E0.03233
G1 X128.748 Y84.823 E0.03233
G1 X128.751 Y125.127 E1.26370
G1 X128.627 Y125.828 E0.02231
G1 X128.329 Y126.469 E0.02218
G1 X127.878 Y127.014 E0.02218
G1 X127.303 Y127.426 E0.02218
G1 X126.797 Y127.636 E0.01720
G1 X126.259 Y127.742 E0.01720
G1 X123.873 Y127.751 E0.07480
G1 X122.896 Y127.523 E0.03145
G1 X122.066 Y126.961 E0.03145
G1 X121.494 Y126.142 E0.03132
G1 X121.251 Y125.169 E0.03145
G1 X121.249 Y84.873 E1.26345
M73 P2 R10
M73 Q2 S10
G1 X121.369 Y84.184 E0.02192
G1 X121.660 Y83.548 E0.02192
G1 X122.101 Y83.006 E0.02192
G1 X122.668 Y82.590 E0.02205
G1 X123.176 Y82.372 E0.01733
G1 X123.717 Y82.260 E0.01733
G1 X126.004 Y82.246 E0.07172
G1 X126.954 Y82.428 E0.03032
G1 X126.881 Y82.792 F10800.000
G1 F1200.000
G1 X127.634 Y83.274 E0.02802
G1 X128.156 Y83.999 E0.02802
G1 X128.373 Y84.866 E0.02802
G1 X128.375 Y125.110 E1.26185
G1 X128.263 Y125.727 E0.01965
G1 X127.997 Y126.290 E0.01953
G1 X127.590 Y126.767 E0.01965
G1 X127.073 Y127.121 E0.01965
G1 X126.188 Y127.370 E0.02884
G1 X123.890 Y127.375 E0.07205
G1 X123.042 Y127.175 E0.02731
G1 X122.325 Y126.687 E0.02720
G1 X121.831 Y125.973 E0.02720
G1 X121.626 Y125.127 E0.02731
M73 P2 R9
G1 X121.625 Y84.890 E1.26161
G1 X121.735 Y84.280 E0.01941
G1 X121.997 Y83.720 E0.01941
G1 X122.399 Y83.243 E0.01953
G1 X122.907 Y82.889 E0.01941
G1 X123.797 Y82.632 E0.02907
G1 X126.004 Y82.623 E0.06918
G1 X126.822 Y82.781 E0.02614
; printing object C:/Users/mlp/AppData/Local/Temp/Neutron/Body2.stl id:0 copy 0
;WIPE_START
G1 F8640.000
G1 X127.634 Y83.274 E-0.21926
G1 X128.156 Y83.999 E-0.20633
G1 X128.373 Y84.866 E-0.20633
G1 X128.373 Y85.420 E-0.12808
;WIPE_END
G1 E-0.04000 F2100.000
G1 Z0.600 F10800.000
G1 X125.213 Y85.787
M73 Q3 S10
G1 Z0.200
G1 E0.80000 F2100.000
;TYPE:Perimeter
G1 F1200.000
G1 X125.213 Y124.213 E1.20482
M73 P3 R9
M73 Q3 S9
G1 X124.787 Y124.213 E0.01335
G1 X124.787 Y85.787 E1.20482
G1 X125.153 Y85.787 E0.01147
G1 X125.590 Y85.410 F10800.000
;TYPE:External perimeter
G1 F1200.000
G1 X125.590 Y124.590 E1.22846
M73 P4 R9
M73 Q4 S9
G1 X124.410 Y124.590 E0.03700
G1 X124.410 Y85.410 E1.22846
G1 X125.530 Y85.410 E0.03512
G1 X125.586 Y85.810 F10800.000
; stop printing object C:/Users/mlp/AppData/Local/Temp/Neutron/Body2.stl id:0 copy 0
M106 S84.15
;LAYER_CHANGE
;Z:0.3
;HEIGHT:0.1
;BEFORE_LAYER_CHANGE
G92 E0.0
;0.3


;WIPE_START
G1 F8640.000
G1 X125.535 Y88.701 E-0.76000
;WIPE_END
G1 E-0.04000 F2100.000
G1 Z0.600 F10800.000
;AFTER_LAYER_CHANGE
;0.3
M104 S210 ; set temperature
G1 X128.491 Y83.825
G1 Z0.300
G1 E0.80000 F2100.000
;TYPE:Skirt
G1 F1692
G1 X128.748 Y84.823 E0.01709
G1 X128.751 Y125.127 E0.66781
G1 X128.627 Y125.828 E0.01179
G1 X128.329 Y126.469 E0.01172
G1 X127.878 Y127.014 E0.01172
G1 X127.303 Y127.426 E0.01172
G1 X126.797 Y127.636 E0.00909
G1 X126.259 Y127.742 E0.00909
G1 X123.873 Y127.751 E0.03953
G1 X122.896 Y127.523 E0.01662
G1 X122.066 Y126.961 E0.01662
G1 X121.494 Y126.142 E0.01655
G1 X121.251 Y125.169 E0.01662
G1 X121.249 Y84.873 E0.66768
M73 P5 R9
M73 Q5 S9
G1 X121.369 Y84.184 E0.01159
G1 X121.660 Y83.548 E0.01159
G1 X122.101 Y83.006 E0.01159
G1 X122.668 Y82.590 E0.01165
G1 X123.176 Y82.372 E0.00916
G1 X123.717 Y82.260 E0.00916
G1 X126.004 Y82.246 E0.03790
G1 X127.013 Y82.439 E0.01702
G1 X127.884 Y82.991 E0.01709
G1 X128.455 Y83.776 E0.01609
G1 X128.153 Y83.994 F10800.000
G1 F1692
G1 X128.373 Y84.866 E0.01490
G1 X128.375 Y125.110 E0.66683
G1 X128.263 Y125.727 E0.01038
G1 X127.997 Y126.290 E0.01032
G1 X127.590 Y126.767 E0.01038
G1 X127.073 Y127.121 E0.01038
G1 X126.188 Y127.370 E0.01524
G1 X123.890 Y127.375 E0.03808
G1 X123.042 Y127.175 E0.01443
G1 X122.325 Y126.687 E0.01437
G1 X121.831 Y125.973 E0.01437
G1 X121.626 Y125.127 E0.01443
G1 X121.625 Y84.890 E0.66670
G1 X121.735 Y84.280 E0.01026
G1 X121.997 Y83.720 E0.01026
G1 X122.399 Y83.243 E0.01032
G1 X122.907 Y82.889 E0.01026
G1 X123.797 Y82.632 E0.01536
G1 X126.004 Y82.623 E0.03656
G1 X126.881 Y82.792 E0.01481
G1 X127.634 Y83.274 E0.01481
G1 X128.118 Y83.945 E0.01371
; printing object C:/Users/mlp/AppData/Local/Temp/Neutron/Body2.stl id:0 copy 0
;WIPE_START
G1 F8640.000
G1 X128.373 Y84.866 E-0.22055
G1 X128.373 Y87.202 E-0.53945
;WIPE_END
G1 E-0.04000 F2100.000
G1 Z0.700 F10800.000
G1 X125.346 Y85.654
G1 Z0.300
G1 E0.80000 F2100.000
M204 S800
;TYPE:Perimeter
;WIDTH:0.45
G1 F1692
G1 X125.346 Y124.346 E0.68938
G1 X124.654 Y124.346 E0.01235
G1 X124.654 Y85.654 E0.68938
M73 P6 R9
M73 Q6 S9
G1 X125.286 Y85.654 E0.01128
M204 S1000
G1 X125.775 Y85.225 F10800.000
M204 S800
;TYPE:External perimeter
G1 F1500.000
G1 X125.775 Y124.775 E0.70465
G1 X124.225 Y124.775 E0.02762
G1 X124.225 Y85.225 E0.70465
G1 X125.715 Y85.225 E0.02655
M204 S1000
G1 X125.770 Y85.625 F10800.000
;WIPE_START
G1 F8640.000
G1 X125.720 Y88.516 E-0.76000
;WIPE_END
G1 E-0.04000 F2100.000
G1 Z0.700 F10800.000
G1 X125.000 Y124.132
G1 Z0.300
G1 E0.80000 F2100.000
;TYPE:Gap fill
;WIDTH:0.285844
G1 F1692
G1 X125.000 Y85.868 E0.42059
; stop printing object C:/Users/mlp/AppData/Local/Temp/Neutron/Body2.stl id:0 copy 0
M106 S170.85
;LAYER_CHANGE
;Z:0.4
;HEIGHT:0.1
;BEFORE_LAYER_CHANGE
G92 E0.0
;0.4


;WIPE_START
M73 P7 R9
M73 Q7 S9
G1 F8640.000
G1 X125.000 Y89.159 E-0.76000
;WIPE_END
G1 E-0.04000 F2100.000
G1 Z0.700 F10800.000
;AFTER_LAYER_CHANGE
;0.4
G1 X128.491 Y83.825
G1 Z0.400
G1 E0.80000 F2100.000
;TYPE:Skirt
;WIDTH:0.42
G1 F1693
G1 X128.748 Y84.823 E0.01709
G1 X128.751 Y125.127 E0.66781
G1 X128.627 Y125.828 E0.01179
G1 X128.329 Y126.469 E0.01172
G1 X127.878 Y127.014 E0.01172
G1 X127.303 Y127.426 E0.01172
G1 X126.797 Y127.636 E0.00909
G1 X126.259 Y127.742 E0.00909
G1 X123.873 Y127.751 E0.03953
G1 X122.896 Y127.523 E0.01662
G1 X122.066 Y126.961 E0.01662
G1 X121.494 Y126.142 E0.01655
G1 X121.251 Y125.169 E0.01662
G1 X121.249 Y84.873 E0.66768
G1 X121.369 Y84.184 E0.01159
G1 X121.660 Y83.548 E0.01159
G1 X122.101 Y83.006 E0.01159
G1 X122.668 Y82.590 E0.01165
G1 X123.176 Y82.372 E0.00916
G1 X123.717 Y82.260 E0.00916
G1 X126.004 Y82.246 E0.03790
G1 X127.013 Y82.439 E0.01702
G1 X127.884 Y82.991 E0.01709
G1 X128.455 Y83.776 E0.01609
G1 X128.153 Y83.994 F10800.000
G1 F1693
G1 X128.373 Y84.866 E0.01490
G1 X128.375 Y125.110 E0.66683
M73 P8 R9
M73 Q8 S9
G1 X128.263 Y125.727 E0.01038
G1 X127.997 Y126.290 E0.01032
G1 X127.590 Y126.767 E0.01038
G1 X127.073 Y127.121 E0.01038
G1 X126.188 Y127.370 E0.01524
G1 X123.890 Y127.375 E0.03808
G1 X123.042 Y127.175 E0.01443
G1 X122.325 Y126.687 E0.01437
G1 X121.831 Y125.973 E0.01437
G1 X121.626 Y125.127 E0.01443
G1 X121.625 Y84.890 E0.66670
G1 X121.735 Y84.280 E0.01026
G1 X121.997 Y83.720 E0.01026
G1 X122.399 Y83.243 E0.01032
G1 X122.907 Y82.889 E0.01026
G1 X123.797 Y82.632 E0.01536
G1 X126.004 Y82.623 E0.03656
G1 X126.881 Y82.792 E0.01481
G1 X127.634 Y83.274 E0.01481
G1 X128.118 Y83.945 E0.01371
; printing object C:/Users/mlp/AppData/Local/Temp/Neutron/Body2.stl id:0 copy 0
;WIPE_START
G1 F8640.000
G1 X128.373 Y84.866 E-0.22055
G1 X128.373 Y87.202 E-0.53945
;WIPE_END
G1 E-0.04000 F2100.000
G1 Z0.800 F10800.000
G1 X125.346 Y85.654
G1 Z0.400
G1 E0.80000 F2100.000
M204 S800
;TYPE:Perimeter
;WIDTH:0.45
G1 F1693
G1 X125.346 Y124.346 E0.68938
G1 X124.654 Y124.346 E0.01235
G1 X124.654 Y85.654 E0.68938
M73 P9 R9
M73 Q9 S9
G1 X125.286 Y85.654 E0.01128
M204 S1000
G1 X125.775 Y85.225 F10800.000
M204 S800
;TYPE:External perimeter
G1 F1500.000
G1 X125.775 Y124.775 E0.70465
G1 X124.225 Y124.775 E0.02762
G1 X124.225 Y85.225 E0.70465
G1 X125.715 Y85.225 E0.02655
M204 S1000
G1 X125.770 Y85.625 F10800.000
;WIPE_START
G1 F8640.000
G1 X125.720 Y88.516 E-0.76000
;WIPE_END
G1 E-0.04000 F2100.000
G1 Z0.800 F10800.000
G1 X125.000 Y124.132
G1 Z0.400
G1 E0.80000 F2100.000
;TYPE:Gap fill
;WIDTH:0.285844
G1 F1693
G1 X125.000 Y85.868 E0.42059
; stop printing object C:/Users/mlp/AppData/Local/Temp/Neutron/Body2.stl id:0 copy 0
M106 S255
;LAYER_CHANGE
;Z:0.5
;HEIGHT:0.1
;BEFORE_LAYER_CHANGE
G92 E0.0
;0.5


;WIPE_START
G1 F8640.000
G1 X125.000 Y89.159 E-0.76000
;WIPE_END
G1 E-0.04000 F2100.000
G1 Z0.800 F10800.000
;AFTER_LAYER_CHANGE
;0.5
; printing object C:/Users/mlp/AppData/Local/Temp/Neutron/Body2.stl id:0 copy 0
G1 X124.654 Y85.654
M73 Q10 S9
G1 Z0.500
G1 E0.80000 F2100.000
M204 S800
;TYPE:Perimeter
;WIDTH:0.45
M73 P10 R9
G1 F900
G1 X125.346 Y85.654 E0.01235
G1 X125.346 Y124.346 E0.68938
G1 X124.654 Y124.346 E0.01235
G1 X124.654 Y85.714 E0.68831
M204 S1000
G1 X124.225 Y85.225 F10800.000
M204 S800
;TYPE:External perimeter
G1 F900
G1 X125.775 Y85.225 E0.02762
G1 X125.775 Y124.775 E0.70465
M73 P11 R9
M73 Q11 S9
G1 X124.225 Y124.775 E0.02762
G1 X124.225 Y85.285 E0.70358
M204 S1000
G1 X124.574 Y85.420 F10800.000
;WIPE_START
G1 F8640.000
G1 X125.775 Y85.225 E-0.35817
G1 X125.775 Y86.965 E-0.40183
;WIPE_END
G1 E-0.04000 F2100.000
G1 Z0.900 F10800.000
G1 X125.000 Y124.132
G1 Z0.500
G1 E0.80000 F2100.000
;TYPE:Gap fill
;WIDTH:0.285844
G1 F900
G1 X125.000 Y85.868 E0.42059
; stop printing object C:/Users/mlp/AppData/Local/Temp/Neutron/Body2.stl id:0 copy 0
;LAYER_CHANGE
;Z:0.6
;HEIGHT:0.1
;BEFORE_LAYER_CHANGE
G92 E0.0
;0.6


;WIPE_START
M73 P12 R9
M73 Q12 S9
G1 F8640.000
G1 X125.000 Y89.159 E-0.76000
;WIPE_END
G1 E-0.04000 F2100.000
G1 Z0.900 F10800.000
;AFTER_LAYER_CHANGE
;0.6
; printing object C:/Users/mlp/AppData/Local/Temp/Neutron/Body2.stl id:0 copy 0
G1 X124.654 Y85.654
G1 Z0.600
G1 E0.80000 F2100.000
M204 S800
;TYPE:Perimeter
;WIDTH:0.45
G1 F900
G1 X125.346 Y85.654 E0.01235
G1 X125.346 Y124.346 E0.68938
M73 P12 R8
G1 X124.654 Y124.346 E0.01235
G1 X124.654 Y85.714 E0.68831
M204 S1000
M73 P13 R8
M73 Q13 S8
G1 X124.225 Y85.225 F10800.000
M204 S800
;TYPE:External perimeter
G1 F900
G1 X125.775 Y85.225 E0.02762
G1 X125.775 Y124.775 E0.70465
G1 X124.225 Y124.775 E0.02762
G1 X124.225 Y85.285 E0.70358
M204 S1000
M73 P14 R8
M73 Q14 S8
G1 X124.574 Y85.420 F10800.000
;WIPE_START
G1 F8640.000
G1 X125.775 Y85.225 E-0.35817
G1 X125.775 Y86.965 E-0.40183
;WIPE_END
G1 E-0.04000 F2100.000
G1 Z1.000 F10800.000
G1 X125.000 Y124.132
G1 Z0.600
G1 E0.80000 F2100.000
;TYPE:Gap fill
;WIDTH:0.285844
G1 F900
G1 X125.000 Y85.868 E0.42059
; stop printing object C:/Users/mlp/AppData/Local/Temp/Neutron/Body2.stl id:0 copy 0
;LAYER_CHANGE
;Z:0.7
;HEIGHT:0.1
;BEFORE_LAYER_CHANGE
G92 E0.0
;0.7


;WIPE_START
G1 F8640.000
G1 X125.000 Y89.159 E-0.76000
;WIPE_END
G1 E-0.04000 F2100.000
G1 Z1.000 F10800.000
;AFTER_LAYER_CHANGE
;0.7
; printing object C:/Users/mlp/AppData/Local/Temp/Neutron/Body2.stl id:0 copy 0
G1 X124.654 Y85.654
G1 Z0.700
G1 E0.80000 F2100.000
M204 S800
;TYPE:Perimeter
;WIDTH:0.45
G1 F900
G1 X125.346 Y85.654 E0.01235
G1 X125.346 Y124.346 E0.68938
M73 P15 R8
M73 Q15 S8
G1 X124.654 Y124.346 E0.01235
G1 X124.654 Y85.714 E0.68831
M204 S1000
G1 X124.225 Y85.225 F10800.000
M204 S800
;TYPE:External perimeter
G1 F900
G1 X125.775 Y85.225 E0.02762
G1 X125.775 Y124.775 E0.70465
M73 P16 R8
M73 Q16 S8
G1 X124.225 Y124.775 E0.02762
G1 X124.225 Y85.285 E0.70358
M204 S1000
G1 X124.574 Y85.420 F10800.000
;WIPE_START
G1 F8640.000
G1 X125.775 Y85.225 E-0.35817
G1 X125.775 Y86.965 E-0.40183
;WIPE_END
G1 E-0.04000 F2100.000
G1 Z1.100 F10800.000
G1 X125.000 Y124.132
G1 Z0.700
G1 E0.80000 F2100.000
;TYPE:Gap fill
;WIDTH:0.285844
G1 F900
G1 X125.000 Y85.868 E0.42059
; stop printing object C:/Users/mlp/AppData/Local/Temp/Neutron/Body2.stl id:0 copy 0
;LAYER_CHANGE
;Z:0.8
;HEIGHT:0.1
;BEFORE_LAYER_CHANGE
G92 E0.0
;0.8


;WIPE_START
M73 P17 R8
M73 Q17 S8
G1 F8640.000
G1 X125.000 Y89.159 E-0.76000
;WIPE_END
G1 E-0.04000 F2100.000
G1 Z1.100 F10800.000
;AFTER_LAYER_CHANGE
;0.8
; printing object C:/Users/mlp/AppData/Local/Temp/Neutron/Body2.stl id:0 copy 0
G1 X124.654 Y85.654
G1 Z0.800
G1 E0.80000 F2100.000
M204 S800
;TYPE:Perimeter
;WIDTH:0.45
G1 F900
G1 X125.346 Y85.654 E0.01235
G1 X125.346 Y124.346 E0.68938
G1 X124.654 Y124.346 E0.01235
G1 X124.654 Y85.714 E0.68831
M204 S1000
M73 P18 R8
M73 Q18 S8
G1 X124.225 Y85.225 F10800.000
M204 S800
;TYPE:External perimeter
G1 F900
G1 X125.775 Y85.225 E0.02762
G1 X125.775 Y124.775 E0.70465
G1 X124.225 Y124.775 E0.02762
G1 X124.225 Y85.285 E0.70358
M204 S1000
M73 P19 R8
M73 Q19 S8
G1 X124.574 Y85.420 F10800.000
;WIPE_START
G1 F8640.000
G1 X125.775 Y85.225 E-0.35817
G1 X125.775 Y86.965 E-0.40183
;WIPE_END
G1 E-0.04000 F2100.000
G1 Z1.200 F10800.000
G1 X125.000 Y124.132
G1 Z0.800
G1 E0.80000 F2100.000
;TYPE:Gap fill
;WIDTH:0.285844
G1 F900
G1 X125.000 Y85.868 E0.42059
; stop printing object C:/Users/mlp/AppData/Local/Temp/Neutron/Body2.stl id:0 copy 0
;LAYER_CHANGE
;Z:0.9
;HEIGHT:0.1
;BEFORE_LAYER_CHANGE
G92 E0.0
;0.9


;WIPE_START
G1 F8640.000
G1 X125.000 Y89.159 E-0.76000
;WIPE_END
G1 E-0.04000 F2100.000
G1 Z1.200 F10800.000
;AFTER_LAYER_CHANGE
;0.9
; printing object C:/Users/mlp/AppData/Local/Temp/Neutron/Body2.stl id:0 copy 0
G1 X124.654 Y85.654
G1 Z0.900
G1 E0.80000 F2100.000
M204 S800
;TYPE:Perimeter
;WIDTH:0.45
G1 F900
G1 X125.346 Y85.654 E0.01235
G1 X125.346 Y124.346 E0.68938
M73 P20 R8
M73 Q20 S8
G1 X124.654 Y124.346 E0.01235
G1 X124.654 Y85.714 E0.68831
M204 S1000
G1 X124.225 Y85.225 F10800.000
M204 S800
;TYPE:External perimeter
G1 F900
G1 X125.775 Y85.225 E0.02762
G1 X125.775 Y124.775 E0.70465
M73 P21 R8
M73 Q21 S8
G1 X124.225 Y124.775 E0.02762
G1 X124.225 Y85.285 E0.70358
M204 S1000
G1 X124.574 Y85.420 F10800.000
;WIPE_START
G1 F8640.000
G1 X125.775 Y85.225 E-0.35817
G1 X125.775 Y86.965 E-0.40183
;WIPE_END
G1 E-0.04000 F2100.000
G1 Z1.300 F10800.000
G1 X125.000 Y124.132
G1 Z0.900
G1 E0.80000 F2100.000
;TYPE:Gap fill
;WIDTH:0.285844
G1 F900
G1 X125.000 Y85.868 E0.42059
; stop printing object C:/Users/mlp/AppData/Local/Temp/Neutron/Body2.stl id:0 copy 0
;LAYER_CHANGE
;Z:1
;HEIGHT:0.1
;BEFORE_LAYER_CHANGE
G92 E0.0
;1


;WIPE_START
M73 P22 R8
M73 Q22 S8
G1 F8640.000
G1 X125.000 Y89.159 E-0.76000
;WIPE_END
G1 E-0.04000 F2100.000
G1 Z1.300 F10800.000
;AFTER_LAYER_CHANGE
;1
; printing object C:/Users/mlp/AppData/Local/Temp/Neutron/Body2.stl id:0 copy 0
G1 X124.654 Y85.654
G1 Z1.000
G1 E0.80000 F2100.000
M204 S800
;TYPE:Perimeter
;WIDTH:0.45
G1 F900
G1 X125.346 Y85.654 E0.01235
G1 X125.346 Y124.346 E0.68938
G1 X124.654 Y124.346 E0.01235
G1 X124.654 Y85.714 E0.68831
M204 S1000
M73 P23 R7
M73 Q23 S8
G1 X124.225 Y85.225 F10800.000
M204 S800
;TYPE:External perimeter
G1 F900
G1 X125.775 Y85.225 E0.02762
G1 X125.775 Y124.775 E0.70465
M73 Q23 S7
G1 X124.225 Y124.775 E0.02762
