; generated by PrusaSlicer 2.3.3+win64 on 2022-01-24 at 17:49:38 UTC

; 

; external perimeters extrusion width = 0.45mm
; perimeters extrusion width = 0.45mm
; infill extrusion width = 0.45mm
; solid infill extrusion width = 0.45mm
; top infill extrusion width = 0.40mm
; first layer extrusion width = 0.42mm

M73 P0 R9
M73 Q0 S9
M201 X1000 Y1000 Z200 E5000 ; sets maximum accelerations, mm/sec^2
M203 X200 Y200 Z12 E120 ; sets maximum feedrates, mm/sec
M204 P1250 R1250 T1250 ; sets acceleration (P, T) and retract acceleration (R), mm/sec^2
M205 X8.00 Y8.00 Z0.40 E4.50 ; sets the jerk limits, mm/sec
M205 S0 T0 ; sets the minimum extruding and travel feed rate, mm/sec
M107
;TYPE:Custom
M862.3 P "MK3S" ; printer model check
M862.1 P0.4 ; nozzle diameter check
M115 U3.10.0 ; tell printer latest fw version
G90 ; use absolute coordinates
M83 ; extruder relative mode
M104 S215 ; set extruder temp
M140 S60 ; set bed temp
M190 S60 ; wait for bed temp
M109 S215 ; wait for extruder temp
G28 W ; home all without mesh bed level
G80 ; mesh bed leveling
G1 Y-3.0 F1000.0 ; go outside print area
G92 E0.0
G1 X60.0 E9.0 F1000.0 ; intro line
G1 X100.0 E12.5 F1000.0 ; intro line
G92 E0.0
M221 S95

; Don't change E values below. Excessive value can damage the printer.
M907 E430 ; set extruder motor current
G21 ; set units to millimeters
G90 ; use absolute coordinates
M83 ; use relative distances for extrusion
M900 K0.05 ; Filament gcode LA 1.5
M900 K30 ; Filament gcode LA 1.0
;LAYER_CHANGE
;Z:0.2
;HEIGHT:0.2
;BEFORE_LAYER_CHANGE
G92 E0.0
;0.2


M73 P1 R9
M73 Q1 S9
G1 E-0.80000 F2100.000
G1 Z0.400 F10800.000
;AFTER_LAYER_CHANGE
;0.2
G1 X119.421 Y83.863
G1 Z0.200
G1 E0.80000 F2100.000
M204 S1000
;TYPE:Skirt
;WIDTH:0.42
G1 F1200.000
G1 X119.998 Y83.362 E0.02396
G1 X120.550 Y83.085 E0.01937
G1 X121.154 Y82.938 E0.01950
G1 X123.504 Y82.916 E0.07368
G1 X124.162 Y82.996 E0.02078
G1 X124.777 Y83.230 E0.02065
G1 X125.320 Y83.603 E0.02065
G1 X125.759 Y84.094 E0.02065
G1 X130.909 Y92.996 E0.32246
G1 X131.121 Y93.484 E0.01669
G1 X131.234 Y94.000 E0.01656
G1 X131.247 Y124.531 E0.95727
G1 X131.018 Y125.445 E0.02955
G1 X130.495 Y126.229 E0.02955
G1 X129.738 Y126.790 E0.02955
G1 X128.832 Y127.064 E0.02968
G1 X126.344 Y127.080 E0.07800
G1 X125.445 Y126.874 E0.02892
G1 X124.881 Y126.558 E0.02026
G1 X124.409 Y126.123 E0.02014
G1 X124.051 Y125.590 E0.02014
G1 X123.825 Y124.985 E0.02026
G1 X118.766 Y85.999 E1.23263
M73 P2 R9
M73 Q2 S9
G1 X118.780 Y85.235 E0.02396
G1 X119.005 Y84.504 E0.02396
G1 X119.388 Y83.914 E0.02208
G1 X119.739 Y84.073 F10800.000
G1 F1200.000
G1 X120.263 Y83.640 E0.02130
G1 X120.735 Y83.419 E0.01633
G1 X121.247 Y83.306 E0.01645
G1 X123.504 Y83.293 E0.07076
G1 X124.077 Y83.364 E0.01811
G1 X124.613 Y83.569 E0.01799
G1 X125.084 Y83.897 E0.01799
G1 X125.462 Y84.328 E0.01799
G1 X130.577 Y93.175 E0.32041
G1 X130.860 Y94.042 E0.02860
G1 X130.872 Y124.482 E0.95443
G1 X130.680 Y125.278 E0.02567
G1 X130.226 Y125.964 E0.02579
G1 X129.570 Y126.453 E0.02567
G1 X128.786 Y126.690 E0.02567
G1 X126.390 Y126.705 E0.07514
G1 X125.629 Y126.542 E0.02437
G1 X125.125 Y126.269 E0.01799
G1 X124.703 Y125.886 E0.01787
G1 X124.384 Y125.413 E0.01787
G1 X124.187 Y124.879 E0.01787
G1 X119.140 Y85.956 E1.23061
M73 P3 R9
M73 Q3 S9
G1 X119.156 Y85.277 E0.02130
G1 X119.361 Y84.633 E0.02119
G1 X119.706 Y84.123 E0.01931
; printing object C:/Users/mlp/AppData/Local/Temp/Neutron/Body3.stl id:0 copy 0
;WIPE_START
G1 F8640.000
G1 X120.263 Y83.640 E-0.17023
G1 X120.735 Y83.419 E-0.12025
G1 X121.247 Y83.306 E-0.12113
G1 X122.756 Y83.297 E-0.34839
;WIPE_END
G1 E-0.04000 F2100.000
G1 Z0.600 F10800.000
G1 X122.863 Y86.457
G1 Z0.200
G1 E0.80000 F2100.000
;TYPE:Perimeter
G1 F1200.000
G1 X123.046 Y86.457 E0.00572
G1 X127.713 Y94.541 E0.29268
G1 X127.713 Y123.543 E0.90934
G1 X127.287 Y123.543 E0.01335
G1 X127.287 Y94.119 E0.92256
G1 X122.893 Y86.509 E0.27553
G1 X122.210 Y86.080 F10800.000
;TYPE:External perimeter
G1 F1200.000
G1 X123.263 Y86.080 E0.03302
G1 X128.090 Y94.440 E0.30268
G1 X128.090 Y123.920 E0.92433
M73 P4 R9
M73 Q4 S9
G1 X126.910 Y123.920 E0.03700
G1 X126.910 Y94.220 E0.93122
G1 X122.240 Y86.132 E0.29284
G1 X122.564 Y86.265 F10800.000
; stop printing object C:/Users/mlp/AppData/Local/Temp/Neutron/Body3.stl id:0 copy 0
M106 S84.15
;LAYER_CHANGE
;Z:0.3
;HEIGHT:0.1
;BEFORE_LAYER_CHANGE
G92 E0.0
;0.3


;WIPE_START
G1 F8640.000
G1 X123.263 Y86.080 E-0.23655
G1 X124.397 Y88.043 E-0.52345
;WIPE_END
G1 E-0.04000 F2100.000
G1 Z0.600 F10800.000
;AFTER_LAYER_CHANGE
;0.3
M104 S210 ; set temperature
G1 X129.738 Y126.790
G1 Z0.300
G1 E0.80000 F2100.000
;TYPE:Skirt
G1 F1656
G1 X128.832 Y127.064 E0.01568
G1 X126.344 Y127.080 E0.04122
G1 X125.445 Y126.874 E0.01528
G1 X124.881 Y126.558 E0.01071
G1 X124.409 Y126.123 E0.01064
G1 X124.051 Y125.590 E0.01064
G1 X123.825 Y124.985 E0.01071
G1 X118.766 Y85.999 E0.65139
M73 Q5 S9
G1 X118.780 Y85.235 E0.01266
G1 X119.005 Y84.504 E0.01266
G1 X119.421 Y83.863 E0.01266
G1 X119.998 Y83.362 E0.01266
M73 P5 R9
G1 X120.550 Y83.085 E0.01024
G1 X121.154 Y82.938 E0.01030
G1 X123.504 Y82.916 E0.03894
G1 X124.162 Y82.996 E0.01098
G1 X124.777 Y83.230 E0.01091
G1 X125.320 Y83.603 E0.01091
G1 X125.759 Y84.094 E0.01091
G1 X130.909 Y92.996 E0.17041
G1 X131.121 Y93.484 E0.00882
G1 X131.234 Y94.000 E0.00875
G1 X131.247 Y124.531 E0.50588
G1 X131.018 Y125.445 E0.01562
G1 X130.495 Y126.229 E0.01562
G1 X129.786 Y126.755 E0.01462
G1 X129.570 Y126.453 F10800.000
G1 F1656
G1 X128.786 Y126.690 E0.01356
G1 X126.390 Y126.705 E0.03971
G1 X125.629 Y126.542 E0.01288
G1 X125.125 Y126.269 E0.00951
G1 X124.703 Y125.886 E0.00944
G1 X124.384 Y125.413 E0.00944
G1 X124.187 Y124.879 E0.00944
G1 X119.140 Y85.956 E0.65032
G1 X119.156 Y85.277 E0.01126
G1 X119.361 Y84.633 E0.01120
G1 X119.739 Y84.073 E0.01120
G1 X120.263 Y83.640 E0.01126
G1 X120.735 Y83.419 E0.00863
G1 X121.247 Y83.306 E0.00869
G1 X123.504 Y83.293 E0.03739
G1 X124.077 Y83.364 E0.00957
G1 X124.613 Y83.569 E0.00951
G1 X125.084 Y83.897 E0.00951
G1 X125.462 Y84.328 E0.00951
G1 X130.577 Y93.175 E0.16932
G1 X130.860 Y94.042 E0.01512
G1 X130.872 Y124.482 E0.50437
M73 Q6 S9
G1 X130.680 Y125.278 E0.01356
G1 X130.226 Y125.964 E0.01363
G1 X129.618 Y126.417 E0.01257
; printing object C:/Users/mlp/AppData/Local/Temp/Neutron/Body3.stl id:0 copy 0
;WIPE_START
G1 F8640.000
G1 X128.786 Y126.690 E-0.20211
G1 X126.390 Y126.705 E-0.55336
G1 X126.370 Y126.701 E-0.00452
;WIPE_END
G1 E-0.04000 F2100.000
G1 Z0.700 F10800.000
M73 P6 R9
G1 X127.846 Y123.677
G1 Z0.300
G1 E0.80000 F2100.000
M204 S800
;TYPE:Perimeter
;WIDTH:0.45
G1 F1656
G1 X127.154 Y123.677 E0.01235
G1 X127.154 Y94.155 E0.52597
G1 X122.632 Y86.323 E0.16112
G1 X123.123 Y86.323 E0.00874
G1 X127.846 Y94.505 E0.16832
G1 X127.846 Y123.617 E0.51867
M204 S1000
G1 X128.275 Y124.105 F10800.000
M204 S800
;TYPE:External perimeter
G1 F1500.000
G1 X126.725 Y124.105 E0.02762
G1 X126.725 Y94.270 E0.53156
G1 X121.890 Y85.895 E0.17230
G1 X123.370 Y85.895 E0.02638
G1 X128.275 Y94.390 E0.17478
M73 Q7 S9
G1 X128.275 Y124.045 E0.52835
M204 S1000
M73 P7 R9
G1 X127.920 Y123.920 F10800.000
;WIPE_START
G1 F8640.000
G1 X126.725 Y124.105 E-0.35817
G1 X126.725 Y122.365 E-0.40183
;WIPE_END
G1 E-0.04000 F2100.000
G1 Z0.700 F10800.000
G1 X127.500 Y94.334
G1 Z0.300
G1 E0.80000 F2100.000
;TYPE:Gap fill
;WIDTH:0.285844
G1 F1656
G1 X127.500 Y123.462 E0.32018
; stop printing object C:/Users/mlp/AppData/Local/Temp/Neutron/Body3.stl id:0 copy 0
M106 S170.85
;LAYER_CHANGE
;Z:0.4
;HEIGHT:0.1
;BEFORE_LAYER_CHANGE
G92 E0.0
;0.4


;WIPE_START
G1 F8640.000
G1 X127.500 Y120.171 E-0.76000
;WIPE_END
G1 E-0.04000 F2100.000
G1 Z0.700 F10800.000
;AFTER_LAYER_CHANGE
;0.4
G1 X131.018 Y125.445
G1 Z0.400
G1 E0.80000 F2100.000
;TYPE:Skirt
;WIDTH:0.42
G1 F1629
G1 X130.495 Y126.229 E0.01562
G1 X129.738 Y126.790 E0.01562
G1 X128.832 Y127.064 E0.01568
G1 X126.344 Y127.080 E0.04122
G1 X125.445 Y126.874 E0.01528
G1 X124.881 Y126.558 E0.01071
G1 X124.409 Y126.123 E0.01064
G1 X124.051 Y125.590 E0.01064
G1 X123.825 Y124.985 E0.01071
G1 X118.766 Y85.999 E0.65139
G1 X118.780 Y85.235 E0.01266
G1 X119.005 Y84.504 E0.01266
G1 X119.421 Y83.863 E0.01266
G1 X119.998 Y83.362 E0.01266
G1 X120.550 Y83.085 E0.01024
G1 X121.154 Y82.938 E0.01030
G1 X123.504 Y82.916 E0.03894
G1 X124.162 Y82.996 E0.01098
G1 X124.777 Y83.230 E0.01091
G1 X125.320 Y83.603 E0.01091
G1 X125.759 Y84.094 E0.01091
G1 X130.909 Y92.996 E0.17041
M73 P8 R9
M73 Q8 S9
G1 X131.121 Y93.484 E0.00882
G1 X131.234 Y94.000 E0.00875
G1 X131.247 Y124.531 E0.50588
G1 X131.033 Y125.387 E0.01462
G1 X130.680 Y125.278 F10800.000
G1 F1629
G1 X130.226 Y125.964 E0.01363
G1 X129.570 Y126.453 E0.01356
G1 X128.786 Y126.690 E0.01356
G1 X126.390 Y126.705 E0.03971
G1 X125.629 Y126.542 E0.01288
G1 X125.125 Y126.269 E0.00951
G1 X124.703 Y125.886 E0.00944
G1 X124.384 Y125.413 E0.00944
G1 X124.187 Y124.879 E0.00944
G1 X119.140 Y85.956 E0.65032
M73 P8 R8
G1 X119.156 Y85.277 E0.01126
G1 X119.361 Y84.633 E0.01120
G1 X119.739 Y84.073 E0.01120
G1 X120.263 Y83.640 E0.01126
G1 X120.735 Y83.419 E0.00863
G1 X121.247 Y83.306 E0.00869
G1 X123.504 Y83.293 E0.03739
G1 X124.077 Y83.364 E0.00957
G1 X124.613 Y83.569 E0.00951
G1 X125.084 Y83.897 E0.00951
G1 X125.462 Y84.328 E0.00951
G1 X130.577 Y93.175 E0.16932
G1 X130.860 Y94.042 E0.01512
G1 X130.872 Y124.482 E0.50437
G1 X130.694 Y125.220 E0.01257
; printing object C:/Users/mlp/AppData/Local/Temp/Neutron/Body3.stl id:0 copy 0
;WIPE_START
M73 Q8 S8
G1 F8640.000
G1 X130.226 Y125.964 E-0.20298
G1 X129.570 Y126.453 E-0.18903
G1 X128.786 Y126.690 E-0.18903
G1 X128.011 Y126.695 E-0.17897
;WIPE_END
G1 E-0.04000 F2100.000
G1 Z0.800 F10800.000
G1 X127.846 Y123.677
G1 Z0.400
G1 E0.80000 F2100.000
M204 S800
;TYPE:Perimeter
;WIDTH:0.45
M73 Q9 S8
G1 F1629
G1 X127.154 Y123.677 E0.01235
G1 X127.154 Y94.155 E0.52597
M73 P9 R8
G1 X122.632 Y86.323 E0.16112
G1 X123.123 Y86.323 E0.00874
G1 X127.846 Y94.505 E0.16832
G1 X127.846 Y123.617 E0.51867
M204 S1000
G1 X128.275 Y124.105 F10800.000
M204 S800
;TYPE:External perimeter
G1 F1500.000
G1 X126.725 Y124.105 E0.02762
G1 X126.725 Y94.270 E0.53156
G1 X121.890 Y85.895 E0.17230
G1 X123.370 Y85.895 E0.02638
G1 X128.275 Y94.390 E0.17478
G1 X128.275 Y124.045 E0.52835
M204 S1000
M73 P10 R8
M73 Q10 S8
G1 X127.920 Y123.920 F10800.000
;WIPE_START
G1 F8640.000
G1 X126.725 Y124.105 E-0.35817
G1 X126.725 Y122.365 E-0.40183
;WIPE_END
G1 E-0.04000 F2100.000
G1 Z0.800 F10800.000
G1 X127.500 Y94.334
G1 Z0.400
G1 E0.80000 F2100.000
;TYPE:Gap fill
;WIDTH:0.285844
G1 F1629
G1 X127.500 Y123.462 E0.32018
; stop printing object C:/Users/mlp/AppData/Local/Temp/Neutron/Body3.stl id:0 copy 0
M106 S255
;LAYER_CHANGE
;Z:0.5
;HEIGHT:0.1
;BEFORE_LAYER_CHANGE
G92 E0.0
;0.5


;WIPE_START
G1 F8640.000
G1 X127.500 Y120.171 E-0.76000
;WIPE_END
G1 E-0.04000 F2100.000
G1 Z0.800 F10800.000
;AFTER_LAYER_CHANGE
;0.5
; printing object C:/Users/mlp/AppData/Local/Temp/Neutron/Body3.stl id:0 copy 0
G1 X127.154 Y123.677
G1 Z0.500
G1 E0.80000 F2100.000
M204 S800
;TYPE:Perimeter
;WIDTH:0.45
G1 F900
G1 X127.154 Y94.155 E0.52597
G1 X122.632 Y86.323 E0.16112
G1 X123.123 Y86.323 E0.00874
G1 X127.846 Y94.505 E0.16832
M73 P11 R8
M73 Q11 S8
G1 X127.846 Y123.677 E0.51973
G1 X127.214 Y123.677 E0.01128
M204 S1000
G1 X126.725 Y124.105 F10800.000
M204 S800
;TYPE:External perimeter
G1 F900
G1 X126.725 Y94.270 E0.53156
G1 X121.890 Y85.895 E0.17230
G1 X123.370 Y85.895 E0.02638
G1 X128.275 Y94.390 E0.17478
M73 P12 R8
M73 Q12 S8
G1 X128.275 Y124.105 E0.52942
G1 X126.785 Y124.105 E0.02655
M204 S1000
G1 X126.732 Y123.705 F10800.000
;WIPE_START
G1 F8640.000
G1 X126.778 Y120.814 E-0.76000
;WIPE_END
G1 E-0.04000 F2100.000
G1 Z0.900 F10800.000
G1 X127.500 Y94.334
G1 Z0.500
G1 E0.80000 F2100.000
;TYPE:Gap fill
;WIDTH:0.285844
G1 F900
G1 X127.500 Y123.462 E0.32018
; stop printing object C:/Users/mlp/AppData/Local/Temp/Neutron/Body3.stl id:0 copy 0
;LAYER_CHANGE
;Z:0.6
;HEIGHT:0.1
;BEFORE_LAYER_CHANGE
G92 E0.0
;0.6


;WIPE_START
G1 F8640.000
G1 X127.500 Y120.171 E-0.76000
;WIPE_END
G1 E-0.04000 F2100.000
G1 Z0.900 F10800.000
;AFTER_LAYER_CHANGE
;0.6
; printing object C:/Users/mlp/AppData/Local/Temp/Neutron/Body3.stl id:0 copy 0
G1 X127.154 Y123.677
G1 Z0.600
G1 E0.80000 F2100.000
M204 S800
;TYPE:Perimeter
;WIDTH:0.45
G1 F900
G1 X127.154 Y94.155 E0.52597
M73 P13 R8
M73 Q13 S8
G1 X122.632 Y86.323 E0.16112
G1 X123.123 Y86.323 E0.00874
G1 X127.846 Y94.505 E0.16832
G1 X127.846 Y123.677 E0.51973
G1 X127.214 Y123.677 E0.01128
M204 S1000
G1 X126.725 Y124.105 F10800.000
M204 S800
;TYPE:External perimeter
G1 F900
G1 X126.725 Y94.270 E0.53156
M73 P14 R8
M73 Q14 S8
G1 X121.890 Y85.895 E0.17230
G1 X123.370 Y85.895 E0.02638
G1 X128.275 Y94.390 E0.17478
G1 X128.275 Y124.105 E0.52942
G1 X126.785 Y124.105 E0.02655
M204 S1000
G1 X126.732 Y123.705 F10800.000
;WIPE_START
G1 F8640.000
G1 X126.778 Y120.814 E-0.76000
;WIPE_END
G1 E-0.04000 F2100.000
G1 Z1.000 F10800.000
G1 X127.500 Y94.334
M73 Q15 S8
G1 Z0.600
G1 E0.80000 F2100.000
;TYPE:Gap fill
;WIDTH:0.285844
G1 F900
G1 X127.500 Y123.462 E0.32018
; stop printing object C:/Users/mlp/AppData/Local/Temp/Neutron/Body3.stl id:0 copy 0
;LAYER_CHANGE
;Z:0.7
;HEIGHT:0.1
;BEFORE_LAYER_CHANGE
G92 E0.0
;0.7


;WIPE_START
M73 P15 R8
G1 F8640.000
G1 X127.500 Y120.171 E-0.76000
;WIPE_END
G1 E-0.04000 F2100.000
G1 Z1.000 F10800.000
;AFTER_LAYER_CHANGE
;0.7
; printing object C:/Users/mlp/AppData/Local/Temp/Neutron/Body3.stl id:0 copy 0
G1 X127.154 Y123.677
G1 Z0.700
G1 E0.80000 F2100.000
M204 S800
;TYPE:Perimeter
;WIDTH:0.45
G1 F900
G1 X127.154 Y94.155 E0.52597
G1 X122.632 Y86.323 E0.16112
G1 X123.123 Y86.323 E0.00874
G1 X127.846 Y94.505 E0.16832
M73 Q16 S8
G1 X127.846 Y123.677 E0.51973
M73 P16 R8
G1 X127.214 Y123.677 E0.01128
M204 S1000
G1 X126.725 Y124.105 F10800.000
M204 S800
;TYPE:External perimeter
G1 F900
G1 X126.725 Y94.270 E0.53156
G1 X121.890 Y85.895 E0.17230
G1 X123.370 Y85.895 E0.02638
G1 X128.275 Y94.390 E0.17478
G1 X128.275 Y124.105 E0.52942
M73 P17 R8
M73 Q17 S8
G1 X126.785 Y124.105 E0.02655
M204 S1000
G1 X126.732 Y123.705 F10800.000
;WIPE_START
G1 F8640.000
G1 X126.778 Y120.814 E-0.76000
;WIPE_END
G1 E-0.04000 F2100.000
G1 Z1.100 F10800.000
G1 X127.500 Y94.334
G1 Z0.700
G1 E0.80000 F2100.000
;TYPE:Gap fill
;WIDTH:0.285844
G1 F900
G1 X127.500 Y123.462 E0.32018
; stop printing object C:/Users/mlp/AppData/Local/Temp/Neutron/Body3.stl id:0 copy 0
;LAYER_CHANGE
;Z:0.8
;HEIGHT:0.1
;BEFORE_LAYER_CHANGE
G92 E0.0
;0.8


;WIPE_START
G1 F8640.000
G1 X127.500 Y120.171 E-0.76000
;WIPE_END
G1 E-0.04000 F2100.000
G1 Z1.100 F10800.000
;AFTER_LAYER_CHANGE
;0.8
; printing object C:/Users/mlp/AppData/Local/Temp/Neutron/Body3.stl id:0 copy 0
G1 X127.154 Y123.677
G1 Z0.800
G1 E0.80000 F2100.000
M204 S800
;TYPE:Perimeter
;WIDTH:0.45
G1 F900
G1 X127.154 Y94.155 E0.52597
M73 P18 R8
M73 Q18 S8
G1 X122.632 Y86.323 E0.16112
G1 X123.123 Y86.323 E0.00874
G1 X127.846 Y94.505 E0.16832
G1 X127.846 Y123.677 E0.51973
G1 X127.214 Y123.677 E0.01128
M204 S1000
G1 X126.725 Y124.105 F10800.000
M204 S800
;TYPE:External perimeter
G1 F900
G1 X126.725 Y94.270 E0.53156
M73 P19 R8
M73 Q19 S8
G1 X121.890 Y85.895 E0.17230
G1 X123.370 Y85.895 E0.02638
G1 X128.275 Y94.390 E0.17478
M73 P19 R7
G1 X128.275 Y124.105 E0.52942
M73 Q19 S7
G1 X126.785 Y124.105 E0.02655
M204 S1000
G1 X126.732 Y123.705 F10800.000
;WIPE_START
G1 F8640.000
G1 X126.778 Y120.814 E-0.76000
;WIPE_END
G1 E-0.04000 F2100.000
G1 Z1.200 F10800.000
G1 X127.500 Y94.334
G1 Z0.800
G1 E0.80000 F2100.000
;TYPE:Gap fill
;WIDTH:0.285844
G1 F900
G1 X127.500 Y123.462 E0.32018
; stop printing object C:/Users/mlp/AppData/Local/Temp/Neutron/Body3.stl id:0 copy 0
;LAYER_CHANGE
;Z:0.9
;HEIGHT:0.1
;BEFORE_LAYER_CHANGE
G92 E0.0
;0.9


;WIPE_START
M73 P20 R7
M73 Q20 S7
G1 F8640.000
G1 X127.500 Y120.171 E-0.76000
;WIPE_END
G1 E-0.04000 F2100.000
G1 Z1.200 F10800.000
;AFTER_LAYER_CHANGE
;0.9
; printing object C:/Users/mlp/AppData/Local/Temp/Neutron/Body3.stl id:0 copy 0
G1 X127.154 Y123.677
G1 Z0.900
G1 E0.80000 F2100.000
M204 S800
;TYPE:Perimeter
;WIDTH:0.45
G1 F900
G1 X127.154 Y94.155 E0.52597
G1 X122.632 Y86.323 E0.16112
G1 X123.123 Y86.323 E0.00874
G1 X127.846 Y94.505 E0.16832
