; generated by PrusaSlicer 2.3.3+win64 on 2022-01-24 at 17:12:52 UTC

; 

; external perimeters extrusion width = 0.45mm
; perimeters extrusion width = 0.45mm
; infill extrusion width = 0.45mm
; solid infill extrusion width = 0.45mm
; top infill extrusion width = 0.40mm
; first layer extrusion width = 0.42mm

M73 P0 R10
M73 Q0 S10
M201 X1000 Y1000 Z200 E5000 ; sets maximum accelerations, mm/sec^2
M203 X200 Y200 Z12 E120 ; sets maximum feedrates, mm/sec
M204 P1250 R1250 T1250 ; sets acceleration (P, T) and retract acceleration (R), mm/sec^2
M205 X8.00 Y8.00 Z0.40 E4.50 ; sets the jerk limits, mm/sec
M205 S0 T0 ; sets the minimum extruding and travel feed rate, mm/sec
M107
;TYPE:Custom
M862.3 P "MK3S" ; printer model check
M862.1 P0.4 ; nozzle diameter check
M115 U3.10.0 ; tell printer latest fw version
G90 ; use absolute coordinates
M83 ; extruder relative mode
M104 S215 ; set extruder temp
M140 S60 ; set bed temp
M190 S60 ; wait for bed temp
M109 S215 ; wait for extruder temp
G28 W ; home all without mesh bed level
G80 ; mesh bed leveling
G1 Y-3.0 F1000.0 ; go outside print area
G92 E0.0
G1 X60.0 E9.0 F1000.0 ; intro line
G1 X100.0 E12.5 F1000.0 ; intro line
G92 E0.0
M221 S95

; Don't change E values below. Excessive value can damage the printer.
M907 E430 ; set extruder motor current
G21 ; set units to millimeters
G90 ; use absolute coordinates
M83 ; use relative distances for extrusion
M900 K0.05 ; Filament gcode LA 1.5
M900 K30 ; Filament gcode LA 1.0
;LAYER_CHANGE
;Z:0.2
;HEIGHT:0.2
;BEFORE_LAYER_CHANGE
G92 E0.0
;0.2


M73 P1 R10
M73 Q1 S10
G1 E-0.80000 F2100.000
G1 Z0.400 F10800.000
;AFTER_LAYER_CHANGE
;0.2
G1 X120.912 Y83.686
G1 Z0.200
G1 E0.80000 F2100.000
M204 S1000
;TYPE:Skirt
;WIDTH:0.42
G1 F1200.000
G1 X121.589 Y83.398 E0.02307
G1 X122.322 Y83.300 E0.02320
G1 X122.904 Y83.363 E0.01835
G1 X123.460 Y83.547 E0.01835
G1 X123.963 Y83.845 E0.01835
G1 X124.393 Y84.243 E0.01835
G1 X130.950 Y92.063 E0.31999
G1 X131.284 Y92.645 E0.02103
G1 X131.849 Y94.198 E0.05182
G1 X131.968 Y94.986 E0.02498
G1 X131.968 Y115.000 E0.62753
G1 X131.804 Y115.936 E0.02980
G1 X131.264 Y117.402 E0.04900
G1 X130.870 Y118.039 E0.02345
G1 X124.279 Y125.880 E0.32118
G1 X123.860 Y126.228 E0.01707
G1 X123.381 Y126.487 E0.01707
G1 X122.861 Y126.646 E0.01707
G1 X122.319 Y126.700 E0.01707
G1 X121.598 Y126.604 E0.02282
G1 X120.923 Y126.321 E0.02294
G1 X118.972 Y124.733 E0.07887
G1 X118.343 Y123.931 E0.03195
G1 X118.048 Y122.960 E0.03183
G1 X118.032 Y87.340 E1.11685
M73 Q2 S10
G1 X118.089 Y86.782 E0.01758
G1 X118.258 Y86.247 E0.01758
G1 X118.532 Y85.758 E0.01758
G1 X118.899 Y85.334 E0.01758
G1 X120.866 Y83.724 E0.07969
;WIPE_START
M73 P2 R10
G1 F8640.000
G1 X121.589 Y83.398 E-0.18324
G1 X122.322 Y83.300 E-0.17084
G1 X122.904 Y83.363 E-0.13512
G1 X123.460 Y83.547 E-0.13512
G1 X123.963 Y83.845 E-0.13512
G1 X123.965 Y83.847 E-0.00056
;WIPE_END
G1 E-0.04000 F2100.000
G1 Z0.600 F10800.000
G1 X118.606 Y86.392
G1 Z0.200
G1 E0.80000 F2100.000
G1 F1200.000
G1 X119.162 Y85.603 E0.03024
G1 X121.081 Y84.024 E0.07791
G1 X121.680 Y83.764 E0.02048
G1 X122.323 Y83.677 E0.02036
G1 X122.830 Y83.733 E0.01597
G1 X123.309 Y83.893 E0.01585
G1 X123.747 Y84.154 E0.01597
G1 X124.119 Y84.502 E0.01597
G1 X130.647 Y92.288 E0.31859
G1 X130.941 Y92.803 E0.01858
G1 X131.493 Y94.324 E0.05075
G1 X131.591 Y94.989 E0.02107
G1 X131.591 Y115.000 E0.62742
G1 X131.450 Y115.806 E0.02567
G1 X130.926 Y117.233 E0.04765
G1 X130.586 Y117.791 E0.02048
G1 X124.024 Y125.601 E0.31985
G1 X123.244 Y126.135 E0.02966
G1 X122.317 Y126.323 E0.02966
G1 X121.677 Y126.235 E0.02024
G1 X121.088 Y125.980 E0.02012
G1 X119.218 Y124.447 E0.07584
G1 X118.672 Y123.748 E0.02778
G1 X118.421 Y122.898 E0.02778
G1 X118.409 Y87.340 E1.11493
G1 X118.594 Y86.450 E0.02848
; printing object C:/Users/mlp/AppData/Local/Temp/Neutron/Body4.stl id:0 copy 0
;WIPE_START
G1 F8640.000
G1 X119.162 Y85.603 E-0.23549
G1 X120.916 Y84.160 E-0.52451
;WIPE_END
G1 E-0.04000 F2100.000
G1 Z0.600 F10800.000
G1 X121.895 Y87.437
G1 Z0.200
G1 E0.80000 F2100.000
;TYPE:Perimeter
M73 Q3 S10
G1 F1200.000
G1 X122.221 Y87.163 E0.01335
G1 X128.054 Y94.114 E0.28451
M73 P3 R10
G1 X128.427 Y95.139 E0.03419
G1 X128.427 Y114.861 E0.61838
G1 X128.054 Y115.886 E0.03419
G1 X122.221 Y122.837 E0.28451
G1 X121.895 Y122.563 E0.01335
G1 X128.001 Y115.286 E0.29785
G1 X128.001 Y94.714 E0.64505
G1 X121.933 Y87.483 E0.29597
G1 X121.364 Y87.390 F10800.000
;TYPE:External perimeter
G1 F1200.000
G1 X122.268 Y86.632 E0.03700
G1 X128.385 Y93.923 E0.29842
G1 X128.804 Y95.072 E0.03836
G1 X128.804 Y114.928 E0.62255
G1 X128.385 Y116.077 E0.03836
G1 X122.268 Y123.368 E0.29842
M73 Q4 S10
G1 X121.364 Y122.610 E0.03700
M73 P4 R10
G1 X127.624 Y115.149 E0.30537
G1 X127.624 Y94.851 E0.63644
G1 X121.402 Y87.436 E0.30349
G1 X121.764 Y87.384 F10800.000
; stop printing object C:/Users/mlp/AppData/Local/Temp/Neutron/Body4.stl id:0 copy 0
M106 S84.15
;LAYER_CHANGE
;Z:0.3
;HEIGHT:0.1
;BEFORE_LAYER_CHANGE
G92 E0.0
;0.3


;WIPE_START
G1 F8640.000
G1 X122.268 Y86.632 E-0.27282
G1 X123.624 Y88.248 E-0.48718
;WIPE_END
G1 E-0.04000 F2100.000
G1 Z0.600 F10800.000
;AFTER_LAYER_CHANGE
;0.3
M104 S210 ; set temperature
G1 X118.343 Y123.931
G1 Z0.300
G1 E0.80000 F2100.000
;TYPE:Skirt
G1 F1696
G1 X118.048 Y122.960 E0.01682
G1 X118.032 Y87.340 E0.59021
G1 X118.089 Y86.782 E0.00929
G1 X118.258 Y86.247 E0.00929
G1 X118.532 Y85.758 E0.00929
G1 X118.899 Y85.334 E0.00929
G1 X120.912 Y83.686 E0.04311
G1 X121.589 Y83.398 E0.01219
G1 X122.322 Y83.300 E0.01226
G1 X122.904 Y83.363 E0.00970
G1 X123.460 Y83.547 E0.00970
G1 X123.963 Y83.845 E0.00970
G1 X124.393 Y84.243 E0.00970
G1 X130.950 Y92.063 E0.16910
G1 X131.284 Y92.645 E0.01111
G1 X131.849 Y94.198 E0.02739
G1 X131.968 Y94.986 E0.01320
G1 X131.968 Y115.000 E0.33162
G1 X131.804 Y115.936 E0.01575
G1 X131.264 Y117.402 E0.02589
G1 X130.870 Y118.039 E0.01239
G1 X124.279 Y125.880 E0.16973
M73 Q5 S10
G1 X123.860 Y126.228 E0.00902
M73 P5 R10
G1 X123.381 Y126.487 E0.00902
G1 X122.861 Y126.646 E0.00902
G1 X122.319 Y126.700 E0.00902
G1 X121.598 Y126.604 E0.01206
G1 X120.923 Y126.321 E0.01212
G1 X118.972 Y124.733 E0.04168
G1 X118.380 Y123.979 E0.01589
G1 X118.673 Y123.749 F10800.000
M73 P5 R9
G1 F1696
G1 X118.421 Y122.898 E0.01471
G1 X118.409 Y87.340 E0.58919
M73 Q5 S9
G1 X118.606 Y86.392 E0.01604
G1 X119.162 Y85.603 E0.01598
G1 X121.081 Y84.024 E0.04117
G1 X121.680 Y83.764 E0.01082
G1 X122.323 Y83.677 E0.01076
G1 X122.830 Y83.733 E0.00844
G1 X123.309 Y83.893 E0.00838
G1 X123.747 Y84.154 E0.00844
G1 X124.119 Y84.502 E0.00844
G1 X130.647 Y92.288 E0.16836
G1 X130.941 Y92.803 E0.00982
G1 X131.493 Y94.324 E0.02682
G1 X131.591 Y94.989 E0.01113
G1 X131.591 Y115.000 E0.33157
G1 X131.450 Y115.806 E0.01356
G1 X130.926 Y117.233 E0.02518
G1 X130.586 Y117.791 E0.01082
G1 X124.024 Y125.601 E0.16903
G1 X123.244 Y126.135 E0.01567
G1 X122.317 Y126.323 E0.01567
G1 X121.677 Y126.235 E0.01070
G1 X121.088 Y125.980 E0.01063
G1 X119.218 Y124.447 E0.04008
G1 X118.710 Y123.797 E0.01366
; printing object C:/Users/mlp/AppData/Local/Temp/Neutron/Body4.stl id:0 copy 0
;WIPE_START
G1 F8640.000
G1 X118.421 Y122.898 E-0.21790
G1 X118.420 Y120.551 E-0.54210
;WIPE_END
G1 E-0.04000 F2100.000
G1 Z0.700 F10800.000
G1 X121.707 Y122.580
G1 Z0.300
G1 E0.80000 F2100.000
M204 S800
;TYPE:Perimeter
;WIDTH:0.45
G1 F1696
G1 X127.867 Y115.238 E0.17076
G1 X127.867 Y94.762 E0.36481
G1 X121.707 Y87.420 E0.17076
G1 X122.238 Y86.975 E0.01235
G1 X128.171 Y94.046 E0.16447
M73 Q6 S9
G1 X128.560 Y95.115 E0.02027
G1 X128.560 Y114.885 E0.35223
M73 P6 R9
G1 X128.171 Y115.954 E0.02027
G1 X122.238 Y123.025 E0.16447
G1 X121.753 Y122.618 E0.01128
M204 S1000
G1 X121.103 Y122.633 F10800.000
M204 S800
;TYPE:External perimeter
G1 F1500.000
G1 X127.439 Y115.082 E0.17562
G1 X127.439 Y94.918 E0.35925
G1 X121.103 Y87.367 E0.17562
G1 X122.290 Y86.371 E0.02762
G1 X128.548 Y93.829 E0.17345
G1 X128.989 Y95.040 E0.02296
G1 X128.989 Y114.960 E0.35492
G1 X128.548 Y116.171 E0.02296
G1 X122.290 Y123.629 E0.17345
G1 X121.149 Y122.671 E0.02655
M204 S1000
G1 X121.376 Y122.340 F10800.000
G1 X122.110 Y122.638
;TYPE:Gap fill
;WIDTH:0.285847
G1 F1696
G1 X127.867 Y115.778 E0.09844
G1 X127.929 Y115.670 E0.00137
;WIDTH:0.242453
G1
G1 X127.992 Y115.561 E0.00115
;WIDTH:0.19906
G1
G1 X128.054 Y115.453 E0.00092
;WIDTH:0.155668
G1
G1 X128.117 Y115.345 E0.00070
;WIDTH:0.112276
G1
G1 X128.149 Y115.193 E0.00059
;WIDTH:0.199059
G1
G1 X128.192 Y114.947 E0.00185
;WIDTH:0.285844
G1
G1 X128.214 Y114.824 E0.00137
G1 X128.214 Y95.176 E0.21596
G1 X128.192 Y95.053 E0.00137
;WIDTH:0.242452
G1
G1 X128.171 Y94.930 E0.00115
;WIDTH:0.19906
G1
G1 X128.149 Y94.807 E0.00092
;WIDTH:0.155668
G1
G1 X128.127 Y94.684 E0.00070
;WIDTH:0.112275
G1
G1 X128.054 Y94.547 E0.00059
;WIDTH:0.19906
M73 Q7 S9
G1
G1 X127.929 Y94.330 E0.00185
;WIDTH:0.285845
G1
G1 X127.867 Y94.222 E0.00137
G1 X122.110 Y87.362 E0.09844
; stop printing object C:/Users/mlp/AppData/Local/Temp/Neutron/Body4.stl id:0 copy 0
M106 S170.85
;LAYER_CHANGE
;Z:0.4
;HEIGHT:0.1
;BEFORE_LAYER_CHANGE
G92 E0.0
;0.4


;WIPE_START
M73 P7 R9
G1 F8640.000
G1 X124.226 Y89.883 E-0.76000
;WIPE_END
G1 E-0.04000 F2100.000
G1 Z0.700 F10800.000
;AFTER_LAYER_CHANGE
;0.4
G1 X118.343 Y123.931
G1 Z0.400
G1 E0.80000 F2100.000
;TYPE:Skirt
;WIDTH:0.42
G1 F1695
G1 X118.048 Y122.960 E0.01682
G1 X118.032 Y87.340 E0.59021
G1 X118.089 Y86.782 E0.00929
G1 X118.258 Y86.247 E0.00929
G1 X118.532 Y85.758 E0.00929
G1 X118.899 Y85.334 E0.00929
G1 X120.912 Y83.686 E0.04311
G1 X121.589 Y83.398 E0.01219
G1 X122.322 Y83.300 E0.01226
G1 X122.904 Y83.363 E0.00970
G1 X123.460 Y83.547 E0.00970
G1 X123.963 Y83.845 E0.00970
G1 X124.393 Y84.243 E0.00970
G1 X130.950 Y92.063 E0.16910
G1 X131.284 Y92.645 E0.01111
G1 X131.849 Y94.198 E0.02739
G1 X131.968 Y94.986 E0.01320
G1 X131.968 Y115.000 E0.33162
G1 X131.804 Y115.936 E0.01575
G1 X131.264 Y117.402 E0.02589
G1 X130.870 Y118.039 E0.01239
G1 X124.279 Y125.880 E0.16973
G1 X123.860 Y126.228 E0.00902
G1 X123.381 Y126.487 E0.00902
G1 X122.861 Y126.646 E0.00902
G1 X122.319 Y126.700 E0.00902
G1 X121.598 Y126.604 E0.01206
G1 X120.923 Y126.321 E0.01212
G1 X118.972 Y124.733 E0.04168
G1 X118.380 Y123.979 E0.01589
G1 X118.673 Y123.749 F10800.000
G1 F1695
G1 X118.421 Y122.898 E0.01471
G1 X118.409 Y87.340 E0.58919
G1 X118.606 Y86.392 E0.01604
G1 X119.162 Y85.603 E0.01598
G1 X121.081 Y84.024 E0.04117
M73 Q8 S9
G1 X121.680 Y83.764 E0.01082
G1 X122.323 Y83.677 E0.01076
G1 X122.830 Y83.733 E0.00844
G1 X123.309 Y83.893 E0.00838
G1 X123.747 Y84.154 E0.00844
G1 X124.119 Y84.502 E0.00844
G1 X130.647 Y92.288 E0.16836
M73 P8 R9
G1 X130.941 Y92.803 E0.00982
G1 X131.493 Y94.324 E0.02682
G1 X131.591 Y94.989 E0.01113
G1 X131.591 Y115.000 E0.33157
G1 X131.450 Y115.806 E0.01356
G1 X130.926 Y117.233 E0.02518
G1 X130.586 Y117.791 E0.01082
G1 X124.024 Y125.601 E0.16903
G1 X123.244 Y126.135 E0.01567
G1 X122.317 Y126.323 E0.01567
G1 X121.677 Y126.235 E0.01070
G1 X121.088 Y125.980 E0.01063
G1 X119.218 Y124.447 E0.04008
G1 X118.710 Y123.797 E0.01366
; printing object C:/Users/mlp/AppData/Local/Temp/Neutron/Body4.stl id:0 copy 0
;WIPE_START
G1 F8640.000
G1 X118.421 Y122.898 E-0.21790
G1 X118.420 Y120.551 E-0.54210
;WIPE_END
G1 E-0.04000 F2100.000
G1 Z0.800 F10800.000
G1 X121.707 Y122.580
G1 Z0.400
G1 E0.80000 F2100.000
M204 S800
;TYPE:Perimeter
;WIDTH:0.45
G1 F1695
G1 X127.867 Y115.238 E0.17076
G1 X127.867 Y94.762 E0.36481
G1 X121.707 Y87.420 E0.17076
G1 X122.238 Y86.975 E0.01235
G1 X128.171 Y94.046 E0.16447
G1 X128.560 Y95.115 E0.02027
G1 X128.560 Y114.885 E0.35223
G1 X128.171 Y115.954 E0.02027
G1 X122.238 Y123.025 E0.16447
G1 X121.753 Y122.618 E0.01128
M204 S1000
G1 X121.103 Y122.633 F10800.000
M204 S800
;TYPE:External perimeter
G1 F1500.000
G1 X127.439 Y115.082 E0.17562
G1 X127.439 Y94.918 E0.35925
M73 P9 R9
M73 Q9 S9
G1 X121.103 Y87.367 E0.17562
G1 X122.290 Y86.371 E0.02762
G1 X128.548 Y93.829 E0.17345
G1 X128.989 Y95.040 E0.02296
G1 X128.989 Y114.960 E0.35492
G1 X128.548 Y116.171 E0.02296
G1 X122.290 Y123.629 E0.17345
G1 X121.149 Y122.671 E0.02655
M204 S1000
G1 X121.376 Y122.340 F10800.000
G1 X122.110 Y122.638
;TYPE:Gap fill
;WIDTH:0.285847
G1 F1695
G1 X127.867 Y115.778 E0.09844
G1 X127.929 Y115.670 E0.00137
;WIDTH:0.242453
G1
G1 X127.992 Y115.561 E0.00115
;WIDTH:0.19906
G1
G1 X128.054 Y115.453 E0.00092
;WIDTH:0.155668
G1
G1 X128.117 Y115.345 E0.00070
;WIDTH:0.112276
G1
G1 X128.149 Y115.193 E0.00059
;WIDTH:0.199059
G1
G1 X128.192 Y114.947 E0.00185
;WIDTH:0.285844
G1
G1 X128.214 Y114.824 E0.00137
G1 X128.214 Y95.176 E0.21596
G1 X128.192 Y95.053 E0.00137
;WIDTH:0.242452
G1
G1 X128.171 Y94.930 E0.00115
;WIDTH:0.19906
G1
G1 X128.149 Y94.807 E0.00092
;WIDTH:0.155668
G1
G1 X128.127 Y94.684 E0.00070
;WIDTH:0.112275
G1
G1 X128.054 Y94.547 E0.00059
;WIDTH:0.19906
G1
G1 X127.929 Y94.330 E0.00185
;WIDTH:0.285845
G1
G1 X127.867 Y94.222 E0.00137
G1 X122.110 Y87.362 E0.09844
; stop printing object C:/Users/mlp/AppData/Local/Temp/Neutron/Body4.stl id:0 copy 0
M106 S255
;LAYER_CHANGE
;Z:0.5
;HEIGHT:0.1
;BEFORE_LAYER_CHANGE
G92 E0.0
;0.5


;WIPE_START
G1 F8640.000
G1 X124.226 Y89.883 E-0.76000
;WIPE_END
G1 E-0.04000 F2100.000
G1 Z0.800 F10800.000
;AFTER_LAYER_CHANGE
;0.5
; printing object C:/Users/mlp/AppData/Local/Temp/Neutron/Body4.stl id:0 copy 0
G1 X127.867 Y94.762
G1 Z0.500
G1 E0.80000 F2100.000
M204 S800
;TYPE:Perimeter
;WIDTH:0.45
G1 F900
G1 X121.707 Y87.420 E0.17076
G1 X122.238 Y86.975 E0.01235
G1 X128.171 Y94.046 E0.16447
M73 Q10 S9
G1 X128.560 Y95.115 E0.02027
G1 X128.560 Y114.885 E0.35223
M73 P10 R9
G1 X128.171 Y115.954 E0.02027
G1 X122.238 Y123.025 E0.16447
G1 X121.707 Y122.580 E0.01235
G1 X127.867 Y115.238 E0.17076
G1 X127.867 Y94.822 E0.36374
M204 S1000
G1 X127.439 Y94.918 F10800.000
M204 S800
;TYPE:External perimeter
G1 F900
G1 X121.103 Y87.367 E0.17562
G1 X122.290 Y86.371 E0.02762
G1 X128.548 Y93.829 E0.17345
G1 X128.989 Y95.040 E0.02296
G1 X128.989 Y114.960 E0.35492
M73 P11 R9
M73 Q11 S9
G1 X128.548 Y116.171 E0.02296
G1 X122.290 Y123.629 E0.17345
G1 X121.103 Y122.633 E0.02762
G1 X127.439 Y115.082 E0.17562
G1 X127.439 Y94.978 E0.35818
M204 S1000
G1 X127.683 Y94.601 F10800.000
G1 X128.149 Y94.807
;TYPE:Gap fill
;WIDTH:0.19906
G1 F900
G1 X128.171 Y94.930 E0.00092
;WIDTH:0.242452
G1
G1 X128.192 Y95.053 E0.00115
;WIDTH:0.285844
G1
G1 X128.214 Y95.176 E0.00137
G1 X128.214 Y114.824 E0.21596
G1 X128.192 Y114.947 E0.00137
;WIDTH:0.199059
G1
G1 X128.149 Y115.193 E0.00185
;WIDTH:0.112276
G1
G1 X128.117 Y115.345 E0.00059
;WIDTH:0.155668
G1
G1 X128.054 Y115.453 E0.00070
;WIDTH:0.19906
G1
G1 X127.992 Y115.561 E0.00092
;WIDTH:0.242453
G1
G1 X127.929 Y115.670 E0.00115
;WIDTH:0.285847
G1
G1 X127.867 Y115.778 E0.00137
G1 X122.110 Y122.638 E0.09844
;WIPE_START
G1 F8640.000
G1 X124.226 Y120.117 E-0.76000
;WIPE_END
M73 Q12 S9
G1 E-0.04000 F2100.000
G1 Z0.900 F10800.000
G1 X128.149 Y94.807
M73 P12 R9
G1 Z0.500
G1 E0.80000 F2100.000
;WIDTH:0.155668
G1 F900
G1 X128.127 Y94.684 E0.00070
;WIDTH:0.112275
G1
G1 X128.054 Y94.547 E0.00059
;WIDTH:0.19906
G1
G1 X127.929 Y94.330 E0.00185
;WIDTH:0.285845
G1
G1 X127.867 Y94.222 E0.00137
G1 X122.110 Y87.362 E0.09844
; stop printing object C:/Users/mlp/AppData/Local/Temp/Neutron/Body4.stl id:0 copy 0
;LAYER_CHANGE
;Z:0.6
;HEIGHT:0.1
;BEFORE_LAYER_CHANGE
G92 E0.0
;0.6


;WIPE_START
G1 F8640.000
G1 X124.226 Y89.883 E-0.76000
;WIPE_END
G1 E-0.04000 F2100.000
G1 Z0.900 F10800.000
;AFTER_LAYER_CHANGE
;0.6
; printing object C:/Users/mlp/AppData/Local/Temp/Neutron/Body4.stl id:0 copy 0
G1 X127.867 Y94.762
G1 Z0.600
G1 E0.80000 F2100.000
M204 S800
;TYPE:Perimeter
;WIDTH:0.45
G1 F900
G1 X121.707 Y87.420 E0.17076
G1 X122.238 Y86.975 E0.01235
G1 X128.171 Y94.046 E0.16447
G1 X128.560 Y95.115 E0.02027
G1 X128.560 Y114.885 E0.35223
G1 X128.171 Y115.954 E0.02027
G1 X122.238 Y123.025 E0.16447
G1 X121.707 Y122.580 E0.01235
G1 X127.867 Y115.238 E0.17076
G1 X127.867 Y94.822 E0.36374
M204 S1000
M73 P13 R9
M73 Q13 S9
G1 X127.439 Y94.918 F10800.000
M204 S800
;TYPE:External perimeter
G1 F900
G1 X121.103 Y87.367 E0.17562
G1 X122.290 Y86.371 E0.02762
G1 X128.548 Y93.829 E0.17345
G1 X128.989 Y95.040 E0.02296
G1 X128.989 Y114.960 E0.35492
