; generated by PrusaSlicer 2.3.3+win64 on 2022-01-24 at 17:11:42 UTC

; 

; external perimeters extrusion width = 0.45mm
; perimeters extrusion width = 0.45mm
; infill extrusion width = 0.45mm
; solid infill extrusion width = 0.45mm
; top infill extrusion width = 0.40mm
; first layer extrusion width = 0.42mm

M73 P0 R9
M73 Q0 S9
M201 X1000 Y1000 Z200 E5000 ; sets maximum accelerations, mm/sec^2
M203 X200 Y200 Z12 E120 ; sets maximum feedrates, mm/sec
M204 P1250 R1250 T1250 ; sets acceleration (P, T) and retract acceleration (R), mm/sec^2
M205 X8.00 Y8.00 Z0.40 E4.50 ; sets the jerk limits, mm/sec
M205 S0 T0 ; sets the minimum extruding and travel feed rate, mm/sec
M107
;TYPE:Custom
M862.3 P "MK3S" ; printer model check
M862.1 P0.4 ; nozzle diameter check
M115 U3.10.0 ; tell printer latest fw version
G90 ; use absolute coordinates
M83 ; extruder relative mode
M104 S215 ; set extruder temp
M140 S60 ; set bed temp
M190 S60 ; wait for bed temp
M109 S215 ; wait for extruder temp
G28 W ; home all without mesh bed level
G80 ; mesh bed leveling
G1 Y-3.0 F1000.0 ; go outside print area
G92 E0.0
G1 X60.0 E9.0 F1000.0 ; intro line
G1 X100.0 E12.5 F1000.0 ; intro line
G92 E0.0
M221 S95

; Don't change E values below. Excessive value can damage the printer.
M907 E430 ; set extruder motor current
G21 ; set units to millimeters
G90 ; use absolute coordinates
M83 ; use relative distances for extrusion
M900 K0.05 ; Filament gcode LA 1.5
M900 K30 ; Filament gcode LA 1.0
;LAYER_CHANGE
;Z:0.2
;HEIGHT:0.2
;BEFORE_LAYER_CHANGE
G92 E0.0
;0.2


M73 P1 R9
M73 Q1 S9
G1 E-0.80000 F2100.000
G1 Z0.400 F10800.000
;AFTER_LAYER_CHANGE
;0.2
G1 X119.166 Y84.877
G1 Z0.200
G1 E0.80000 F2100.000
M204 S1000
;TYPE:Skirt
;WIDTH:0.42
G1 F1200.000
G1 X119.610 Y84.337 E0.02192
G1 X120.175 Y83.925 E0.02192
G1 X120.680 Y83.711 E0.01720
G1 X121.221 Y83.600 E0.01733
G1 X123.504 Y83.586 E0.07159
G1 X124.154 Y83.664 E0.02052
G1 X124.763 Y83.892 E0.02039
G1 X125.305 Y84.259 E0.02052
G1 X125.742 Y84.741 E0.02039
G1 X130.897 Y93.644 E0.32259
G1 X131.175 Y94.343 E0.02358
G1 X131.254 Y94.989 E0.02039
G1 X131.251 Y115.139 E0.63181
G1 X131.149 Y115.753 E0.01950
G1 X130.913 Y116.328 E0.01950
G1 X125.879 Y125.048 E0.31569
G1 X125.570 Y125.477 E0.01656
G1 X124.904 Y126.029 E0.02714
G1 X124.100 Y126.348 E0.02714
G1 X123.563 Y126.414 E0.01694
G1 X121.365 Y126.411 E0.06894
G1 X120.392 Y126.182 E0.03132
G1 X119.569 Y125.624 E0.03119
G1 X118.997 Y124.810 E0.03119
G1 X118.752 Y123.841 E0.03132
G1 X118.749 Y86.200 E1.18020
M73 P2 R9
M73 Q2 S9
G1 X118.873 Y85.512 E0.02192
G1 X119.141 Y84.932 E0.02004
;WIPE_START
G1 F8640.000
G1 X119.610 Y84.337 E-0.17489
G1 X120.175 Y83.925 E-0.16145
G1 X120.680 Y83.711 E-0.12665
G1 X121.221 Y83.600 E-0.12759
G1 X121.955 Y83.595 E-0.16942
;WIPE_END
G1 E-0.04000 F2100.000
G1 Z0.600 F10800.000
G1 X120.410 Y84.227
G1 Z0.200
G1 E0.80000 F2100.000
G1 F1200.000
G1 X121.297 Y83.971 E0.02896
G1 X123.504 Y83.963 E0.06918
G1 X124.070 Y84.032 E0.01787
G1 X124.603 Y84.234 E0.01787
G1 X125.072 Y84.557 E0.01787
G1 X125.451 Y84.982 E0.01787
G1 X130.568 Y93.828 E0.32041
G1 X130.813 Y94.454 E0.02107
G1 X130.877 Y94.993 E0.01704
G1 X130.874 Y115.122 E0.63112
G1 X130.786 Y115.651 E0.01680
G1 X130.581 Y116.150 E0.01692
G1 X125.294 Y125.220 E0.32919
G1 X124.701 Y125.712 E0.02414
G1 X123.982 Y125.988 E0.02414
G1 X121.378 Y126.034 E0.08167
G1 X120.538 Y125.834 E0.02708
G1 X119.825 Y125.347 E0.02708
G1 X119.331 Y124.634 E0.02720
G1 X119.127 Y123.795 E0.02708
G1 X119.126 Y86.218 E1.17819
M73 P3 R9
M73 Q3 S9
G1 X119.238 Y85.609 E0.01941
G1 X119.503 Y85.050 E0.01941
G1 X119.901 Y84.580 E0.01929
G1 X120.361 Y84.262 E0.01753
; printing object C:/Users/mlp/AppData/Local/Temp/Neutron/Body3.stl id:0 copy 0
;WIPE_START
G1 F8640.000
G1 X121.297 Y83.971 E-0.22640
G1 X123.504 Y83.963 E-0.50950
G1 X123.607 Y83.975 E-0.02410
;WIPE_END
G1 E-0.04000 F2100.000
G1 Z0.600 F10800.000
G1 X122.863 Y87.127
G1 Z0.200
G1 E0.80000 F2100.000
;TYPE:Perimeter
G1 F1200.000
G1 X123.046 Y87.127 E0.00572
G1 X127.713 Y95.211 E0.29268
G1 X127.713 Y114.789 E0.61386
G1 X123.046 Y122.873 E0.29268
G1 X122.863 Y122.873 E0.00572
G1 X127.287 Y115.211 E0.27741
G1 X127.287 Y94.789 E0.64031
G1 X122.893 Y87.179 E0.27553
M73 P4 R9
M73 Q4 S9
G1 X122.210 Y86.750 F10800.000
;TYPE:External perimeter
G1 F1200.000
G1 X123.263 Y86.750 E0.03302
G1 X128.090 Y95.110 E0.30268
G1 X128.090 Y114.890 E0.62020
M73 P4 R8
G1 X123.263 Y123.250 E0.30268
G1 X122.210 Y123.250 E0.03302
M73 Q4 S8
G1 X126.910 Y115.110 E0.29472
G1 X126.910 Y94.890 E0.63398
G1 X122.240 Y86.802 E0.29284
G1 X122.567 Y86.930 F10800.000
; stop printing object C:/Users/mlp/AppData/Local/Temp/Neutron/Body3.stl id:0 copy 0
M106 S84.15
;LAYER_CHANGE
;Z:0.3
;HEIGHT:0.1
;BEFORE_LAYER_CHANGE
G92 E0.0
;0.3


;WIPE_START
G1 F8640.000
G1 X123.263 Y86.750 E-0.23655
G1 X124.397 Y88.713 E-0.52345
;WIPE_END
G1 E-0.04000 F2100.000
G1 Z0.600 F10800.000
;AFTER_LAYER_CHANGE
;0.3
M104 S210 ; set temperature
G1 X120.392 Y126.182
G1 Z0.300
G1 E0.80000 F2100.000
;TYPE:Skirt
G1 F1581
G1 X119.569 Y125.624 E0.01649
M73 Q5 S8
G1 X118.997 Y124.810 E0.01649
G1 X118.752 Y123.841 E0.01655
G1 X118.749 Y86.200 E0.62368
M73 P5 R8
G1 X118.873 Y85.512 E0.01159
G1 X119.166 Y84.877 E0.01159
G1 X119.610 Y84.337 E0.01159
G1 X120.175 Y83.925 E0.01159
G1 X120.680 Y83.711 E0.00909
G1 X121.221 Y83.600 E0.00916
G1 X123.504 Y83.586 E0.03783
G1 X124.154 Y83.664 E0.01084
G1 X124.763 Y83.892 E0.01078
G1 X125.305 Y84.259 E0.01084
G1 X125.742 Y84.741 E0.01078
G1 X130.897 Y93.644 E0.17047
G1 X131.175 Y94.343 E0.01246
G1 X131.254 Y94.989 E0.01078
G1 X131.251 Y115.139 E0.33388
G1 X131.149 Y115.753 E0.01030
G1 X130.913 Y116.328 E0.01030
G1 X125.879 Y125.048 E0.16683
G1 X125.570 Y125.477 E0.00875
G1 X124.904 Y126.029 E0.01434
G1 X124.100 Y126.348 E0.01434
G1 X123.563 Y126.414 E0.00895
G1 X121.365 Y126.411 E0.03643
G1 X120.451 Y126.196 E0.01556
G1 X120.538 Y125.834 F10800.000
G1 F1581
G1 X119.825 Y125.347 E0.01431
G1 X119.331 Y124.634 E0.01437
G1 X119.127 Y123.795 E0.01431
G1 X119.126 Y86.218 E0.62262
G1 X119.238 Y85.609 E0.01026
G1 X119.503 Y85.050 E0.01026
G1 X119.901 Y84.580 E0.01020
M73 Q6 S8
G1 X120.410 Y84.227 E0.01026
G1 X121.297 Y83.971 E0.01530
G1 X123.504 Y83.963 E0.03656
G1 X124.070 Y84.032 E0.00944
G1 X124.603 Y84.234 E0.00944
G1 X125.072 Y84.557 E0.00944
G1 X125.451 Y84.982 E0.00944
G1 X130.568 Y93.828 E0.16932
M73 P6 R8
G1 X130.813 Y94.454 E0.01113
G1 X130.877 Y94.993 E0.00901
G1 X130.874 Y115.122 E0.33352
G1 X130.786 Y115.651 E0.00888
G1 X130.581 Y116.150 E0.00894
G1 X125.294 Y125.220 E0.17396
G1 X124.701 Y125.712 E0.01276
G1 X123.982 Y125.988 E0.01276
G1 X121.378 Y126.034 E0.04316
G1 X120.596 Y125.848 E0.01332
; printing object C:/Users/mlp/AppData/Local/Temp/Neutron/Body3.stl id:0 copy 0
;WIPE_START
G1 F8640.000
G1 X119.825 Y125.347 E-0.21241
G1 X119.331 Y124.634 E-0.20028
G1 X119.127 Y123.795 E-0.19941
G1 X119.127 Y123.154 E-0.14789
;WIPE_END
G1 E-0.04000 F2100.000
G1 Z0.700 F10800.000
G1 X122.632 Y123.007
G1 Z0.300
G1 E0.80000 F2100.000
M204 S800
;TYPE:Perimeter
;WIDTH:0.45
G1 F1581
G1 X127.154 Y115.175 E0.16112
G1 X127.154 Y94.825 E0.36257
G1 X122.632 Y86.993 E0.16112
G1 X123.123 Y86.993 E0.00874
G1 X127.846 Y95.175 E0.16832
G1 X127.846 Y114.825 E0.35009
G1 X123.123 Y123.007 E0.16832
M73 Q7 S8
G1 X122.692 Y123.007 E0.00767
M204 S1000
G1 X123.370 Y123.435 F10800.000
M204 S800
;TYPE:External perimeter
G1 F1500.000
G1 X121.890 Y123.435 E0.02638
G1 X126.725 Y115.060 E0.17230
M73 P7 R8
G1 X126.725 Y94.940 E0.35848
G1 X121.890 Y86.565 E0.17230
G1 X123.370 Y86.565 E0.02638
G1 X128.275 Y95.060 E0.17478
G1 X128.275 Y114.940 E0.35418
G1 X123.400 Y123.383 E0.17371
M204 S1000
G1 X123.036 Y123.216 F10800.000
;WIPE_START
G1 F8640.000
G1 X121.890 Y123.435 E-0.34896
G1 X122.780 Y121.894 E-0.41104
;WIPE_END
G1 E-0.04000 F2100.000
G1 Z0.700 F10800.000
G1 X127.500 Y95.004
G1 Z0.300
G1 E0.80000 F2100.000
;TYPE:Gap fill
;WIDTH:0.285844
G1 F1581
G1 X127.500 Y114.996 E0.21976
; stop printing object C:/Users/mlp/AppData/Local/Temp/Neutron/Body3.stl id:0 copy 0
M106 S170.85
;LAYER_CHANGE
;Z:0.4
;HEIGHT:0.1
;BEFORE_LAYER_CHANGE
G92 E0.0
;0.4


;WIPE_START
G1 F8640.000
G1 X127.500 Y111.705 E-0.76000
;WIPE_END
G1 E-0.04000 F2100.000
G1 Z0.700 F10800.000
;AFTER_LAYER_CHANGE
;0.4
G1 X120.392 Y126.182
M73 Q8 S8
G1 Z0.400
G1 E0.80000 F2100.000
;TYPE:Skirt
;WIDTH:0.42
G1 F1565
G1 X119.569 Y125.624 E0.01649
G1 X118.997 Y124.810 E0.01649
G1 X118.752 Y123.841 E0.01655
G1 X118.749 Y86.200 E0.62368
M73 P8 R8
G1 X118.873 Y85.512 E0.01159
G1 X119.166 Y84.877 E0.01159
G1 X119.610 Y84.337 E0.01159
G1 X120.175 Y83.925 E0.01159
G1 X120.680 Y83.711 E0.00909
G1 X121.221 Y83.600 E0.00916
G1 X123.504 Y83.586 E0.03783
G1 X124.154 Y83.664 E0.01084
G1 X124.763 Y83.892 E0.01078
G1 X125.305 Y84.259 E0.01084
G1 X125.742 Y84.741 E0.01078
G1 X130.897 Y93.644 E0.17047
G1 X131.175 Y94.343 E0.01246
G1 X131.254 Y94.989 E0.01078
G1 X131.251 Y115.139 E0.33388
G1 X131.149 Y115.753 E0.01030
G1 X130.913 Y116.328 E0.01030
G1 X125.879 Y125.048 E0.16683
G1 X125.570 Y125.477 E0.00875
G1 X124.904 Y126.029 E0.01434
G1 X124.100 Y126.348 E0.01434
G1 X123.563 Y126.414 E0.00895
G1 X121.365 Y126.411 E0.03643
G1 X120.451 Y126.196 E0.01556
G1 X120.538 Y125.834 F10800.000
G1 F1565
G1 X119.825 Y125.347 E0.01431
G1 X119.331 Y124.634 E0.01437
G1 X119.127 Y123.795 E0.01431
G1 X119.126 Y86.218 E0.62262
M73 Q9 S8
G1 X119.238 Y85.609 E0.01026
G1 X119.503 Y85.050 E0.01026
G1 X119.901 Y84.580 E0.01020
G1 X120.410 Y84.227 E0.01026
M73 P9 R8
G1 X121.297 Y83.971 E0.01530
G1 X123.504 Y83.963 E0.03656
G1 X124.070 Y84.032 E0.00944
G1 X124.603 Y84.234 E0.00944
G1 X125.072 Y84.557 E0.00944
G1 X125.451 Y84.982 E0.00944
G1 X130.568 Y93.828 E0.16932
G1 X130.813 Y94.454 E0.01113
G1 X130.877 Y94.993 E0.00901
G1 X130.874 Y115.122 E0.33352
G1 X130.786 Y115.651 E0.00888
G1 X130.581 Y116.150 E0.00894
G1 X125.294 Y125.220 E0.17396
G1 X124.701 Y125.712 E0.01276
G1 X123.982 Y125.988 E0.01276
G1 X121.378 Y126.034 E0.04316
G1 X120.596 Y125.848 E0.01332
; printing object C:/Users/mlp/AppData/Local/Temp/Neutron/Body3.stl id:0 copy 0
;WIPE_START
G1 F8640.000
G1 X119.825 Y125.347 E-0.21241
G1 X119.331 Y124.634 E-0.20028
G1 X119.127 Y123.795 E-0.19941
G1 X119.127 Y123.154 E-0.14789
;WIPE_END
G1 E-0.04000 F2100.000
G1 Z0.800 F10800.000
G1 X122.632 Y123.007
G1 Z0.400
G1 E0.80000 F2100.000
M204 S800
;TYPE:Perimeter
;WIDTH:0.45
G1 F1565
G1 X127.154 Y115.175 E0.16112
G1 X127.154 Y94.825 E0.36257
G1 X122.632 Y86.993 E0.16112
G1 X123.123 Y86.993 E0.00874
G1 X127.846 Y95.175 E0.16832
G1 X127.846 Y114.825 E0.35009
M73 Q10 S8
G1 X123.123 Y123.007 E0.16832
M73 P10 R8
G1 X122.692 Y123.007 E0.00767
M204 S1000
G1 X123.370 Y123.435 F10800.000
M204 S800
;TYPE:External perimeter
G1 F1500.000
G1 X121.890 Y123.435 E0.02638
G1 X126.725 Y115.060 E0.17230
G1 X126.725 Y94.940 E0.35848
G1 X121.890 Y86.565 E0.17230
G1 X123.370 Y86.565 E0.02638
G1 X128.275 Y95.060 E0.17478
G1 X128.275 Y114.940 E0.35418
G1 X123.400 Y123.383 E0.17371
M204 S1000
G1 X123.036 Y123.216 F10800.000
;WIPE_START
G1 F8640.000
G1 X121.890 Y123.435 E-0.34896
G1 X122.780 Y121.894 E-0.41104
;WIPE_END
G1 E-0.04000 F2100.000
G1 Z0.800 F10800.000
G1 X127.500 Y95.004
G1 Z0.400
G1 E0.80000 F2100.000
;TYPE:Gap fill
;WIDTH:0.285844
G1 F1565
G1 X127.500 Y114.996 E0.21976
; stop printing object C:/Users/mlp/AppData/Local/Temp/Neutron/Body3.stl id:0 copy 0
M106 S255
;LAYER_CHANGE
;Z:0.5
;HEIGHT:0.1
;BEFORE_LAYER_CHANGE
G92 E0.0
;0.5


;WIPE_START
M73 Q11 S8
G1 F8640.000
G1 X127.500 Y111.705 E-0.76000
;WIPE_END
G1 E-0.04000 F2100.000
G1 Z0.800 F10800.000
;AFTER_LAYER_CHANGE
;0.5
; printing object C:/Users/mlp/AppData/Local/Temp/Neutron/Body3.stl id:0 copy 0
G1 X127.154 Y115.175
M73 P11 R8
G1 Z0.500
G1 E0.80000 F2100.000
M204 S800
;TYPE:Perimeter
;WIDTH:0.45
G1 F900
G1 X127.154 Y94.825 E0.36257
G1 X122.632 Y86.993 E0.16112
G1 X123.123 Y86.993 E0.00874
G1 X127.846 Y95.175 E0.16832
G1 X127.846 Y114.825 E0.35009
G1 X123.123 Y123.007 E0.16832
G1 X122.632 Y123.007 E0.00874
G1 X127.124 Y115.227 E0.16005
M204 S1000
M73 P12 R8
M73 Q12 S8
G1 X126.725 Y115.060 F10800.000
M204 S800
;TYPE:External perimeter
G1 F900
G1 X126.725 Y94.940 E0.35848
G1 X121.890 Y86.565 E0.17230
G1 X123.370 Y86.565 E0.02638
G1 X128.275 Y95.060 E0.17478
G1 X128.275 Y114.940 E0.35418
G1 X123.370 Y123.435 E0.17478
G1 X121.890 Y123.435 E0.02638
G1 X126.695 Y115.112 E0.17123
M204 S1000
M73 P13 R8
M73 Q13 S8
G1 X127.094 Y114.906 F10800.000
;WIPE_START
G1 F8640.000
G1 X126.700 Y111.821 E-0.76000
;WIPE_END
G1 E-0.04000 F2100.000
G1 Z0.900 F10800.000
G1 X127.500 Y95.004
G1 Z0.500
G1 E0.80000 F2100.000
;TYPE:Gap fill
;WIDTH:0.285844
G1 F900
G1 X127.500 Y114.996 E0.21976
; stop printing object C:/Users/mlp/AppData/Local/Temp/Neutron/Body3.stl id:0 copy 0
;LAYER_CHANGE
;Z:0.6
;HEIGHT:0.1
;BEFORE_LAYER_CHANGE
G92 E0.0
;0.6


;WIPE_START
G1 F8640.000
G1 X127.500 Y111.705 E-0.76000
;WIPE_END
G1 E-0.04000 F2100.000
G1 Z0.900 F10800.000
;AFTER_LAYER_CHANGE
;0.6
; printing object C:/Users/mlp/AppData/Local/Temp/Neutron/Body3.stl id:0 copy 0
G1 X127.154 Y115.175
G1 Z0.600
G1 E0.80000 F2100.000
M204 S800
;TYPE:Perimeter
;WIDTH:0.45
G1 F900
G1 X127.154 Y94.825 E0.36257
G1 X122.632 Y86.993 E0.16112
G1 X123.123 Y86.993 E0.00874
G1 X127.846 Y95.175 E0.16832
M73 Q14 S8
G1 X127.846 Y114.825 E0.35009
M73 P14 R8
G1 X123.123 Y123.007 E0.16832
G1 X122.632 Y123.007 E0.00874
G1 X127.124 Y115.227 E0.16005
M204 S1000
G1 X126.725 Y115.060 F10800.000
M204 S800
;TYPE:External perimeter
G1 F900
G1 X126.725 Y94.940 E0.35848
G1 X121.890 Y86.565 E0.17230
G1 X123.370 Y86.565 E0.02638
G1 X128.275 Y95.060 E0.17478
M73 Q15 S8
G1 X128.275 Y114.940 E0.35418
M73 P15 R8
G1 X123.370 Y123.435 E0.17478
G1 X121.890 Y123.435 E0.02638
G1 X126.695 Y115.112 E0.17123
M204 S1000
G1 X127.094 Y114.906 F10800.000
;WIPE_START
G1 F8640.000
G1 X126.700 Y111.821 E-0.76000
;WIPE_END
G1 E-0.04000 F2100.000
G1 Z1.000 F10800.000
G1 X127.500 Y95.004
M73 P15 R7
G1 Z0.600
G1 E0.80000 F2100.000
;TYPE:Gap fill
;WIDTH:0.285844
G1 F900
G1 X127.500 Y114.996 E0.21976
; stop printing object C:/Users/mlp/AppData/Local/Temp/Neutron/Body3.stl id:0 copy 0
;LAYER_CHANGE
;Z:0.7
;HEIGHT:0.1
;BEFORE_LAYER_CHANGE
G92 E0.0
;0.7


;WIPE_START
M73 Q15 S7
G1 F8640.000
G1 X127.500 Y111.705 E-0.76000
;WIPE_END
G1 E-0.04000 F2100.000
G1 Z1.000 F10800.000
;AFTER_LAYER_CHANGE
;0.7
; printing object C:/Users/mlp/AppData/Local/Temp/Neutron/Body3.stl id:0 copy 0
G1 X127.154 Y115.175
G1 Z0.700
G1 E0.80000 F2100.000
M204 S800
;TYPE:Perimeter
;WIDTH:0.45
G1 F900
G1 X127.154 Y94.825 E0.36257
M73 P16 R7
M73 Q16 S7
G1 X122.632 Y86.993 E0.16112
G1 X123.123 Y86.993 E0.00874
G1 X127.846 Y95.175 E0.16832
G1 X127.846 Y114.825 E0.35009
G1 X123.123 Y123.007 E0.16832
G1 X122.632 Y123.007 E0.00874
G1 X127.124 Y115.227 E0.16005
M204 S1000
G1 X126.725 Y115.060 F10800.000
M204 S800
;TYPE:External perimeter
G1 F900
G1 X126.725 Y94.940 E0.35848
M73 P17 R7
M73 Q17 S7
G1 X121.890 Y86.565 E0.17230
G1 X123.370 Y86.565 E0.02638
G1 X128.275 Y95.060 E0.17478
G1 X128.275 Y114.940 E0.35418
G1 X123.370 Y123.435 E0.17478
G1 X121.890 Y123.435 E0.02638
G1 X126.695 Y115.112 E0.17123
M204 S1000
G1 X127.094 Y114.906 F10800.000
;WIPE_START
G1 F8640.000
G1 X126.700 Y111.821 E-0.76000
;WIPE_END
M73 Q18 S7
G1 E-0.04000 F2100.000
G1 Z1.100 F10800.000
G1 X127.500 Y95.004
M73 P18 R7
G1 Z0.700
G1 E0.80000 F2100.000
;TYPE:Gap fill
;WIDTH:0.285844
G1 F900
G1 X127.500 Y114.996 E0.21976
; stop printing object C:/Users/mlp/AppData/Local/Temp/Neutron/Body3.stl id:0 copy 0
;LAYER_CHANGE
;Z:0.8
;HEIGHT:0.1
;BEFORE_LAYER_CHANGE
G92 E0.0
;0.8


;WIPE_START
G1 F8640.000
G1 X127.500 Y111.705 E-0.76000
;WIPE_END
G1 E-0.04000 F2100.000
G1 Z1.100 F10800.000
;AFTER_LAYER_CHANGE
;0.8
; printing object C:/Users/mlp/AppData/Local/Temp/Neutron/Body3.stl id:0 copy 0
G1 X127.154 Y115.175
G1 Z0.800
G1 E0.80000 F2100.000
M204 S800
;TYPE:Perimeter
;WIDTH:0.45
G1 F900
G1 X127.154 Y94.825 E0.36257
G1 X122.632 Y86.993 E0.16112
G1 X123.123 Y86.993 E0.00874
G1 X127.846 Y95.175 E0.16832
G1 X127.846 Y114.825 E0.35009
M73 P19 R7
M73 Q19 S7
