; generated by PrusaSlicer 2.3.3+win64 on 2022-01-24 at 17:51:34 UTC

; 

; external perimeters extrusion width = 0.45mm
; perimeters extrusion width = 0.45mm
; infill extrusion width = 0.45mm
; solid infill extrusion width = 0.45mm
; top infill extrusion width = 0.40mm
; first layer extrusion width = 0.42mm

M73 P0 R10
M73 Q0 S10
M201 X1000 Y1000 Z200 E5000 ; sets maximum accelerations, mm/sec^2
M203 X200 Y200 Z12 E120 ; sets maximum feedrates, mm/sec
M204 P1250 R1250 T1250 ; sets acceleration (P, T) and retract acceleration (R), mm/sec^2
M205 X8.00 Y8.00 Z0.40 E4.50 ; sets the jerk limits, mm/sec
M205 S0 T0 ; sets the minimum extruding and travel feed rate, mm/sec
M107
;TYPE:Custom
M862.3 P "MK3S" ; printer model check
M862.1 P0.4 ; nozzle diameter check
M115 U3.10.0 ; tell printer latest fw version
G90 ; use absolute coordinates
M83 ; extruder relative mode
M104 S215 ; set extruder temp
M140 S60 ; set bed temp
M190 S60 ; wait for bed temp
M109 S215 ; wait for extruder temp
G28 W ; home all without mesh bed level
G80 ; mesh bed leveling
G1 Y-3.0 F1000.0 ; go outside print area
G92 E0.0
G1 X60.0 E9.0 F1000.0 ; intro line
G1 X100.0 E12.5 F1000.0 ; intro line
G92 E0.0
M221 S95

; Don't change E values below. Excessive value can damage the printer.
M907 E430 ; set extruder motor current
G21 ; set units to millimeters
G90 ; use absolute coordinates
M83 ; use relative distances for extrusion
M900 K0.05 ; Filament gcode LA 1.5
M900 K30 ; Filament gcode LA 1.0
;LAYER_CHANGE
;Z:0.2
;HEIGHT:0.2
;BEFORE_LAYER_CHANGE
G92 E0.0
;0.2


M73 P1 R10
M73 Q1 S10
G1 E-0.80000 F2100.000
G1 Z0.400 F10800.000
;AFTER_LAYER_CHANGE
;0.2
G1 X120.891 Y83.172
G1 Z0.200
G1 E0.80000 F2100.000
M204 S1000
;TYPE:Skirt
;WIDTH:0.42
G1 F1200.000
G1 X121.577 Y82.874 E0.02345
G1 X122.322 Y82.773 E0.02358
G1 X122.908 Y82.837 E0.01848
G1 X123.471 Y83.026 E0.01860
G1 X123.980 Y83.331 E0.01860
G1 X124.412 Y83.737 E0.01860
G1 X130.970 Y91.562 E0.32012
G1 X131.312 Y92.186 E0.02231
G1 X131.931 Y94.022 E0.06075
G1 X131.962 Y124.661 E0.96068
G1 X131.747 Y125.554 E0.02879
G1 X131.251 Y126.327 E0.02879
G1 X130.528 Y126.893 E0.02879
G1 X129.664 Y127.190 E0.02866
G1 X127.099 Y127.225 E0.08041
G1 X126.232 Y127.046 E0.02777
G1 X125.669 Y126.753 E0.01988
G1 X125.189 Y126.339 E0.01988
G1 X124.815 Y125.827 E0.01988
G1 X124.569 Y125.242 E0.01988
G1 X118.068 Y87.260 E1.20824
M73 Q2 S10
G1 X118.038 Y86.626 E0.01988
M73 P2 R10
G1 X118.154 Y86.003 E0.01988
G1 X118.409 Y85.422 E0.01988
G1 X118.787 Y84.918 E0.01975
G1 X120.845 Y83.210 E0.08387
G1 X121.065 Y83.507 F10800.000
G1 F1200.000
G1 X121.669 Y83.240 E0.02071
G1 X122.323 Y83.150 E0.02071
G1 X122.837 Y83.207 E0.01621
G1 X123.323 Y83.373 E0.01609
G1 X123.762 Y83.639 E0.01609
G1 X124.134 Y83.992 E0.01609
G1 X130.661 Y91.779 E0.31859
G1 X130.961 Y92.325 E0.01953
G1 X131.559 Y94.083 E0.05822
G1 X131.587 Y124.614 E0.95727
G1 X131.407 Y125.389 E0.02496
G1 X130.982 Y126.062 E0.02496
G1 X130.358 Y126.557 E0.02496
G1 X129.606 Y126.818 E0.02496
G1 X127.134 Y126.849 E0.07750
G1 X126.404 Y126.708 E0.02331
G1 X125.902 Y126.455 E0.01763
G1 X125.473 Y126.091 E0.01763
G1 X125.141 Y125.637 E0.01763
G1 X124.926 Y125.117 E0.01763
G1 X118.442 Y87.205 E1.20597
G1 X118.414 Y86.655 E0.01728
G1 X118.514 Y86.113 E0.01728
G1 X118.737 Y85.608 E0.01728
G1 X119.069 Y85.169 E0.01728
G1 X121.018 Y83.546 E0.07954
; printing object C:/Users/mlp/AppData/Local/Temp/Neutron/Body4.stl id:0 copy 0
;WIPE_START
G1 F8640.000
G1 X121.669 Y83.240 E-0.16590
G1 X122.323 Y83.150 E-0.15254
G1 X122.837 Y83.207 E-0.11938
G1 X123.323 Y83.373 E-0.11850
G1 X123.762 Y83.639 E-0.11850
G1 X124.029 Y83.893 E-0.08517
;WIPE_END
G1 E-0.04000 F2100.000
G1 Z0.600 F10800.000
G1 X122.221 Y86.636
G1 Z0.200
G1 E0.80000 F2100.000
;TYPE:Perimeter
G1 F1200.000
G1 X128.054 Y93.587 E0.28451
M73 P3 R10
M73 Q3 S10
G1 X128.427 Y94.612 E0.03419
G1 X128.427 Y123.686 E0.91160
G1 X128.001 Y123.686 E0.01335
G1 X128.001 Y94.187 E0.92493
G1 X121.895 Y86.910 E0.29785
G1 X122.175 Y86.674 E0.01147
G1 X122.268 Y86.105 F10800.000
;TYPE:External perimeter
G1 F1200.000
G1 X128.385 Y93.396 E0.29842
G1 X128.804 Y94.545 E0.03836
G1 X128.804 Y124.063 E0.92551
M73 P3 R9
M73 Q4 S10
G1 X127.624 Y124.063 E0.03700
G1 X127.624 Y94.324 E0.93245
M73 P4 R9
M73 Q4 S9
G1 X121.364 Y86.863 E0.30537
G1 X122.222 Y86.143 E0.03512
G1 X122.512 Y86.421 F10800.000
; stop printing object C:/Users/mlp/AppData/Local/Temp/Neutron/Body4.stl id:0 copy 0
M106 S84.15
;LAYER_CHANGE
;Z:0.3
;HEIGHT:0.1
;BEFORE_LAYER_CHANGE
G92 E0.0
;0.3


;WIPE_START
G1 F8640.000
G1 X124.353 Y88.651 E-0.76000
;WIPE_END
G1 E-0.04000 F2100.000
G1 Z0.600 F10800.000
;AFTER_LAYER_CHANGE
;0.3
M104 S210 ; set temperature
G1 X131.931 Y94.022
G1 Z0.300
G1 E0.80000 F2100.000
;TYPE:Skirt
G1 F1710
G1 X131.962 Y124.661 E0.50768
G1 X131.747 Y125.554 E0.01521
G1 X131.251 Y126.327 E0.01521
G1 X130.528 Y126.893 E0.01521
G1 X129.664 Y127.190 E0.01515
G1 X127.099 Y127.225 E0.04250
G1 X126.232 Y127.046 E0.01468
G1 X125.669 Y126.753 E0.01051
G1 X125.189 Y126.339 E0.01051
G1 X124.815 Y125.827 E0.01051
G1 X124.569 Y125.242 E0.01051
G1 X118.068 Y87.260 E0.63850
G1 X118.038 Y86.626 E0.01051
G1 X118.154 Y86.003 E0.01051
G1 X118.409 Y85.422 E0.01051
G1 X118.787 Y84.918 E0.01044
G1 X120.891 Y83.172 E0.04531
G1 X121.577 Y82.874 E0.01239
G1 X122.322 Y82.773 E0.01246
G1 X122.908 Y82.837 E0.00976
G1 X123.471 Y83.026 E0.00983
G1 X123.980 Y83.331 E0.00983
G1 X124.412 Y83.737 E0.00983
G1 X130.970 Y91.562 E0.16917
M73 Q5 S9
G1 X131.312 Y92.186 E0.01179
G1 X131.912 Y93.965 E0.03111
M73 P5 R9
G1 X131.559 Y94.083 F10800.000
G1 F1710
G1 X131.587 Y124.614 E0.50588
G1 X131.407 Y125.389 E0.01319
G1 X130.982 Y126.062 E0.01319
G1 X130.358 Y126.557 E0.01319
G1 X129.606 Y126.818 E0.01319
G1 X127.134 Y126.849 E0.04096
G1 X126.404 Y126.708 E0.01232
G1 X125.902 Y126.455 E0.00932
G1 X125.473 Y126.091 E0.00932
G1 X125.141 Y125.637 E0.00932
G1 X124.926 Y125.117 E0.00932
G1 X118.442 Y87.205 E0.63730
G1 X118.414 Y86.655 E0.00913
G1 X118.514 Y86.113 E0.00913
G1 X118.737 Y85.608 E0.00913
G1 X119.069 Y85.169 E0.00913
G1 X121.065 Y83.507 E0.04303
G1 X121.669 Y83.240 E0.01095
G1 X122.323 Y83.150 E0.01095
G1 X122.837 Y83.207 E0.00857
G1 X123.323 Y83.373 E0.00850
G1 X123.762 Y83.639 E0.00850
G1 X124.134 Y83.992 E0.00850
G1 X130.661 Y91.779 E0.16836
G1 X130.961 Y92.325 E0.01032
G1 X131.540 Y94.026 E0.02977
; printing object C:/Users/mlp/AppData/Local/Temp/Neutron/Body4.stl id:0 copy 0
;WIPE_START
G1 F8640.000
G1 X131.545 Y97.318 E-0.76000
;WIPE_END
G1 E-0.04000 F2100.000
G1 Z0.700 F10800.000
G1 X127.867 Y94.235
G1 Z0.300
G1 E0.80000 F2100.000
M204 S800
;TYPE:Perimeter
;WIDTH:0.45
G1 F1710
G1 X121.707 Y86.893 E0.17076
G1 X122.238 Y86.448 E0.01235
G1 X128.171 Y93.519 E0.16447
G1 X128.560 Y94.588 E0.02027
G1 X128.560 Y123.819 E0.52080
M73 Q6 S9
G1 X127.867 Y123.819 E0.01235
G1 X127.867 Y94.295 E0.52602
M204 S1000
M73 P6 R9
G1 X127.439 Y94.391 F10800.000
M204 S800
;TYPE:External perimeter
G1 F1500.000
G1 X121.103 Y86.840 E0.17562
G1 X122.290 Y85.844 E0.02762
G1 X128.548 Y93.302 E0.17345
G1 X128.989 Y94.513 E0.02296
G1 X128.989 Y124.248 E0.52978
G1 X127.439 Y124.248 E0.02762
G1 X127.439 Y94.451 E0.53088
M204 S1000
G1 X127.653 Y94.053 F10800.000
G1 X128.149 Y94.280
;TYPE:Gap fill
;WIDTH:0.19906
G1 F1710
G1 X128.171 Y94.403 E0.00092
;WIDTH:0.242452
G1
G1 X128.192 Y94.526 E0.00115
;WIDTH:0.285844
G1
G1 X128.214 Y94.649 E0.00137
G1 X128.214 Y123.605 E0.31828
;WIPE_START
G1 F8640.000
G1 X128.214 Y120.314 E-0.76000
;WIPE_END
G1 E-0.04000 F2100.000
G1 Z0.700 F10800.000
G1 X128.149 Y94.280
M73 P7 R9
M73 Q7 S9
G1 Z0.300
G1 E0.80000 F2100.000
;WIDTH:0.155668
G1 F1710
G1 X128.127 Y94.157 E0.00070
;WIDTH:0.112275
G1
G1 X128.054 Y94.020 E0.00059
;WIDTH:0.19906
G1
G1 X127.929 Y93.803 E0.00185
;WIDTH:0.285845
G1
G1 X127.867 Y93.695 E0.00137
G1 X122.110 Y86.835 E0.09844
; stop printing object C:/Users/mlp/AppData/Local/Temp/Neutron/Body4.stl id:0 copy 0
M106 S170.85
;LAYER_CHANGE
;Z:0.4
;HEIGHT:0.1
;BEFORE_LAYER_CHANGE
G92 E0.0
;0.4


;WIPE_START
G1 F8640.000
G1 X124.226 Y89.356 E-0.76000
;WIPE_END
G1 E-0.04000 F2100.000
G1 Z0.700 F10800.000
;AFTER_LAYER_CHANGE
;0.4
G1 X131.931 Y94.022
G1 Z0.400
G1 E0.80000 F2100.000
;TYPE:Skirt
;WIDTH:0.42
G1 F1710
G1 X131.962 Y124.661 E0.50768
G1 X131.747 Y125.554 E0.01521
G1 X131.251 Y126.327 E0.01521
G1 X130.528 Y126.893 E0.01521
G1 X129.664 Y127.190 E0.01515
G1 X127.099 Y127.225 E0.04250
G1 X126.232 Y127.046 E0.01468
G1 X125.669 Y126.753 E0.01051
G1 X125.189 Y126.339 E0.01051
G1 X124.815 Y125.827 E0.01051
G1 X124.569 Y125.242 E0.01051
G1 X118.068 Y87.260 E0.63850
G1 X118.038 Y86.626 E0.01051
G1 X118.154 Y86.003 E0.01051
G1 X118.409 Y85.422 E0.01051
G1 X118.787 Y84.918 E0.01044
G1 X120.891 Y83.172 E0.04531
G1 X121.577 Y82.874 E0.01239
G1 X122.322 Y82.773 E0.01246
G1 X122.908 Y82.837 E0.00976
G1 X123.471 Y83.026 E0.00983
G1 X123.980 Y83.331 E0.00983
G1 X124.412 Y83.737 E0.00983
G1 X130.970 Y91.562 E0.16917
G1 X131.312 Y92.186 E0.01179
G1 X131.912 Y93.965 E0.03111
G1 X131.559 Y94.083 F10800.000
G1 F1710
G1 X131.587 Y124.614 E0.50588
G1 X131.407 Y125.389 E0.01319
G1 X130.982 Y126.062 E0.01319
G1 X130.358 Y126.557 E0.01319
G1 X129.606 Y126.818 E0.01319
G1 X127.134 Y126.849 E0.04096
M73 Q8 S9
G1 X126.404 Y126.708 E0.01232
G1 X125.902 Y126.455 E0.00932
G1 X125.473 Y126.091 E0.00932
G1 X125.141 Y125.637 E0.00932
G1 X124.926 Y125.117 E0.00932
G1 X118.442 Y87.205 E0.63730
M73 P8 R9
G1 X118.414 Y86.655 E0.00913
G1 X118.514 Y86.113 E0.00913
G1 X118.737 Y85.608 E0.00913
G1 X119.069 Y85.169 E0.00913
G1 X121.065 Y83.507 E0.04303
G1 X121.669 Y83.240 E0.01095
G1 X122.323 Y83.150 E0.01095
G1 X122.837 Y83.207 E0.00857
G1 X123.323 Y83.373 E0.00850
G1 X123.762 Y83.639 E0.00850
G1 X124.134 Y83.992 E0.00850
G1 X130.661 Y91.779 E0.16836
G1 X130.961 Y92.325 E0.01032
G1 X131.540 Y94.026 E0.02977
; printing object C:/Users/mlp/AppData/Local/Temp/Neutron/Body4.stl id:0 copy 0
;WIPE_START
G1 F8640.000
G1 X131.545 Y97.318 E-0.76000
;WIPE_END
G1 E-0.04000 F2100.000
G1 Z0.800 F10800.000
G1 X127.867 Y94.235
G1 Z0.400
G1 E0.80000 F2100.000
M204 S800
;TYPE:Perimeter
;WIDTH:0.45
G1 F1710
G1 X121.707 Y86.893 E0.17076
G1 X122.238 Y86.448 E0.01235
G1 X128.171 Y93.519 E0.16447
G1 X128.560 Y94.588 E0.02027
G1 X128.560 Y123.819 E0.52080
G1 X127.867 Y123.819 E0.01235
G1 X127.867 Y94.295 E0.52602
M204 S1000
G1 X127.439 Y94.391 F10800.000
M204 S800
;TYPE:External perimeter
G1 F1500.000
G1 X121.103 Y86.840 E0.17562
M73 Q9 S9
G1 X122.290 Y85.844 E0.02762
G1 X128.548 Y93.302 E0.17345
M73 P9 R9
G1 X128.989 Y94.513 E0.02296
G1 X128.989 Y124.248 E0.52978
G1 X127.439 Y124.248 E0.02762
G1 X127.439 Y94.451 E0.53088
M204 S1000
G1 X127.653 Y94.053 F10800.000
G1 X128.149 Y94.280
;TYPE:Gap fill
;WIDTH:0.19906
G1 F1710
G1 X128.171 Y94.403 E0.00092
;WIDTH:0.242452
G1
G1 X128.192 Y94.526 E0.00115
;WIDTH:0.285844
G1
G1 X128.214 Y94.649 E0.00137
G1 X128.214 Y123.605 E0.31828
;WIPE_START
G1 F8640.000
G1 X128.214 Y120.314 E-0.76000
;WIPE_END
G1 E-0.04000 F2100.000
G1 Z0.800 F10800.000
G1 X128.149 Y94.280
G1 Z0.400
G1 E0.80000 F2100.000
;WIDTH:0.155668
G1 F1710
G1 X128.127 Y94.157 E0.00070
;WIDTH:0.112275
G1
G1 X128.054 Y94.020 E0.00059
;WIDTH:0.19906
G1
G1 X127.929 Y93.803 E0.00185
;WIDTH:0.285845
G1
G1 X127.867 Y93.695 E0.00137
G1 X122.110 Y86.835 E0.09844
; stop printing object C:/Users/mlp/AppData/Local/Temp/Neutron/Body4.stl id:0 copy 0
M106 S255
;LAYER_CHANGE
;Z:0.5
;HEIGHT:0.1
;BEFORE_LAYER_CHANGE
G92 E0.0
;0.5


;WIPE_START
G1 F8640.000
G1 X124.226 Y89.356 E-0.76000
;WIPE_END
G1 E-0.04000 F2100.000
G1 Z0.800 F10800.000
;AFTER_LAYER_CHANGE
;0.5
; printing object C:/Users/mlp/AppData/Local/Temp/Neutron/Body4.stl id:0 copy 0
G1 X127.867 Y94.235
G1 Z0.500
G1 E0.80000 F2100.000
M204 S800
;TYPE:Perimeter
;WIDTH:0.45
G1 F900
G1 X121.707 Y86.893 E0.17076
M73 P10 R9
M73 Q10 S9
G1 X122.238 Y86.448 E0.01235
G1 X128.171 Y93.519 E0.16447
G1 X128.560 Y94.588 E0.02027
G1 X128.560 Y123.819 E0.52080
G1 X127.867 Y123.819 E0.01235
G1 X127.867 Y94.295 E0.52602
M204 S1000
G1 X127.439 Y94.391 F10800.000
M204 S800
;TYPE:External perimeter
G1 F900
G1 X121.103 Y86.840 E0.17562
G1 X122.290 Y85.844 E0.02762
G1 X128.548 Y93.302 E0.17345
M73 P11 R9
M73 Q11 S9
G1 X128.989 Y94.513 E0.02296
G1 X128.989 Y124.248 E0.52978
G1 X127.439 Y124.248 E0.02762
G1 X127.439 Y94.451 E0.53088
M204 S1000
G1 X127.653 Y94.053 F10800.000
G1 X128.149 Y94.280
;TYPE:Gap fill
;WIDTH:0.19906
G1 F900
G1 X128.171 Y94.403 E0.00092
;WIDTH:0.242452
G1
G1 X128.192 Y94.526 E0.00115
;WIDTH:0.285844
G1
G1 X128.214 Y94.649 E0.00137
G1 X128.214 Y123.605 E0.31828
;WIPE_START
M73 P12 R9
M73 Q12 S9
G1 F8640.000
G1 X128.214 Y120.314 E-0.76000
;WIPE_END
G1 E-0.04000 F2100.000
G1 Z0.900 F10800.000
G1 X128.149 Y94.280
G1 Z0.500
G1 E0.80000 F2100.000
;WIDTH:0.155668
G1 F900
G1 X128.127 Y94.157 E0.00070
;WIDTH:0.112275
G1
G1 X128.054 Y94.020 E0.00059
;WIDTH:0.19906
G1
G1 X127.929 Y93.803 E0.00185
;WIDTH:0.285845
G1
G1 X127.867 Y93.695 E0.00137
G1 X122.110 Y86.835 E0.09844
; stop printing object C:/Users/mlp/AppData/Local/Temp/Neutron/Body4.stl id:0 copy 0
;LAYER_CHANGE
;Z:0.6
;HEIGHT:0.1
;BEFORE_LAYER_CHANGE
G92 E0.0
;0.6


;WIPE_START
G1 F8640.000
G1 X124.226 Y89.356 E-0.76000
;WIPE_END
G1 E-0.04000 F2100.000
G1 Z0.900 F10800.000
;AFTER_LAYER_CHANGE
;0.6
; printing object C:/Users/mlp/AppData/Local/Temp/Neutron/Body4.stl id:0 copy 0
G1 X127.867 Y94.235
G1 Z0.600
G1 E0.80000 F2100.000
M204 S800
;TYPE:Perimeter
;WIDTH:0.45
G1 F900
G1 X121.707 Y86.893 E0.17076
G1 X122.238 Y86.448 E0.01235
G1 X128.171 Y93.519 E0.16447
G1 X128.560 Y94.588 E0.02027
G1 X128.560 Y123.819 E0.52080
G1 X127.867 Y123.819 E0.01235
G1 X127.867 Y94.295 E0.52602
M204 S1000
M73 P13 R9
M73 Q13 S9
G1 X127.439 Y94.391 F10800.000
M204 S800
;TYPE:External perimeter
G1 F900
G1 X121.103 Y86.840 E0.17562
G1 X122.290 Y85.844 E0.02762
G1 X128.548 Y93.302 E0.17345
G1 X128.989 Y94.513 E0.02296
G1 X128.989 Y124.248 E0.52978
G1 X127.439 Y124.248 E0.02762
G1 X127.439 Y94.451 E0.53088
M204 S1000
M73 P14 R8
M73 Q14 S8
G1 X127.653 Y94.053 F10800.000
G1 X128.149 Y94.280
;TYPE:Gap fill
;WIDTH:0.19906
G1 F900
G1 X128.171 Y94.403 E0.00092
;WIDTH:0.242452
G1
G1 X128.192 Y94.526 E0.00115
;WIDTH:0.285844
G1
G1 X128.214 Y94.649 E0.00137
G1 X128.214 Y123.605 E0.31828
;WIPE_START
G1 F8640.000
G1 X128.214 Y120.314 E-0.76000
;WIPE_END
G1 E-0.04000 F2100.000
G1 Z1.000 F10800.000
G1 X128.149 Y94.280
G1 Z0.600
G1 E0.80000 F2100.000
;WIDTH:0.155668
G1 F900
G1 X128.127 Y94.157 E0.00070
;WIDTH:0.112275
G1
G1 X128.054 Y94.020 E0.00059
;WIDTH:0.19906
G1
G1 X127.929 Y93.803 E0.00185
;WIDTH:0.285845
G1
G1 X127.867 Y93.695 E0.00137
G1 X122.110 Y86.835 E0.09844
; stop printing object C:/Users/mlp/AppData/Local/Temp/Neutron/Body4.stl id:0 copy 0
;LAYER_CHANGE
;Z:0.7
;HEIGHT:0.1
;BEFORE_LAYER_CHANGE
G92 E0.0
;0.7


;WIPE_START
G1 F8640.000
G1 X124.226 Y89.356 E-0.76000
;WIPE_END
G1 E-0.04000 F2100.000
G1 Z1.000 F10800.000
;AFTER_LAYER_CHANGE
;0.7
; printing object C:/Users/mlp/AppData/Local/Temp/Neutron/Body4.stl id:0 copy 0
G1 X127.867 Y94.235
G1 Z0.700
G1 E0.80000 F2100.000
M204 S800
;TYPE:Perimeter
;WIDTH:0.45
G1 F900
G1 X121.707 Y86.893 E0.17076
M73 Q15 S8
G1 X122.238 Y86.448 E0.01235
G1 X128.171 Y93.519 E0.16447
M73 P15 R8
G1 X128.560 Y94.588 E0.02027
G1 X128.560 Y123.819 E0.52080
G1 X127.867 Y123.819 E0.01235
G1 X127.867 Y94.295 E0.52602
M204 S1000
G1 X127.439 Y94.391 F10800.000
M204 S800
;TYPE:External perimeter
G1 F900
G1 X121.103 Y86.840 E0.17562
G1 X122.290 Y85.844 E0.02762
G1 X128.548 Y93.302 E0.17345
M73 P16 R8
M73 Q16 S8
G1 X128.989 Y94.513 E0.02296
G1 X128.989 Y124.248 E0.52978
G1 X127.439 Y124.248 E0.02762
G1 X127.439 Y94.451 E0.53088
M204 S1000
G1 X127.653 Y94.053 F10800.000
G1 X128.149 Y94.280
;TYPE:Gap fill
;WIDTH:0.19906
G1 F900
G1 X128.171 Y94.403 E0.00092
;WIDTH:0.242452
G1
G1 X128.192 Y94.526 E0.00115
;WIDTH:0.285844
G1
G1 X128.214 Y94.649 E0.00137
G1 X128.214 Y123.605 E0.31828
;WIPE_START
M73 P17 R8
M73 Q17 S8
G1 F8640.000
G1 X128.214 Y120.314 E-0.76000
;WIPE_END
G1 E-0.04000 F2100.000
G1 Z1.100 F10800.000
G1 X128.149 Y94.280
G1 Z0.700
G1 E0.80000 F2100.000
