; generated by PrusaSlicer 2.3.3+win64 on 2022-01-24 at 15:29:01 UTC

; 

; external perimeters extrusion width = 0.45mm
; perimeters extrusion width = 0.45mm
; infill extrusion width = 0.45mm
; solid infill extrusion width = 0.45mm
; top infill extrusion width = 0.40mm
; first layer extrusion width = 0.42mm

M73 P0 R26
M73 Q0 S26
M201 X1000 Y1000 Z200 E5000 ; sets maximum accelerations, mm/sec^2
M203 X200 Y200 Z12 E120 ; sets maximum feedrates, mm/sec
M204 P1250 R1250 T1250 ; sets acceleration (P, T) and retract acceleration (R), mm/sec^2
M205 X8.00 Y8.00 Z0.40 E4.50 ; sets the jerk limits, mm/sec
M205 S0 T0 ; sets the minimum extruding and travel feed rate, mm/sec
M107
;TYPE:Custom
M862.3 P "MK3S" ; printer model check
M862.1 P0.4 ; nozzle diameter check
M115 U3.10.0 ; tell printer latest fw version
G90 ; use absolute coordinates
M83 ; extruder relative mode
M104 S215 ; set extruder temp
M140 S60 ; set bed temp
M190 S60 ; wait for bed temp
M109 S215 ; wait for extruder temp
G28 W ; home all without mesh bed level
G80 ; mesh bed leveling
G1 Y-3.0 F1000.0 ; go outside print area
G92 E0.0
G1 X60.0 E9.0 F1000.0 ; intro line
G1 X100.0 E12.5 F1000.0 ; intro line
G92 E0.0
M221 S95

; Don't change E values below. Excessive value can damage the printer.
M907 E430 ; set extruder motor current
G21 ; set units to millimeters
G90 ; use absolute coordinates
M83 ; use relative distances for extrusion
M900 K0.05 ; Filament gcode LA 1.5
M900 K30 ; Filament gcode LA 1.0
;LAYER_CHANGE
;Z:0.2
;HEIGHT:0.2
;BEFORE_LAYER_CHANGE
G92 E0.0
;0.2


G1 E-0.80000 F2100.000
G1 Z0.400 F10800.000
;AFTER_LAYER_CHANGE
;0.2
G1 X112.682 Y95.143
G1 Z0.200
G1 E0.80000 F2100.000
M204 S1000
;TYPE:Skirt
;WIDTH:0.42
G1 F1200.000
G1 X113.896 Y93.823 E0.05626
G1 X114.723 Y93.073 E0.03499
G1 X116.200 Y91.966 E0.05788
G1 X117.101 Y91.412 E0.03315
G1 X118.716 Y90.608 E0.05657
G1 X120.534 Y89.955 E0.06056
G1 X124.074 Y88.952 E0.11538
G1 X125.066 Y88.820 E0.03136
G1 X126.326 Y88.873 E0.03955
G1 X126.878 Y88.976 E0.01762
G1 X131.495 Y90.700 E0.15452
G1 X133.106 Y91.534 E0.05689
G1 X133.994 Y92.098 E0.03299
G1 X135.459 Y93.231 E0.05804
G1 X136.265 Y93.982 E0.03456
G1 X137.465 Y95.327 E0.05652
G1 X138.133 Y96.230 E0.03522
G1 X139.091 Y97.812 E0.05795
G1 X139.860 Y99.503 E0.05826
G1 X140.227 Y100.561 E0.03511
G1 X140.669 Y102.359 E0.05805
G1 X140.898 Y104.199 E0.05815
G1 X140.933 Y105.264 E0.03340
G1 X140.824 Y107.106 E0.05785
G1 X140.655 Y108.210 E0.03503
G1 X140.205 Y110.012 E0.05822
G1 X139.549 Y111.743 E0.05806
G1 X139.055 Y112.754 E0.03529
G1 X138.092 Y114.333 E0.05797
G1 X137.459 Y115.181 E0.03319
G1 X136.223 Y116.561 E0.05808
G1 X134.837 Y117.783 E0.05793
G1 X133.984 Y118.410 E0.03319
G1 X132.397 Y119.362 E0.05802
G1 X131.381 Y119.850 E0.03535
G1 X129.649 Y120.491 E0.05791
G1 X127.844 Y120.927 E0.05823
G1 X126.733 Y121.089 E0.03520
G1 X124.885 Y121.184 E0.05800
G1 X123.828 Y121.140 E0.03318
G1 X121.989 Y120.897 E0.05816
G1 X120.193 Y120.441 E0.05809
G1 X119.134 Y120.064 E0.03526
G1 X117.457 Y119.286 E0.05796
G1 X115.872 Y118.310 E0.05835
G1 X114.978 Y117.638 E0.03509
G1 X113.605 Y116.389 E0.05818
G1 X112.391 Y114.992 E0.05804
G1 X111.772 Y114.135 E0.03316
G1 X110.832 Y112.541 E0.05800
G1 X110.353 Y111.524 E0.03525
G1 X109.723 Y109.783 E0.05806
G1 X109.301 Y107.977 E0.05814
G1 X109.148 Y106.868 E0.03511
G1 X109.067 Y105.035 E0.05754
G1 X109.118 Y103.962 E0.03367
G1 X109.375 Y102.121 E0.05826
G1 X109.845 Y100.330 E0.05805
G1 X110.228 Y99.278 E0.03511
G1 X111.021 Y97.600 E0.05819
G1 X112.003 Y96.033 E0.05800
G1 X112.645 Y95.191 E0.03319
G1 X112.945 Y95.419 F10800.000
G1 F1200.000
G1 X114.165 Y94.087 E0.05666
G1 X114.959 Y93.368 E0.03359
G1 X116.410 Y92.279 E0.05687
G1 X117.279 Y91.745 E0.03199
G1 X118.868 Y90.953 E0.05566
G1 X120.698 Y90.299 E0.06093
G1 X124.239 Y89.298 E0.11537
G1 X125.065 Y89.197 E0.02610
G1 X126.284 Y89.248 E0.03824
G1 X126.773 Y89.339 E0.01560
G1 X131.341 Y91.045 E0.15289
G1 X132.923 Y91.863 E0.05584
G1 X133.783 Y92.410 E0.03196
G1 X135.215 Y93.519 E0.05679
G1 X135.995 Y94.246 E0.03342
G1 X137.174 Y95.566 E0.05550
G1 X137.817 Y96.436 E0.03393
G1 X138.758 Y97.989 E0.05693
G1 X139.510 Y99.644 E0.05699
G1 X139.864 Y100.663 E0.03382
G1 X140.298 Y102.429 E0.05704
G1 X140.522 Y104.234 E0.05700
G1 X140.556 Y105.265 E0.03234
G1 X140.449 Y107.071 E0.05674
G1 X140.286 Y108.134 E0.03374
G1 X139.845 Y109.901 E0.05708
G1 X139.201 Y111.598 E0.05693
G1 X138.727 Y112.568 E0.03386
G1 X137.780 Y114.119 E0.05697
G1 X137.170 Y114.939 E0.03204
G1 X135.959 Y116.292 E0.05693
G1 X134.597 Y117.493 E0.05693
G1 X133.773 Y118.097 E0.03203
G1 X132.214 Y119.032 E0.05700
G1 X131.238 Y119.500 E0.03393
G1 X129.537 Y120.131 E0.05689
G1 X127.767 Y120.558 E0.05708
G1 X126.701 Y120.713 E0.03378
G1 X124.886 Y120.807 E0.05699
G1 X123.865 Y120.765 E0.03203
G1 X122.063 Y120.528 E0.05701
G1 X120.298 Y120.079 E0.05708
M73 Q1 S26
G1 X119.281 Y119.717 E0.03384
G1 X117.634 Y118.953 E0.05694
G1 X116.084 Y117.998 E0.05708
G1 X115.223 Y117.351 E0.03379
G1 X113.876 Y116.127 E0.05704
M73 P1 R26
G1 X112.684 Y114.754 E0.05703
G1 X112.084 Y113.923 E0.03212
G1 X111.163 Y112.361 E0.05687
G1 X110.702 Y111.381 E0.03394
G1 X110.084 Y109.674 E0.05693
G1 X109.671 Y107.904 E0.05699
G1 X109.524 Y106.835 E0.03382
G1 X109.444 Y105.037 E0.05644
G1 X109.493 Y104.002 E0.03248
G1 X109.745 Y102.198 E0.05711
G1 X110.205 Y100.442 E0.05692
G1 X110.573 Y99.428 E0.03382
G1 X111.353 Y97.780 E0.05717
G1 X112.316 Y96.243 E0.05687
G1 X112.908 Y95.467 E0.03060
; printing object C:/Users/mlp/AppData/Local/Temp/Neutron/Body1.stl id:0 copy 0
;WIPE_START
G1 F8640.000
G1 X114.165 Y94.087 E-0.43108
G1 X114.959 Y93.368 E-0.24737
G1 X115.242 Y93.156 E-0.08156
;WIPE_END
G1 E-0.04000 F2100.000
G1 Z0.600 F10800.000
G1 X115.541 Y97.624
G1 Z0.200
G1 E0.80000 F2100.000
;TYPE:External perimeter
G1 F1200.000
G1 X115.835 Y97.265 E0.01455
G1 X116.339 Y96.721 E0.02324
G1 X116.875 Y96.209 E0.02324
G1 X117.442 Y95.731 E0.02324
G1 X118.036 Y95.288 E0.02324
G1 X118.656 Y94.882 E0.02324
G1 X119.290 Y94.520 E0.02287
G1 X119.965 Y94.187 E0.02361
G1 X120.649 Y93.901 E0.02325
G1 X121.349 Y93.656 E0.02324
G1 X122.063 Y93.455 E0.02324
G1 X122.787 Y93.298 E0.02324
G1 X123.520 Y93.186 E0.02324
G1 X124.258 Y93.118 E0.02324
G1 X124.987 Y93.096 E0.02287
G1 X125.740 Y93.118 E0.02361
G1 X126.478 Y93.186 E0.02325
G1 X127.211 Y93.298 E0.02324
G1 X127.936 Y93.455 E0.02324
G1 X128.649 Y93.656 E0.02324
G1 X129.349 Y93.901 E0.02324
G1 X130.033 Y94.187 E0.02324
G1 X130.698 Y94.514 E0.02324
G1 X131.342 Y94.882 E0.02324
G1 X131.962 Y95.288 E0.02324
G1 X132.557 Y95.731 E0.02324
G1 X133.123 Y96.209 E0.02324
G1 X133.659 Y96.721 E0.02324
G1 X134.163 Y97.265 E0.02324
G1 X134.633 Y97.839 E0.02324
G1 X135.067 Y98.440 E0.02324
G1 X135.463 Y99.066 E0.02324
G1 X135.821 Y99.716 E0.02324
G1 X136.138 Y100.386 E0.02324
G1 X136.414 Y101.074 E0.02324
G1 X136.647 Y101.777 E0.02324
G1 X136.837 Y102.494 E0.02324
G1 X136.983 Y103.221 E0.02324
G1 X137.085 Y103.955 E0.02324
G1 X137.141 Y104.694 E0.02324
G1 X137.153 Y105.436 E0.02324
G1 X137.119 Y106.176 E0.02324
G1 X137.040 Y106.913 E0.02324
G1 X136.916 Y107.644 E0.02324
G1 X136.748 Y108.366 E0.02324
G1 X136.536 Y109.077 E0.02324
G1 X136.281 Y109.773 E0.02324
G1 X135.985 Y110.452 E0.02324
G1 X135.652 Y111.102 E0.02287
G1 X135.270 Y111.750 E0.02361
G1 X134.854 Y112.365 E0.02325
G1 X134.402 Y112.952 E0.02324
G1 X133.915 Y113.511 E0.02324
G1 X133.395 Y114.039 E0.02324
G1 X132.844 Y114.535 E0.02324
G1 X132.263 Y114.996 E0.02324
G1 X131.655 Y115.420 E0.02324
G1 X131.023 Y115.807 E0.02324
G1 X130.368 Y116.155 E0.02324
G1 X129.695 Y116.461 E0.02320
G1 X129.001 Y116.727 E0.02329
G1 X128.294 Y116.950 E0.02324
G1 X127.575 Y117.129 E0.02324
G1 X126.846 Y117.264 E0.02324
G1 X126.110 Y117.354 E0.02324
G1 X125.370 Y117.399 E0.02324
G1 X124.629 Y117.399 E0.02324
G1 X123.889 Y117.354 E0.02324
G1 X123.153 Y117.264 E0.02324
G1 X122.424 Y117.129 E0.02324
G1 X121.704 Y116.950 E0.02324
G1 X120.997 Y116.727 E0.02324
G1 X120.305 Y116.462 E0.02324
G1 X119.630 Y116.155 E0.02324
G1 X118.975 Y115.807 E0.02324
G1 X118.343 Y115.420 E0.02324
G1 X117.735 Y114.996 E0.02324
G1 X117.155 Y114.535 E0.02324
G1 X116.603 Y114.039 E0.02324
G1 X116.083 Y113.511 E0.02324
G1 X115.604 Y112.961 E0.02287
G1 X115.144 Y112.365 E0.02361
G1 X114.729 Y111.750 E0.02325
G1 X114.352 Y111.112 E0.02324
G1 X114.014 Y110.452 E0.02325
G1 X113.716 Y109.769 E0.02337
G1 X113.462 Y109.077 E0.02312
G1 X113.251 Y108.366 E0.02324
G1 X113.083 Y107.645 E0.02323
G1 X112.959 Y106.913 E0.02326
G1 X112.880 Y106.176 E0.02324
G1 X112.846 Y105.436 E0.02324
G1 X112.857 Y104.694 E0.02324
G1 X112.914 Y103.955 E0.02324
G1 X113.015 Y103.221 E0.02324
G1 X113.161 Y102.494 E0.02324
G1 X113.351 Y101.777 E0.02324
G1 X113.585 Y101.074 E0.02324
G1 X113.860 Y100.386 E0.02324
G1 X114.178 Y99.716 E0.02324
G1 X114.535 Y99.066 E0.02324
G1 X114.933 Y98.438 E0.02330
G1 X115.503 Y97.670 E0.03000
G1 X115.391 Y97.254 F10800.000
;WIPE_START
G1 F8640.000
G1 X115.835 Y97.265 E-0.12099
G1 X116.339 Y96.721 E-0.17118
G1 X116.875 Y96.209 E-0.17118
G1 X117.442 Y95.731 E-0.17118
G1 X117.877 Y95.406 E-0.12547
;WIPE_END
G1 E-0.04000 F2100.000
G1 Z0.600 F10800.000
G1 X125.115 Y92.548
G1 Z0.200
G1 E0.80000 F2100.000
G1 F1200.000
G1 X125.794 Y92.406 E0.02175
G1 X126.592 Y92.481 E0.02514
G1 X126.909 Y92.556 E0.01023
G1 X127.279 Y92.732 E0.01283
G1 X128.432 Y93.050 E0.03751
G1 X129.172 Y93.283 E0.02432
G1 X129.894 Y93.560 E0.02424
G1 X130.598 Y93.880 E0.02424
G1 X131.280 Y94.242 E0.02424
G1 X131.940 Y94.645 E0.02424
G1 X132.573 Y95.088 E0.02424
G1 X133.179 Y95.569 E0.02423
G1 X133.769 Y96.101 E0.02491
G1 X134.296 Y96.636 E0.02357
G1 X134.804 Y97.219 E0.02424
G1 X135.275 Y97.832 E0.02424
G1 X135.709 Y98.472 E0.02424
G1 X136.102 Y99.138 E0.02424
G1 X136.454 Y99.826 E0.02424
G1 X136.763 Y100.534 E0.02424
G1 X137.029 Y101.260 E0.02424
G1 X137.250 Y102.001 E0.02424
G1 X137.425 Y102.754 E0.02424
G1 X137.554 Y103.516 E0.02424
G1 X137.636 Y104.285 E0.02424
G1 X137.672 Y105.057 E0.02424
G1 X137.660 Y105.830 E0.02423
G1 X137.598 Y106.622 E0.02491
G1 X137.495 Y107.366 E0.02357
G1 X137.343 Y108.124 E0.02424
G1 X137.145 Y108.871 E0.02424
G1 X136.902 Y109.605 E0.02424
G1 X136.614 Y110.323 E0.02424
G1 X136.283 Y111.021 E0.02424
G1 X135.910 Y111.698 E0.02424
G1 X135.497 Y112.352 E0.02424
G1 X135.044 Y112.978 E0.02424
G1 X134.555 Y113.576 E0.02424
G1 X134.029 Y114.143 E0.02424
G1 X133.470 Y114.677 E0.02424
G1 X132.880 Y115.176 E0.02424
G1 X132.260 Y115.638 E0.02424
G1 X131.613 Y116.062 E0.02424
G1 X130.942 Y116.445 E0.02424
G1 X130.248 Y116.786 E0.02424
G1 X129.535 Y117.085 E0.02424
G1 X128.805 Y117.339 E0.02424
G1 X128.061 Y117.549 E0.02424
G1 X127.306 Y117.713 E0.02424
G1 X126.542 Y117.830 E0.02424
G1 X125.772 Y117.901 E0.02424
G1 X124.999 Y117.924 E0.02424
G1 X124.227 Y117.901 E0.02424
G1 X123.457 Y117.830 E0.02424
G1 X122.693 Y117.713 E0.02424
G1 X121.937 Y117.549 E0.02424
G1 X121.193 Y117.339 E0.02423
G1 X120.444 Y117.076 E0.02491
G1 X119.750 Y116.786 E0.02357
G1 X119.057 Y116.445 E0.02424
G1 X118.385 Y116.062 E0.02424
G1 X117.739 Y115.638 E0.02424
G1 X117.119 Y115.176 E0.02424
G1 X116.528 Y114.677 E0.02424
G1 X115.969 Y114.143 E0.02424
G1 X115.444 Y113.576 E0.02424
G1 X114.954 Y112.978 E0.02424
G1 X114.502 Y112.352 E0.02424
G1 X114.088 Y111.698 E0.02424
G1 X113.715 Y111.021 E0.02424
G1 X113.385 Y110.323 E0.02424
G1 X113.097 Y109.605 E0.02424
G1 X112.854 Y108.871 E0.02424
G1 X112.655 Y108.124 E0.02424
G1 X112.503 Y107.366 E0.02424
G1 X112.397 Y106.597 E0.02435
G1 X112.338 Y105.828 E0.02418
G1 X112.327 Y105.057 E0.02418
G1 X112.362 Y104.287 E0.02418
G1 X112.444 Y103.516 E0.02431
G1 X112.574 Y102.754 E0.02424
G1 X112.749 Y102.001 E0.02424
G1 X112.970 Y101.260 E0.02424
G1 X113.235 Y100.534 E0.02424
G1 X113.545 Y99.826 E0.02424
G1 X113.897 Y99.138 E0.02424
G1 X114.290 Y98.472 E0.02424
G1 X114.723 Y97.832 E0.02424
G1 X115.194 Y97.219 E0.02424
G1 X115.702 Y96.636 E0.02424
G1 X116.245 Y96.086 E0.02424
G1 X116.820 Y95.569 E0.02424
G1 X117.425 Y95.088 E0.02424
G1 X118.059 Y94.645 E0.02424
G1 X118.718 Y94.242 E0.02424
G1 X119.401 Y93.880 E0.02424
G1 X120.105 Y93.560 E0.02424
G1 X120.826 Y93.283 E0.02424
G1 X121.560 Y93.052 E0.02413
G1 X122.314 Y92.864 E0.02436
G1 X123.074 Y92.723 E0.02422
G1 X123.843 Y92.629 E0.02428
G1 X125.064 Y92.543 E0.03839
G1 X124.998 Y92.017 E0.01664
G1 X125.085 Y92.097 E0.00371
G1 X125.111 Y92.488 E0.01229
G1 X125.198 Y92.939 F10800.000
G1 X125.815 Y91.889
G1 F1200.000
G1 X125.917 Y91.832 E0.00369
G1 X125.988 Y91.820 E0.00223
G1 X126.122 Y91.847 E0.00429
G1 X126.209 Y91.914 E0.00345
G1 X125.875 Y91.893 E0.01051
G1 X125.924 Y91.845 F10800.000
G1 X125.820 Y92.766
;TYPE:Gap fill
;WIDTH:0.314378
G1 F1200.000
G1 X126.529 Y92.833 E0.01608
G1 X126.794 Y92.884 E0.00609
G1 X127.044 Y92.961 E0.00592
;WIDTH:0.281108
G1 X127.170 Y93.000 E0.00260
;WIDTH:0.242911
G1 X127.260 Y93.020 E0.00153
;WIDTH:0.230664
G1 X127.997 Y93.201 E0.01185
;WIDTH:0.188703
G1 X128.724 Y93.411 E0.00918
;WIDTH:0.179124
G1 X129.793 Y93.802 E0.01288
G1 X130.820 Y94.289 E0.01288
G1 X131.796 Y94.865 E0.01283
G1 X132.718 Y95.531 E0.01288
G1 X133.587 Y96.290 E0.01307
G1 X134.358 Y97.098 E0.01264
G1 X135.063 Y97.986 E0.01283
G1 X135.685 Y98.937 E0.01288
G1 X136.048 Y99.597 E0.00853
G1 X136.372 Y100.281 E0.00857
G1 X136.780 Y101.343 E0.01288
G1 X137.087 Y102.434 E0.01283
G1 X137.294 Y103.552 E0.01288
G1 X137.398 Y104.680 E0.01283
G1 X137.398 Y105.817 E0.01288
G1 X137.294 Y106.950 E0.01289
G1 X137.087 Y108.065 E0.01283
G1 X136.779 Y109.159 E0.01288
G1 X136.373 Y110.218 E0.01283
G1 X136.049 Y110.902 E0.00857
G1 X135.684 Y111.565 E0.00857
G1 X135.064 Y112.513 E0.01283
G1 X134.357 Y113.404 E0.01288
G1 X133.571 Y114.226 E0.01288
G1 X132.717 Y114.971 E0.01283
G1 X131.794 Y115.636 E0.01288
G1 X131.148 Y116.031 E0.00857
G1 X130.483 Y116.384 E0.00853
G1 X129.441 Y116.840 E0.01288
G1 X128.366 Y117.196 E0.01283
G1 X127.258 Y117.454 E0.01288
G1 X126.135 Y117.610 E0.01283
G1 X124.999 Y117.662 E0.01288
G1 X123.863 Y117.610 E0.01288
G1 X122.741 Y117.454 E0.01283
G1 X121.633 Y117.196 E0.01288
G1 X120.538 Y116.832 E0.01307
G1 X119.515 Y116.384 E0.01264
G1 X118.522 Y115.838 E0.01283
G1 X117.580 Y115.200 E0.01288
G1 X116.704 Y114.482 E0.01283
G1 X115.893 Y113.684 E0.01288
G1 X115.404 Y113.122 E0.00844
G1 X114.937 Y112.517 E0.00866
G1 X114.314 Y111.565 E0.01288
G1 X113.783 Y110.564 E0.01283
G1 X113.343 Y109.515 E0.01288
G1 X113.003 Y108.434 E0.01283
G1 X112.762 Y107.323 E0.01288
G1 X112.624 Y106.198 E0.01283
G1 X112.589 Y105.061 E0.01288
G1 X112.658 Y103.930 E0.01284
G1 X112.831 Y102.806 E0.01288
G1 X113.105 Y101.706 E0.01283
G1 X113.479 Y100.632 E0.01288
G1 X113.950 Y99.597 E0.01288
G1 X114.512 Y98.613 E0.01283
G1 X115.163 Y97.680 E0.01288
G1 X115.895 Y96.815 E0.01283
G1 X116.705 Y96.017 E0.01288
G1 X117.582 Y95.299 E0.01283
G1 X118.524 Y94.662 E0.01288
G1 X119.517 Y94.115 E0.01283
G1 X120.559 Y93.660 E0.01288
G1 X121.632 Y93.304 E0.01280
G1 X122.743 Y93.046 E0.01292
G1 X123.868 Y92.890 E0.01286
G1 X124.877 Y92.828 E0.01145
G1 X124.955 Y92.842 E0.00090
G1 X125.346 Y92.806 E0.00445
;WIDTH:0.314378
G1 X125.760 Y92.770 E0.00937
; stop printing object C:/Users/mlp/AppData/Local/Temp/Neutron/Body1.stl id:0 copy 0
M106 S84.15
;LAYER_CHANGE
;Z:0.3
;HEIGHT:0.1
;BEFORE_LAYER_CHANGE
G92 E0.0
;0.3


;WIPE_START
G1 F8640.000
G1 X126.529 Y92.833 E-0.17818
G1 X126.794 Y92.884 E-0.06231
G1 X127.044 Y92.961 E-0.06056
;WIPE_END
G1 E-0.49895 F2100.000
G1 Z0.600 F10800.000
;AFTER_LAYER_CHANGE
;0.3
M104 S210 ; set temperature
G1 X126.878 Y88.976
G1 Z0.300
G1 E0.80000 F2100.000
;TYPE:Skirt
;WIDTH:0.42
G1 F2482
G1 X131.495 Y90.700 E0.08165
G1 X133.106 Y91.534 E0.03006
G1 X133.994 Y92.098 E0.01743
G1 X135.459 Y93.231 E0.03067
G1 X136.265 Y93.982 E0.01826
G1 X137.465 Y95.327 E0.02987
G1 X138.133 Y96.230 E0.01861
G1 X139.091 Y97.812 E0.03063
G1 X139.860 Y99.503 E0.03079
G1 X140.227 Y100.561 E0.01856
G1 X140.669 Y102.359 E0.03068
G1 X140.898 Y104.199 E0.03073
G1 X140.933 Y105.264 E0.01765
G1 X140.824 Y107.106 E0.03057
G1 X140.655 Y108.210 E0.01851
G1 X140.205 Y110.012 E0.03077
G1 X139.549 Y111.743 E0.03068
