; generated by PrusaSlicer 2.3.3+win64 on 2022-01-27 at 20:23:23 UTC

; 

; external perimeters extrusion width = 0.45mm
; perimeters extrusion width = 0.45mm
; infill extrusion width = 0.45mm
; solid infill extrusion width = 0.45mm
; top infill extrusion width = 0.40mm
; first layer extrusion width = 0.42mm

M73 P0 R27
M73 Q0 S27
M201 X1000 Y1000 Z200 E5000 ; sets maximum accelerations, mm/sec^2
M203 X200 Y200 Z12 E120 ; sets maximum feedrates, mm/sec
M204 P1250 R1250 T1250 ; sets acceleration (P, T) and retract acceleration (R), mm/sec^2
M205 X8.00 Y8.00 Z0.40 E4.50 ; sets the jerk limits, mm/sec
M205 S0 T0 ; sets the minimum extruding and travel feed rate, mm/sec
M107
;TYPE:Custom
M862.3 P "MK3S" ; printer model check
M862.1 P0.4 ; nozzle diameter check
M115 U3.10.0 ; tell printer latest fw version
G90 ; use absolute coordinates
M83 ; extruder relative mode
M104 S215 ; set extruder temp
M140 S65 ; set bed temp
M190 S65 ; wait for bed temp
M109 S215 ; wait for extruder temp
G28 W ; home all without mesh bed level
G80 ; mesh bed leveling
G1 Y-3.0 F1000.0 ; go outside print area
G92 E0.0
G1 X60.0 E9.0 F1000.0 ; intro line
G1 X100.0 E12.5 F1000.0 ; intro line
G92 E0.0
M221 S95

; Don't change E values below. Excessive value can damage the printer.
M907 E430 ; set extruder motor current
G21 ; set units to millimeters
G90 ; use absolute coordinates
M83 ; use relative distances for extrusion
M900 K0.05 ; Filament gcode LA 1.5
M900 K30 ; Filament gcode LA 1.0
;LAYER_CHANGE
;Z:0.2
;HEIGHT:0.2
;BEFORE_LAYER_CHANGE
G92 E0.0
;0.2


G1 E-0.80000 F2100.000
G1 Z0.400 F10800.000
;AFTER_LAYER_CHANGE
;0.2
G1 X113.724 Y96.074
G1 Z0.200
G1 E0.80000 F2100.000
M204 S1000
;TYPE:Skirt
;WIDTH:0.42
G1 F1200.000
G1 X114.826 Y94.919 E0.05006
G1 X115.746 Y94.125 E0.03810
G1 X117.074 Y93.192 E0.05090
G1 X118.096 Y92.613 E0.03684
G1 X119.562 Y91.954 E0.05038
G1 X120.671 Y91.575 E0.03676
G1 X122.240 Y91.195 E0.05060
G1 X123.390 Y91.027 E0.03645
G1 X125.003 Y90.941 E0.05064
G1 X126.608 Y91.028 E0.05040
G1 X127.757 Y91.195 E0.03639
G1 X129.325 Y91.573 E0.05057
G1 X130.434 Y91.952 E0.03677
G1 X131.903 Y92.613 E0.05049
G1 X132.923 Y93.193 E0.03679
G1 X134.251 Y94.125 E0.05088
G1 X135.173 Y94.918 E0.03812
G1 X136.273 Y96.069 E0.04994
G1 X137.006 Y97.005 E0.03726
G1 X137.882 Y98.390 E0.05139
G1 X138.419 Y99.468 E0.03776
G1 X138.995 Y101.003 E0.05140
G1 X139.297 Y102.165 E0.03764
G1 X139.543 Y103.798 E0.05179
G1 X139.597 Y105.001 E0.03773
G1 X139.542 Y106.204 E0.03778
G1 X139.293 Y107.833 E0.05167
G1 X138.988 Y108.997 E0.03773
G1 X138.415 Y110.528 E0.05124
G1 X137.882 Y111.605 E0.03770
G1 X137.008 Y112.994 E0.05143
G1 X136.274 Y113.931 E0.03732
G1 X135.175 Y115.077 E0.04979
G1 X134.248 Y115.873 E0.03830
G1 X132.922 Y116.804 E0.05080
G1 X131.901 Y117.384 E0.03682
G1 X130.436 Y118.047 E0.05042
G1 X129.322 Y118.428 E0.03693
G1 X127.757 Y118.805 E0.05046
G1 X126.605 Y118.971 E0.03650
G1 X124.999 Y119.056 E0.05043
G1 X123.392 Y118.971 E0.05046
G1 X122.243 Y118.805 E0.03639
G1 X120.676 Y118.428 E0.05052
G1 X119.564 Y118.048 E0.03686
G1 X118.094 Y117.385 E0.05056
G1 X117.074 Y116.805 E0.03678
G1 X115.747 Y115.874 E0.05081
G1 X114.825 Y115.083 E0.03812
G1 X113.724 Y113.931 E0.04994
G1 X112.990 Y112.994 E0.03733
G1 X112.115 Y111.607 E0.05142
G1 X111.579 Y110.529 E0.03775
G1 X111.004 Y108.999 E0.05125
G1 X110.700 Y107.838 E0.03763
G1 X110.502 Y106.653 E0.03767
G1 X110.403 Y105.001 E0.05188
G1 X110.457 Y103.800 E0.03770
G1 X110.702 Y102.165 E0.05184
G1 X111.003 Y101.003 E0.03764
G1 X111.576 Y99.470 E0.05131
G1 X112.117 Y98.389 E0.03790
G1 X112.992 Y97.008 E0.05124
G1 X113.687 Y96.122 E0.03533
G1 X113.983 Y96.354 F10800.000
G1 F1200.000
G1 X115.088 Y95.190 E0.05030
G1 X115.975 Y94.425 E0.03674
G1 X117.277 Y93.510 E0.04989
G1 X118.269 Y92.948 E0.03575
G1 X119.702 Y92.304 E0.04925
G1 X120.777 Y91.937 E0.03562
G1 X122.309 Y91.566 E0.04942
G1 X123.425 Y91.402 E0.03537
G1 X125.002 Y91.319 E0.04953
G1 X126.574 Y91.404 E0.04934
G1 X127.687 Y91.566 E0.03529
G1 X129.218 Y91.935 E0.04938
G1 X130.298 Y92.303 E0.03575
G1 X131.731 Y92.949 E0.04929
G1 X132.720 Y93.511 E0.03565
G1 X134.019 Y94.423 E0.04976
G1 X134.911 Y95.189 E0.03688
G1 X135.990 Y96.318 E0.04899
G1 X136.699 Y97.224 E0.03606
G1 X137.555 Y98.578 E0.05022
G1 X138.074 Y99.621 E0.03653
G1 X138.636 Y101.120 E0.05020
G1 X138.929 Y102.244 E0.03640
G1 X139.168 Y103.838 E0.05056
G1 X139.220 Y104.999 E0.03644
G1 X139.167 Y106.164 E0.03656
G1 X138.924 Y107.754 E0.05044
G1 X138.630 Y108.878 E0.03644
G1 X138.070 Y110.376 E0.05012
G1 X137.554 Y111.418 E0.03648
G1 X136.701 Y112.775 E0.05023
G1 X135.989 Y113.684 E0.03623
G1 X134.911 Y114.809 E0.04884
G1 X134.020 Y115.573 E0.03681
G1 X132.723 Y116.484 E0.04969
G1 X131.733 Y117.047 E0.03571
G1 X130.296 Y117.696 E0.04944
G1 X129.221 Y118.065 E0.03561
G1 X127.685 Y118.435 E0.04956
G1 X126.571 Y118.596 E0.03530
G1 X124.999 Y118.679 E0.04934
G1 X123.426 Y118.596 E0.04941
G1 X122.312 Y118.435 E0.03529
G1 X120.778 Y118.065 E0.04945
G1 X119.701 Y117.697 E0.03572
G1 X118.262 Y117.048 E0.04948
G1 X117.274 Y116.486 E0.03564
G1 X115.979 Y115.577 E0.04959
G1 X115.087 Y114.811 E0.03687
G1 X114.007 Y113.682 E0.04899
G1 X113.297 Y112.775 E0.03612
G1 X112.443 Y111.419 E0.05024
G1 X111.924 Y110.377 E0.03652
G1 X111.362 Y108.882 E0.05006
G1 X111.069 Y107.759 E0.03639
G1 X110.877 Y106.613 E0.03642
G1 X110.780 Y105.001 E0.05063
G1 X110.832 Y103.840 E0.03646
G1 X111.071 Y102.243 E0.05061
G1 X111.362 Y101.119 E0.03640
G1 X111.923 Y99.619 E0.05022
M73 Q1 S27
G1 X112.443 Y98.577 E0.03652
G1 X113.298 Y97.228 E0.05007
G1 X113.946 Y96.401 E0.03295
; printing object C:/Users/mlp/AppData/Local/Temp/Neutron/Body1.stl id:0 copy 0
;WIPE_START
G1 F8640.000
G1 X115.088 Y95.190 E-0.38423
G1 X115.975 Y94.425 E-0.27053
M73 P1 R27
G1 X116.348 Y94.163 E-0.10524
;WIPE_END
G1 E-0.04000 F2100.000
G1 Z0.600 F10800.000
G1 X116.509 Y98.582
G1 Z0.200
G1 E0.80000 F2100.000
;TYPE:Perimeter
G1 F1200.000
G1 X116.844 Y98.188 E0.01624
G1 X117.433 Y97.599 E0.02610
G1 X118.061 Y97.062 E0.02591
G1 X118.402 Y96.805 E0.01338
G1 X119.086 Y96.347 E0.02582
G1 X119.804 Y95.941 E0.02586
G1 X120.186 Y95.753 E0.01334
G1 X120.938 Y95.432 E0.02564
G1 X121.339 Y95.287 E0.01336
G1 X122.128 Y95.049 E0.02584
G1 X122.938 Y94.869 E0.02601
G1 X123.753 Y94.750 E0.02583
G1 X124.176 Y94.712 E0.01332
G1 X124.979 Y94.683 E0.02520
G1 X125.826 Y94.713 E0.02657
G1 X126.645 Y94.802 E0.02582
G1 X127.064 Y94.871 E0.01333
G1 X127.863 Y95.047 E0.02565
G1 X128.273 Y95.162 E0.01335
G1 X129.053 Y95.428 E0.02584
G1 X129.811 Y95.751 E0.02583
G1 X130.193 Y95.940 E0.01335
G1 X130.911 Y96.346 E0.02586
G1 X131.596 Y96.805 E0.02584
G1 X131.936 Y97.062 E0.01339
G1 X132.564 Y97.598 E0.02590
G1 X133.148 Y98.182 E0.02589
G1 X133.432 Y98.502 E0.01341
G1 X133.944 Y99.151 E0.02591
G1 X134.401 Y99.839 E0.02591
G1 X134.616 Y100.210 E0.01345
G1 X134.986 Y100.951 E0.02595
G1 X135.293 Y101.719 E0.02595
G1 X135.427 Y102.127 E0.01346
G1 X135.636 Y102.928 E0.02597
G1 X135.776 Y103.745 E0.02597
G1 X135.821 Y104.170 E0.01340
G1 X135.864 Y105.000 E0.02607
G1 X135.821 Y105.830 E0.02607
G1 X135.775 Y106.255 E0.01340
G1 X135.636 Y107.065 E0.02575
G1 X135.536 Y107.483 E0.01346
G1 X135.295 Y108.274 E0.02595
G1 X134.986 Y109.049 E0.02615
G1 X134.616 Y109.790 E0.02597
G1 X134.400 Y110.161 E0.01345
G1 X133.943 Y110.847 E0.02585
G1 X133.430 Y111.495 E0.02592
G1 X133.146 Y111.814 E0.01338
G1 X132.564 Y112.395 E0.02579
G1 X131.936 Y112.933 E0.02593
G1 X131.596 Y113.191 E0.01338
G1 X130.912 Y113.652 E0.02586
G1 X130.194 Y114.060 E0.02590
G1 X129.811 Y114.249 E0.01339
G1 X129.053 Y114.572 E0.02585
G1 X128.272 Y114.837 E0.02583
G1 X127.863 Y114.951 E0.01333
G1 X127.060 Y115.128 E0.02579
G1 X126.240 Y115.248 E0.02598
G1 X125.419 Y115.308 E0.02580
G1 X124.994 Y115.316 E0.01332
G1 X124.177 Y115.288 E0.02565
G1 X123.753 Y115.250 E0.01334
G1 X122.938 Y115.131 E0.02584
G1 X122.128 Y114.951 E0.02601
G1 X121.339 Y114.713 E0.02583
G1 X120.938 Y114.568 E0.01336
G1 X120.186 Y114.247 E0.02564
G1 X119.804 Y114.059 E0.01334
G1 X119.086 Y113.654 E0.02586
G1 X118.402 Y113.195 E0.02582
G1 X118.061 Y112.938 E0.01339
G1 X117.437 Y112.405 E0.02573
G1 X117.129 Y112.109 E0.01342
G1 X116.569 Y111.501 E0.02591
G1 X116.054 Y110.846 E0.02612
G1 X115.598 Y110.159 E0.02587
G1 X115.383 Y109.788 E0.01342
G1 X115.012 Y109.049 E0.02594
G1 X114.704 Y108.282 E0.02592
G1 X114.570 Y107.873 E0.01348
G1 X114.362 Y107.071 E0.02599
G1 X114.223 Y106.254 E0.02597
G1 X114.178 Y105.827 E0.01346
G1 X114.143 Y105.000 E0.02595
G1 X114.178 Y104.173 E0.02595
G1 X114.222 Y103.746 E0.01347
G1 X114.361 Y102.929 E0.02598
G1 X114.570 Y102.127 E0.02600
G1 X114.705 Y101.719 E0.01348
G1 X115.013 Y100.952 E0.02591
G1 X115.383 Y100.212 E0.02594
G1 X115.598 Y99.842 E0.01342
G1 X116.051 Y99.159 E0.02569
G1 X116.470 Y98.628 E0.02121
G1 X116.757 Y98.872 F10800.000
;TYPE:External perimeter
G1 F1200.000
G1 X117.122 Y98.443 E0.01765
G1 X117.689 Y97.876 E0.02516
G1 X118.298 Y97.356 E0.02509
G1 X118.621 Y97.112 E0.01270
M73 P1 R26
G1 X119.284 Y96.668 E0.02503
G1 X119.980 Y96.274 E0.02508
G1 X120.343 Y96.095 E0.01269
G1 X121.076 Y95.783 E0.02499
G1 X121.457 Y95.645 E0.01271
G1 X122.223 Y95.414 E0.02507
G1 X123.006 Y95.240 E0.02514
G1 X123.797 Y95.125 E0.02507
G1 X124.200 Y95.089 E0.01268
G1 X124.979 Y95.060 E0.02446
G1 X125.799 Y95.089 E0.02572
G1 X126.594 Y95.176 E0.02506
G1 X126.993 Y95.241 E0.01269
G1 X127.772 Y95.413 E0.02500
G1 X128.161 Y95.523 E0.01269
G1 X128.918 Y95.781 E0.02508
G1 X129.654 Y96.094 E0.02507
G1 X130.017 Y96.273 E0.01269
G1 X130.713 Y96.667 E0.02508
G1 X131.377 Y97.112 E0.02506
G1 X131.700 Y97.356 E0.01270
G1 X132.308 Y97.876 E0.02508
G1 X132.874 Y98.441 E0.02508
G1 X133.143 Y98.744 E0.01270
G1 X133.638 Y99.372 E0.02509
G1 X134.081 Y100.038 E0.02507
G1 X134.284 Y100.389 E0.01272
G1 X134.642 Y101.105 E0.02509
G1 X134.938 Y101.848 E0.02509
G1 X135.065 Y102.234 E0.01272
G1 X135.267 Y103.008 E0.02509
G1 X135.402 Y103.797 E0.02510
G1 X135.445 Y104.200 E0.01270
G1 X135.486 Y105.000 E0.02513
G1 X135.445 Y105.801 E0.02513
G1 X135.402 Y106.203 E0.01269
G1 X135.266 Y106.989 E0.02501
G1 X135.172 Y107.384 E0.01272
G1 X134.939 Y108.149 E0.02508
G1 X134.642 Y108.895 E0.02516
G1 X134.284 Y109.611 E0.02510
G1 X134.080 Y109.961 E0.01271
G1 X133.638 Y110.625 E0.02501
G1 X133.141 Y111.253 E0.02510
G1 X132.872 Y111.555 E0.01269
G1 X132.308 Y112.118 E0.02499
G1 X131.699 Y112.639 E0.02514
G1 X131.376 Y112.884 E0.01270
G1 X130.713 Y113.331 E0.02507
G1 X130.017 Y113.727 E0.02511
G1 X129.654 Y113.907 E0.01271
G1 X128.918 Y114.219 E0.02507
G1 X128.161 Y114.476 E0.02507
G1 X127.771 Y114.585 E0.01268
G1 X126.992 Y114.757 E0.02504
G1 X126.199 Y114.873 E0.02513
G1 X125.402 Y114.931 E0.02506
G1 X124.997 Y114.939 E0.01268
G1 X124.200 Y114.911 E0.02501
G1 X123.797 Y114.875 E0.01269
G1 X123.006 Y114.760 E0.02507
G1 X122.223 Y114.586 E0.02514
G1 X121.458 Y114.355 E0.02507
G1 X121.077 Y114.217 E0.01271
G1 X120.344 Y113.905 E0.02499
G1 X119.981 Y113.726 E0.01268
G1 X119.284 Y113.332 E0.02508
G1 X118.621 Y112.888 E0.02503
G1 X118.298 Y112.644 E0.01270
G1 X117.691 Y112.126 E0.02502
M73 Q1 S26
G1 X117.398 Y111.845 E0.01271
G1 X116.856 Y111.256 E0.02509
G1 X116.360 Y110.625 E0.02517
G1 X115.918 Y109.960 E0.02504
G1 X115.715 Y109.609 E0.01270
G1 X115.357 Y108.894 E0.02509
G1 X115.059 Y108.152 E0.02505
G1 X114.932 Y107.767 E0.01273
G1 X114.731 Y106.992 E0.02510
G1 X114.597 Y106.203 E0.02509
G1 X114.554 Y105.799 E0.01272
G1 X114.520 Y105.000 E0.02508
G1 X114.554 Y104.201 E0.02508
G1 X114.596 Y103.798 E0.01272
G1 X114.730 Y103.008 E0.02510
G1 X114.932 Y102.233 E0.02511
G1 X115.059 Y101.848 E0.01272
G1 X115.357 Y101.107 E0.02505
G1 X115.715 Y100.391 E0.02509
G1 X115.918 Y100.041 E0.01270
G1 X116.359 Y99.377 E0.02498
G1 X116.718 Y98.918 E0.01828
G1 X116.612 Y98.499 F10800.000
G1 X116.407 Y98.675
;TYPE:Perimeter
G1 F1200.000
G1 X116.803 Y98.207 E0.01922
G1 X117.394 Y97.611 E0.02631
G1 X118.029 Y97.063 E0.02633
G1 X118.351 Y96.817 E0.01270
G1 X119.046 Y96.347 E0.02630
G1 X119.776 Y95.932 E0.02632
G1 X120.140 Y95.751 E0.01274
G1 X120.912 Y95.421 E0.02634
G1 X121.703 Y95.149 E0.02622
G1 X122.517 Y94.935 E0.02638
G1 X122.916 Y94.853 E0.01276
G1 X123.753 Y94.730 E0.02654
G1 X124.155 Y94.693 E0.01267
G1 X125.182 Y94.666 E0.03221
G1 X125.838 Y94.693 E0.02057
G1 X126.245 Y94.731 E0.01282
G1 X127.083 Y94.854 E0.02655
G1 X127.481 Y94.935 E0.01276
G1 X128.300 Y95.150 E0.02653
G1 X128.687 Y95.274 E0.01275
G1 X129.472 Y95.577 E0.02639
G1 X130.066 Y95.855 E0.02055
G1 X130.590 Y96.133 E0.01859
G1 X131.300 Y96.574 E0.02624
G1 X131.978 Y97.071 E0.02633
G1 X132.290 Y97.329 E0.01271
G1 X132.905 Y97.899 E0.02629
G1 X133.472 Y98.517 E0.02628
G1 X133.727 Y98.831 E0.01268
G1 X134.216 Y99.512 E0.02629
G1 X134.648 Y100.230 E0.02628
G1 X134.835 Y100.588 E0.01267
G1 X135.176 Y101.352 E0.02624
G1 X135.453 Y102.141 E0.02622
G1 X135.562 Y102.529 E0.01263
G1 X135.737 Y103.347 E0.02623
G1 X135.842 Y104.177 E0.02623
G1 X135.868 Y104.579 E0.01262
G1 X135.868 Y105.414 E0.02618
G1 X135.795 Y106.245 E0.02617
G1 X135.735 Y106.643 E0.01262
G1 X135.558 Y107.461 E0.02623
G1 X135.316 Y108.256 E0.02607
G1 X135.008 Y109.035 E0.02625
G1 X134.836 Y109.402 E0.01270
G1 X134.433 Y110.143 E0.02646
G1 X134.218 Y110.485 E0.01266
G1 X133.731 Y111.165 E0.02623
G1 X133.189 Y111.803 E0.02623
G1 X132.909 Y112.094 E0.01267
G1 X132.294 Y112.664 E0.02628
G1 X131.641 Y113.182 E0.02614
G1 X130.946 Y113.651 E0.02629
G1 X130.591 Y113.863 E0.01298
G1 X130.229 Y114.061 E0.01293
G1 X129.470 Y114.423 E0.02637
G1 X128.691 Y114.724 E0.02618
G1 X127.887 Y114.967 E0.02634
G1 X127.492 Y115.063 E0.01275
G1 X126.665 Y115.215 E0.02636
G1 X125.829 Y115.306 E0.02637
G1 X125.422 Y115.329 E0.01278
G1 X124.580 Y115.328 E0.02639
G1 X123.741 Y115.267 E0.02638
G1 X123.337 Y115.216 E0.01277
G1 X122.510 Y115.064 E0.02636
G1 X121.697 Y114.851 E0.02635
G1 X121.311 Y114.726 E0.01274
G1 X120.527 Y114.423 E0.02635
G1 X119.767 Y114.063 E0.02636
G1 X119.410 Y113.868 E0.01275
G1 X118.697 Y113.424 E0.02635
G1 X118.019 Y112.928 E0.02633
G1 X117.707 Y112.670 E0.01271
G1 X117.092 Y112.100 E0.02628
G1 X116.526 Y111.483 E0.02627
G1 X116.271 Y111.170 E0.01267
G1 X115.782 Y110.488 E0.02628
G1 X115.350 Y109.770 E0.02629
G1 X115.163 Y109.411 E0.01268
G1 X114.822 Y108.647 E0.02626
G1 X114.545 Y107.857 E0.02623
G1 X114.436 Y107.470 E0.01262
G1 X114.261 Y106.653 E0.02619
G1 X114.156 Y105.824 E0.02619
G1 X114.131 Y105.422 E0.01263
G1 X114.132 Y104.586 E0.02624
G1 X114.203 Y103.751 E0.02625
G1 X114.262 Y103.352 E0.01265
G1 X114.436 Y102.534 E0.02623
G1 X114.676 Y101.740 E0.02601
G1 X114.982 Y100.969 E0.02600
G1 X115.355 Y100.221 E0.02622
G1 X115.556 Y99.871 E0.01266
G1 X116.017 Y99.173 E0.02622
G1 X116.370 Y98.722 E0.01795
G1 X116.073 Y98.490 F10800.000
;TYPE:External perimeter
G1 F1200.000
G1 X116.527 Y97.949 E0.02215
G1 X117.136 Y97.335 E0.02712
G1 X117.792 Y96.770 E0.02714
G1 X118.131 Y96.510 E0.01340
G1 X118.847 Y96.027 E0.02710
G1 X119.599 Y95.599 E0.02711
G1 X119.982 Y95.409 E0.01341
G1 X120.777 Y95.069 E0.02711
G1 X121.594 Y94.788 E0.02709
G1 X122.431 Y94.568 E0.02714
G1 X122.850 Y94.482 E0.01341
G1 X123.708 Y94.355 E0.02719
G1 X124.133 Y94.316 E0.01338
G1 X125.185 Y94.288 E0.03300
G1 X125.863 Y94.317 E0.02127
G1 X126.289 Y94.356 E0.01344
G1 X127.148 Y94.482 E0.02720
G1 X127.567 Y94.568 E0.01341
G1 X128.406 Y94.787 E0.02719
G1 X128.813 Y94.919 E0.01341
G1 X129.620 Y95.229 E0.02713
G1 X130.235 Y95.517 E0.02126
G1 X130.778 Y95.806 E0.01929
G1 X131.512 Y96.262 E0.02709
G1 X132.209 Y96.773 E0.02712
G1 X132.539 Y97.045 E0.01340
G1 X133.172 Y97.633 E0.02710
G1 X133.757 Y98.270 E0.02711
G1 X134.026 Y98.602 E0.01339
G1 X134.531 Y99.304 E0.02712
G1 X134.977 Y100.045 E0.02711
G1 X135.175 Y100.424 E0.01339
G1 X135.527 Y101.212 E0.02709
G1 X135.813 Y102.028 E0.02709
G1 X135.928 Y102.439 E0.01338
G1 X136.109 Y103.284 E0.02710
G1 X136.218 Y104.141 E0.02710
G1 X136.245 Y104.567 E0.01338
G1 X136.245 Y105.430 E0.02707
G1 X136.170 Y106.290 E0.02706
G1 X136.106 Y106.711 E0.01336
G1 X135.923 Y107.556 E0.02709
G1 X135.672 Y108.381 E0.02704
G1 X135.354 Y109.184 E0.02709
