; generated by PrusaSlicer 2.3.3+win64 on 2022-01-24 at 04:27:52 UTC

; 

; external perimeters extrusion width = 0.45mm
; perimeters extrusion width = 0.45mm
; infill extrusion width = 0.45mm
; solid infill extrusion width = 0.45mm
; top infill extrusion width = 0.40mm
; first layer extrusion width = 0.42mm

M73 P0 R27
M73 Q0 S27
M201 X1000 Y1000 Z200 E5000 ; sets maximum accelerations, mm/sec^2
M203 X200 Y200 Z12 E120 ; sets maximum feedrates, mm/sec
M204 P1250 R1250 T1250 ; sets acceleration (P, T) and retract acceleration (R), mm/sec^2
M205 X8.00 Y8.00 Z0.40 E4.50 ; sets the jerk limits, mm/sec
M205 S0 T0 ; sets the minimum extruding and travel feed rate, mm/sec
M107
;TYPE:Custom
M862.3 P "MK3S" ; printer model check
M862.1 P0.4 ; nozzle diameter check
M115 U3.10.0 ; tell printer latest fw version
G90 ; use absolute coordinates
M83 ; extruder relative mode
M104 S215 ; set extruder temp
M140 S60 ; set bed temp
M190 S60 ; wait for bed temp
M109 S215 ; wait for extruder temp
G28 W ; home all without mesh bed level
G80 ; mesh bed leveling
G1 Y-3.0 F1000.0 ; go outside print area
G92 E0.0
G1 X60.0 E9.0 F1000.0 ; intro line
G1 X100.0 E12.5 F1000.0 ; intro line
G92 E0.0
M221 S95

; Don't change E values below. Excessive value can damage the printer.
M907 E430 ; set extruder motor current
G21 ; set units to millimeters
G90 ; use absolute coordinates
M83 ; use relative distances for extrusion
M900 K0.05 ; Filament gcode LA 1.5
M900 K30 ; Filament gcode LA 1.0
;LAYER_CHANGE
;Z:0.2
;HEIGHT:0.2
;BEFORE_LAYER_CHANGE
G92 E0.0
;0.2


G1 E-0.80000 F2100.000
G1 Z0.400 F10800.000
;AFTER_LAYER_CHANGE
;0.2
G1 X124.952 Y90.673
G1 Z0.200
G1 E0.80000 F2100.000
M204 S1000
;TYPE:Skirt
;WIDTH:0.42
G1 F1200.000
G1 X125.954 Y90.813 E0.03174
G1 X129.707 Y91.922 E0.12268
G1 X131.189 Y92.492 E0.04980
G1 X132.547 Y93.185 E0.04779
G1 X133.479 Y93.771 E0.03454
G1 X134.494 Y94.535 E0.03982
G1 X135.421 Y95.370 E0.03913
G1 X136.285 Y96.297 E0.03972
G1 X137.088 Y97.331 E0.04105
G1 X138.021 Y98.844 E0.05573
G1 X138.569 Y99.996 E0.04000
G1 X139.021 Y101.232 E0.04126
G1 X139.338 Y102.458 E0.03972
G1 X139.537 Y103.705 E0.03959
G1 X139.619 Y104.999 E0.04064
G1 X139.540 Y106.723 E0.05412
G1 X139.349 Y107.957 E0.03915
G1 X139.037 Y109.204 E0.04029
G1 X138.610 Y110.413 E0.04022
G1 X137.813 Y112.047 E0.05700
G1 X137.084 Y113.186 E0.04239
G1 X136.219 Y114.282 E0.04378
G1 X135.312 Y115.232 E0.04118
G1 X134.280 Y116.131 E0.04292
G1 X133.160 Y116.935 E0.04321
G1 X131.523 Y117.857 E0.05890
G1 X130.295 Y118.381 E0.04187
G1 X128.945 Y118.813 E0.04445
G1 X127.617 Y119.103 E0.04261
G1 X126.264 Y119.276 E0.04278
G1 X124.930 Y119.327 E0.04185
G1 X123.564 Y119.259 E0.04287
G1 X122.219 Y119.072 E0.04260
G1 X120.891 Y118.765 E0.04274
G1 X119.568 Y118.326 E0.04369
G1 X118.379 Y117.805 E0.04071
G1 X116.810 Y116.910 E0.05663
G1 X115.735 Y116.137 E0.04151
G1 X114.743 Y115.278 E0.04115
G1 X113.870 Y114.376 E0.03936
G1 X113.044 Y113.353 E0.04123
G1 X112.330 Y112.278 E0.04047
G1 X111.619 Y110.924 E0.04794
G1 X111.035 Y109.416 E0.05070
G1 X110.635 Y107.855 E0.05053
G1 X110.479 Y106.865 E0.03140
G1 X110.381 Y105.249 E0.05076
G1 X110.441 Y103.985 E0.03970
G1 X110.630 Y102.689 E0.04106
G1 X110.928 Y101.461 E0.03963
G1 X111.522 Y99.816 E0.05483
G1 X112.092 Y98.650 E0.04069
G1 X112.746 Y97.575 E0.03944
G1 X113.493 Y96.565 E0.03941
G1 X114.378 Y95.575 E0.04163
G1 X115.363 Y94.664 E0.04207
G1 X116.440 Y93.842 E0.04249
G1 X117.587 Y93.122 E0.04246
G1 X118.768 Y92.521 E0.04154
G1 X120.685 Y91.802 E0.06419
G1 X124.121 Y90.794 E0.11229
G1 X124.892 Y90.681 E0.02443
G1 X124.947 Y91.050 F10800.000
G1 F1200.000
G1 X125.856 Y91.177 E0.02875
G1 X129.590 Y92.280 E0.12209
G1 X131.038 Y92.837 E0.04865
G1 X132.363 Y93.514 E0.04664
G1 X133.266 Y94.083 E0.03346
G1 X134.254 Y94.826 E0.03877
G1 X135.157 Y95.639 E0.03811
G1 X135.998 Y96.541 E0.03866
G1 X136.777 Y97.543 E0.03978
G1 X137.692 Y99.027 E0.05465
G1 X138.224 Y100.147 E0.03891
G1 X138.661 Y101.344 E0.03994
G1 X138.969 Y102.536 E0.03860
G1 X139.162 Y103.744 E0.03834
G1 X139.242 Y104.998 E0.03942
G1 X139.164 Y106.689 E0.05306
G1 X138.979 Y107.885 E0.03795
G1 X138.675 Y109.095 E0.03913
G1 X138.263 Y110.266 E0.03894
G1 X137.483 Y111.866 E0.05580
G1 X136.773 Y112.973 E0.04123
G1 X135.934 Y114.035 E0.04243
G1 X135.047 Y114.963 E0.04026
G1 X134.048 Y115.833 E0.04152
G1 X132.960 Y116.615 E0.04204
G1 X131.353 Y117.520 E0.05780
G1 X130.157 Y118.031 E0.04078
G1 X128.847 Y118.449 E0.04311
G1 X127.553 Y118.732 E0.04155
G1 X126.233 Y118.900 E0.04172
G1 X124.931 Y118.950 E0.04084
G1 X123.603 Y118.884 E0.04168
G1 X122.287 Y118.701 E0.04167
G1 X120.996 Y118.403 E0.04155
G1 X119.704 Y117.975 E0.04265
G1 X118.547 Y117.468 E0.03963
G1 X117.014 Y116.594 E0.05532
G1 X115.969 Y115.841 E0.04038
G1 X115.007 Y115.008 E0.03993
G1 X114.155 Y114.128 E0.03837
G1 X113.351 Y113.134 E0.04010
G1 X112.654 Y112.085 E0.03950
G1 X111.966 Y110.775 E0.04637
G1 X111.394 Y109.299 E0.04964
G1 X111.003 Y107.774 E0.04937
G1 X110.854 Y106.829 E0.02997
G1 X110.758 Y105.252 E0.04957
G1 X110.817 Y104.021 E0.03864
G1 X110.999 Y102.767 E0.03972
G1 X111.288 Y101.573 E0.03852
G1 X111.869 Y99.963 E0.05364
G1 X112.423 Y98.831 E0.03953
G1 X113.059 Y97.785 E0.03837
G1 X113.785 Y96.802 E0.03833
M73 P0 R26
G1 X114.644 Y95.842 E0.04037
G1 X115.606 Y94.953 E0.04110
G1 X116.656 Y94.152 E0.04139
G1 X117.774 Y93.450 E0.04138
G1 X118.925 Y92.863 E0.04053
G1 X120.790 Y92.164 E0.06243
M73 Q1 S27
G1 X124.211 Y91.160 E0.11182
G1 X124.888 Y91.059 E0.02145
; printing object C:/Users/mlp/AppData/Local/Temp/Neutron/Body1.stl id:0 copy 0
;WIPE_START
M73 P1 R26
G1 F8640.000
G1 X125.856 Y91.177 E-0.22504
G1 X128.077 Y91.833 E-0.53496
;WIPE_END
G1 E-0.04000 F2100.000
G1 Z0.600 F10800.000
G1 X124.892 Y94.956
G1 Z0.200
G1 E0.80000 F2100.000
;TYPE:External perimeter
G1 F1200.000
G1 X125.417 Y94.955 E0.01647
G1 X125.836 Y94.978 E0.01314
G1 X126.660 Y95.067 E0.02599
G1 X127.480 Y95.219 E0.02613
G1 X128.279 Y95.429 E0.02592
G1 X128.677 Y95.557 E0.01309
G1 X129.069 Y95.700 E0.01310
G1 X129.830 Y96.025 E0.02596
G1 X130.567 Y96.407 E0.02603
G1 X131.270 Y96.841 E0.02589
G1 X131.615 Y97.083 E0.01321
G1 X132.265 Y97.597 E0.02598
G1 X132.873 Y98.160 E0.02599
G1 X133.165 Y98.465 E0.01323
G1 X133.699 Y99.095 E0.02591
G1 X134.183 Y99.767 E0.02596
G1 X134.407 Y100.121 E0.01314
G1 X134.807 Y100.846 E0.02595
G1 X135.146 Y101.601 E0.02595
G1 X135.293 Y101.994 E0.01316
G1 X135.534 Y102.787 E0.02598
G1 X135.707 Y103.597 E0.02597
G1 X135.768 Y104.012 E0.01315
G1 X135.837 Y104.836 E0.02595
G1 X135.837 Y105.664 E0.02594
G1 X135.811 Y106.082 E0.01315
G1 X135.708 Y106.903 E0.02595
G1 X135.534 Y107.716 E0.02604
G1 X135.421 Y108.118 E0.01310
G1 X135.146 Y108.899 E0.02597
G1 X134.807 Y109.654 E0.02595
G1 X134.612 Y110.025 E0.01314
G1 X134.184 Y110.733 E0.02595
G1 X133.699 Y111.407 E0.02602
G1 X133.163 Y112.038 E0.02597
G1 X132.873 Y112.342 E0.01316
G1 X132.267 Y112.904 E0.02593
G1 X131.943 Y113.171 E0.01316
G1 X131.274 Y113.659 E0.02597
G1 X130.569 Y114.095 E0.02597
G1 X130.199 Y114.295 E0.01321
G1 X129.452 Y114.648 E0.02590
G1 X128.679 Y114.945 E0.02598
G1 X128.279 Y115.074 E0.01315
G1 X127.478 Y115.284 E0.02599
G1 X126.662 Y115.435 E0.02600
G1 X126.246 Y115.488 E0.01315
G1 X125.422 Y115.548 E0.02592
G1 X125.003 Y115.555 E0.01314
G1 X124.175 Y115.525 E0.02598
M73 Q1 S26
G1 X123.351 Y115.435 E0.02598
G1 X122.937 Y115.367 E0.01315
G1 X122.130 Y115.187 E0.02592
G1 X121.726 Y115.074 E0.01315
G1 X120.942 Y114.805 E0.02599
G1 X120.180 Y114.480 E0.02598
G1 X119.805 Y114.294 E0.01314
G1 X119.084 Y113.885 E0.02598
G1 X118.397 Y113.422 E0.02596
G1 X118.063 Y113.169 E0.01315
G1 X117.434 Y112.629 E0.02599
G1 X116.849 Y112.043 E0.02597
G1 X116.571 Y111.729 E0.01315
G1 X116.060 Y111.077 E0.02597
G1 X115.603 Y110.387 E0.02596
G1 X115.393 Y110.023 E0.01316
G1 X115.024 Y109.282 E0.02597
G1 X114.718 Y108.512 E0.02596
G1 X114.587 Y108.114 E0.01315
G1 X114.379 Y107.312 E0.02596
G1 X114.239 Y106.496 E0.02597
G1 X114.195 Y106.080 E0.01312
G1 X114.152 Y105.251 E0.02601
G1 X114.196 Y104.423 E0.02601
G1 X114.240 Y104.007 E0.01312
G1 X114.380 Y103.193 E0.02587
G1 X114.477 Y102.783 E0.01323
G1 X114.718 Y101.993 E0.02588
G1 X115.024 Y101.221 E0.02603
G1 X115.394 Y100.477 E0.02605
G1 X115.824 Y99.767 E0.02603
G1 X116.309 Y99.097 E0.02594
G1 X116.575 Y98.773 E0.01313
G1 X117.137 Y98.166 E0.02594
G1 X117.747 Y97.600 E0.02609
G1 X118.394 Y97.087 E0.02590
G1 X118.737 Y96.845 E0.01315
G1 X119.439 Y96.408 E0.02593
G1 X119.808 Y96.207 E0.01316
G1 X120.557 Y95.853 E0.02600
G1 X121.331 Y95.556 E0.02599
G1 X121.733 Y95.428 E0.01321
G1 X122.530 Y95.220 E0.02584
G1 X122.941 Y95.137 E0.01312
G1 X123.761 Y95.017 E0.02599
G1 X124.591 Y94.956 E0.02611
G1 X124.832 Y94.956 E0.00756
G1 X125.086 Y94.606 F10800.000
G1 X124.448 Y94.436
G1 F1200.000
G1 X124.792 Y94.160 E0.01382
G1 X125.024 Y94.191 E0.00735
G1 X125.012 Y94.013 E0.00560
G1 X125.058 Y94.181 E0.00548
G1 X125.215 Y94.161 E0.00495
G1 X125.289 Y94.427 E0.00865
G1 X126.199 Y94.493 E0.02862
G1 X126.799 Y94.570 E0.01896
G1 X127.393 Y94.677 E0.01894
G1 X127.982 Y94.813 E0.01895
G1 X128.563 Y94.979 E0.01894
G1 X129.134 Y95.173 E0.01890
G1 X129.693 Y95.396 E0.01888
G1 X130.201 Y95.628 E0.01750
G1 X130.693 Y95.882 E0.01738
G1 X131.175 Y96.162 E0.01747
G1 X131.642 Y96.465 E0.01746
G1 X132.421 Y97.052 E0.03058
G1 X133.143 Y97.702 E0.03044
G1 X133.803 Y98.411 E0.03039
G1 X134.108 Y98.783 E0.01508
G1 X134.673 Y99.577 E0.03057
G1 X135.165 Y100.416 E0.03049
G1 X135.578 Y101.292 E0.03036
G1 X135.909 Y102.203 E0.03039
G1 X136.040 Y102.667 E0.01511
G1 X136.205 Y103.428 E0.02440
G1 X136.311 Y104.200 E0.02444
G1 X136.342 Y104.583 E0.01205
G1 X136.361 Y105.357 E0.02427
G1 X136.307 Y106.299 E0.02960
G1 X136.236 Y106.850 E0.01741
G1 X136.136 Y107.398 E0.01746
G1 X136.007 Y107.940 E0.01746
G1 X135.850 Y108.473 E0.01745
G1 X135.664 Y108.998 E0.01744
G1 X135.451 Y109.512 E0.01744
G1 X135.210 Y110.013 E0.01745
G1 X134.963 Y110.466 E0.01617
G1 X134.693 Y110.906 E0.01617
G1 X134.402 Y111.332 E0.01618
G1 X133.759 Y112.143 E0.03245
G1 X133.040 Y112.894 E0.03261
G1 X132.256 Y113.575 E0.03255
G1 X131.847 Y113.884 E0.01607
G1 X130.980 Y114.453 E0.03253
G1 X130.065 Y114.941 E0.03250
G1 X129.108 Y115.345 E0.03258
G1 X128.099 Y115.665 E0.03319
G1 X127.053 Y115.893 E0.03356
G1 X125.994 Y116.027 E0.03347
G1 X124.933 Y116.067 E0.03329
G1 X123.872 Y116.014 E0.03332
G1 X122.814 Y115.867 E0.03348
G1 X121.771 Y115.626 E0.03355
G1 X120.766 Y115.295 E0.03318
G1 X119.854 Y114.898 E0.03119
G1 X118.980 Y114.424 E0.03115
G1 X118.150 Y113.877 E0.03120
G1 X117.758 Y113.580 E0.01542
G1 X117.005 Y112.929 E0.03120
G1 X116.311 Y112.214 E0.03125
G1 X115.687 Y111.443 E0.03109
G1 X115.136 Y110.619 E0.03109
G1 X114.893 Y110.192 E0.01541
G1 X114.605 Y109.615 E0.02020
G1 X114.353 Y109.023 E0.02016
G1 X114.139 Y108.419 E0.02011
G1 X113.962 Y107.800 E0.02017
G1 X113.822 Y107.171 E0.02020
G1 X113.722 Y106.537 E0.02014
G1 X113.661 Y105.898 E0.02014
G1 X113.641 Y105.253 E0.02022
G1 X113.666 Y104.540 E0.02237
G1 X113.741 Y103.835 E0.02224
G1 X113.867 Y103.129 E0.02247
G1 X114.040 Y102.436 E0.02239
G1 X114.220 Y101.863 E0.01883
G1 X114.432 Y101.304 E0.01873
G1 X114.675 Y100.757 E0.01878
G1 X114.948 Y100.222 E0.01885
G1 X115.252 Y99.702 E0.01888
G1 X115.585 Y99.200 E0.01888
G1 X115.944 Y98.719 E0.01883
G1 X116.329 Y98.260 E0.01876
G1 X116.688 Y97.875 E0.01650
G1 X117.065 Y97.508 E0.01651
G1 X117.461 Y97.160 E0.01653
G1 X118.300 Y96.520 E0.03308
G1 X119.198 Y95.957 E0.03325
G1 X120.137 Y95.480 E0.03301
G1 X121.116 Y95.088 E0.03306
G1 X122.131 Y94.785 E0.03323
G1 X123.172 Y94.571 E0.03332
G1 X123.695 Y94.499 E0.01656
G1 X124.389 Y94.441 E0.02182
G1 X124.787 Y94.649 F10800.000
G1 X124.530 Y94.695
;TYPE:Gap fill
;WIDTH:0.215962
G1 F1200.000
G1 X124.740 Y94.622 E0.00321
G1 X124.530 Y94.695 F10800.000
;WIDTH:0.195638
G1 F1200.000
G1 X123.735 Y94.758 E0.01013
;WIDTH:0.187577
G1 X122.899 Y94.887 E0.01018
;WIDTH:0.174213
G1 X122.195 Y95.038 E0.00786
G1 X121.200 Y95.331 E0.01132
G1 X120.456 Y95.623 E0.00872
G1 X119.696 Y95.984 E0.00919
;WIDTH:0.165616
G1 X119.312 Y96.187 E0.00443
G1 X118.598 Y96.632 E0.00859
G1 X118.033 Y97.039 E0.00710
G1 X117.580 Y97.401 E0.00592
G1 X117.246 Y97.703 E0.00460
G1 X116.950 Y97.984 E0.00416
G1 X116.527 Y98.436 E0.00632
G1 X116.102 Y98.940 E0.00673
G1 X115.800 Y99.352 E0.00521
G1 X115.474 Y99.840 E0.00599
G1 X115.168 Y100.356 E0.00612
G1 X114.909 Y100.869 E0.00586
G1 X114.672 Y101.403 E0.00596
G1 X114.463 Y101.947 E0.00595
G1 X114.290 Y102.506 E0.00597
G1 X114.120 Y103.183 E0.00712
G1 X113.956 Y104.215 E0.01066
G1 X113.896 Y105.253 E0.01062
G1 X113.939 Y106.102 E0.00867
G1 X113.983 Y106.529 E0.00438
G1 X114.080 Y107.122 E0.00613
G1 X114.217 Y107.735 E0.00641
G1 X114.340 Y108.184 E0.00474
G1 X114.599 Y108.928 E0.00804
G1 X114.843 Y109.505 E0.00639
G1 X115.123 Y110.068 E0.00642
G1 X115.382 Y110.521 E0.00532
G1 X115.896 Y111.289 E0.00943
G1 X116.377 Y111.893 E0.00787
G1 X116.663 Y112.214 E0.00439
G1 X117.263 Y112.817 E0.00867
G1 X117.904 Y113.369 E0.00863
G1 X118.247 Y113.629 E0.00439
G1 X119.114 Y114.201 E0.01060
G1 X119.968 Y114.664 E0.00991
G1 X120.862 Y115.053 E0.00994
G1 X121.838 Y115.375 E0.01049
G1 X122.861 Y115.613 E0.01071
G1 X123.896 Y115.755 E0.01066
G1 X124.935 Y115.810 E0.01061
G1 X125.973 Y115.768 E0.01060
G1 X126.703 Y115.683 E0.00750
G1 X127.535 Y115.530 E0.00863
G1 X128.529 Y115.268 E0.01049
G1 X129.014 Y115.099 E0.00524
G1 X129.554 Y114.881 E0.00594
G1 X129.952 Y114.703 E0.00444
G1 X130.695 Y114.316 E0.00855
G1 X131.412 Y113.869 E0.00862
G1 X132.098 Y113.374 E0.00863
G1 X132.861 Y112.706 E0.01035
G1 X133.564 Y111.969 E0.01040
G1 X133.900 Y111.568 E0.00534
G1 X134.188 Y111.178 E0.00494
G1 X134.401 Y110.874 E0.00379
G1 X134.734 Y110.334 E0.00647
G1 X135.041 Y109.766 E0.00659
G1 X135.421 Y108.905 E0.00960
G1 X135.664 Y108.197 E0.00763
G1 X135.782 Y107.779 E0.00443
G1 X135.960 Y106.943 E0.00872
G1 X136.064 Y106.104 E0.00863
G1 X136.099 Y105.352 E0.00768
G1 X136.093 Y104.828 E0.00535
G1 X136.023 Y103.984 E0.00864
G1 X135.948 Y103.473 E0.00527
G1 X135.788 Y102.730 E0.00775
G1 X135.657 Y102.284 E0.00474
G1 X135.337 Y101.392 E0.00967
G1 X134.935 Y100.538 E0.00963
G1 X134.457 Y99.718 E0.00969
G1 X133.903 Y98.939 E0.00975
G1 X133.607 Y98.583 E0.00473
G1 X133.053 Y97.980 E0.00835
G1 X132.429 Y97.401 E0.00869
G1 X131.493 Y96.679 E0.01207
G1 X130.697 Y96.184 E0.00956
G1 X129.938 Y95.791 E0.00872
G1 X129.044 Y95.416 E0.00989
G1 X128.349 Y95.183 E0.00748
G1 X127.341 Y94.930 E0.01060
G1 X126.700 Y94.815 E0.00665
G1 X126.173 Y94.752 E0.00541
G1 X125.166 Y94.687 E0.01030
; stop printing object C:/Users/mlp/AppData/Local/Temp/Neutron/Body1.stl id:0 copy 0
M106 S84.15
;LAYER_CHANGE
;Z:0.3
;HEIGHT:0.1
;BEFORE_LAYER_CHANGE
G92 E0.0
;0.3


;WIPE_START
G1 F8640.000
G1 X126.173 Y94.752 E-0.23304
G1 X126.700 Y94.815 E-0.12241
G1 X127.341 Y94.930 E-0.15055
G1 X128.349 Y95.183 E-0.23992
G1 X128.407 Y95.203 E-0.01408
;WIPE_END
G1 E-0.04000 F2100.000
G1 Z0.600 F10800.000
;AFTER_LAYER_CHANGE
;0.3
M104 S210 ; set temperature
G1 X124.952 Y90.673
G1 Z0.300
G1 E0.80000 F2100.000
;TYPE:Skirt
;WIDTH:0.42
G1 F2014
G1 X125.954 Y90.813 E0.01677
G1 X129.707 Y91.922 E0.06483
G1 X131.189 Y92.492 E0.02632
G1 X132.547 Y93.185 E0.02526
G1 X133.479 Y93.771 E0.01825
G1 X134.494 Y94.535 E0.02104
G1 X135.421 Y95.370 E0.02068
G1 X136.285 Y96.297 E0.02099
G1 X137.088 Y97.331 E0.02169
G1 X138.021 Y98.844 E0.02945
G1 X138.569 Y99.996 E0.02114
G1 X139.021 Y101.232 E0.02181
G1 X139.338 Y102.458 E0.02099
G1 X139.537 Y103.705 E0.02092
G1 X139.619 Y104.999 E0.02148
G1 X139.540 Y106.723 E0.02860
G1 X139.349 Y107.957 E0.02069
G1 X139.037 Y109.204 E0.02129
G1 X138.610 Y110.413 E0.02126
G1 X137.813 Y112.047 E0.03012
G1 X137.084 Y113.186 E0.02240
G1 X136.219 Y114.282 E0.02314
G1 X135.312 Y115.232 E0.02176
G1 X134.280 Y116.131 E0.02268
G1 X133.160 Y116.935 E0.02284
G1 X131.523 Y117.857 E0.03113
G1 X130.295 Y118.381 E0.02213
G1 X128.945 Y118.813 E0.02349
G1 X127.617 Y119.103 E0.02252
G1 X126.264 Y119.276 E0.02261
G1 X124.930 Y119.327 E0.02212
G1 X123.564 Y119.259 E0.02266
G1 X122.219 Y119.072 E0.02251
