; generated by PrusaSlicer 2.3.3+win64 on 2022-01-24 at 21:11:45 UTC

; 

; external perimeters extrusion width = 0.45mm
; perimeters extrusion width = 0.45mm
; infill extrusion width = 0.45mm
; solid infill extrusion width = 0.45mm
; top infill extrusion width = 0.40mm
; first layer extrusion width = 0.42mm

M73 P0 R50
M73 Q0 S50
M201 X1000 Y1000 Z200 E5000 ; sets maximum accelerations, mm/sec^2
M203 X200 Y200 Z12 E120 ; sets maximum feedrates, mm/sec
M204 P1250 R1250 T1250 ; sets acceleration (P, T) and retract acceleration (R), mm/sec^2
M205 X8.00 Y8.00 Z0.40 E4.50 ; sets the jerk limits, mm/sec
M205 S0 T0 ; sets the minimum extruding and travel feed rate, mm/sec
M107
;TYPE:Custom
M862.3 P "MK3S" ; printer model check
M862.1 P0.4 ; nozzle diameter check
M115 U3.10.0 ; tell printer latest fw version
G90 ; use absolute coordinates
M83 ; extruder relative mode
M104 S215 ; set extruder temp
M140 S60 ; set bed temp
M190 S60 ; wait for bed temp
M109 S215 ; wait for extruder temp
G28 W ; home all without mesh bed level
G80 ; mesh bed leveling
G1 Y-3.0 F1000.0 ; go outside print area
G92 E0.0
G1 X60.0 E9.0 F1000.0 ; intro line
G1 X100.0 E12.5 F1000.0 ; intro line
G92 E0.0
M221 S95

; Don't change E values below. Excessive value can damage the printer.
M907 E430 ; set extruder motor current
G21 ; set units to millimeters
G90 ; use absolute coordinates
M83 ; use relative distances for extrusion
M900 K0.05 ; Filament gcode LA 1.5
M900 K30 ; Filament gcode LA 1.0
;LAYER_CHANGE
;Z:0.2
;HEIGHT:0.2
;BEFORE_LAYER_CHANGE
G92 E0.0
;0.2


G1 E-0.80000 F2100.000
G1 Z0.400 F10800.000
;AFTER_LAYER_CHANGE
;0.2
G1 X113.493 Y96.565
G1 Z0.200
G1 E0.80000 F2100.000
M204 S1000
;TYPE:Skirt
;WIDTH:0.42
G1 F1200.000
G1 X114.378 Y95.574 E0.04166
G1 X115.364 Y94.663 E0.04208
G1 X116.441 Y93.841 E0.04249
G1 X117.588 Y93.122 E0.04246
G1 X118.769 Y92.520 E0.04154
G1 X120.685 Y91.802 E0.06415
G1 X124.121 Y90.794 E0.11229
G1 X124.952 Y90.673 E0.02631
G1 X126.213 Y90.722 E0.03959
G1 X126.874 Y90.832 E0.02101
G1 X131.140 Y92.470 E0.14328
G1 X132.649 Y93.246 E0.05320
G1 X133.473 Y93.767 E0.03057
G1 X134.493 Y94.534 E0.04001
G1 X135.420 Y95.369 E0.03913
G1 X136.284 Y96.296 E0.03972
G1 X137.087 Y97.330 E0.04105
G1 X138.021 Y98.843 E0.05573
G1 X138.569 Y99.995 E0.04000
G1 X139.020 Y101.231 E0.04126
G1 X139.338 Y102.458 E0.03976
G1 X139.537 Y103.706 E0.03963
G1 X139.620 Y105.000 E0.04064
G1 X139.540 Y106.724 E0.05411
G1 X139.349 Y107.957 E0.03913
G1 X139.037 Y109.204 E0.04029
G1 X138.610 Y110.413 E0.04022
G1 X137.813 Y112.048 E0.05703
G1 X137.083 Y113.187 E0.04240
G1 X136.219 Y114.282 E0.04375
G1 X135.312 Y115.232 E0.04118
G1 X134.283 Y116.129 E0.04279
G1 X133.159 Y116.935 E0.04337
G1 X131.522 Y117.857 E0.05891
G1 X130.294 Y118.382 E0.04187
G1 X128.944 Y118.813 E0.04444
G1 X127.616 Y119.104 E0.04261
G1 X126.264 Y119.276 E0.04276
G1 X124.929 Y119.327 E0.04188
G1 X123.564 Y119.259 E0.04283
G1 X122.216 Y119.072 E0.04270
G1 X120.892 Y118.765 E0.04261
G1 X119.565 Y118.325 E0.04382
G1 X118.379 Y117.806 E0.04059
G1 X116.811 Y116.911 E0.05662
G1 X115.736 Y116.138 E0.04151
G1 X114.744 Y115.278 E0.04115
G1 X113.871 Y114.376 E0.03936
G1 X113.045 Y113.353 E0.04123
G1 X112.330 Y112.279 E0.04047
G1 X111.619 Y110.924 E0.04797
G1 X111.036 Y109.417 E0.05066
G1 X110.635 Y107.855 E0.05057
G1 X110.479 Y106.865 E0.03141
G1 X110.381 Y105.250 E0.05075
G1 X110.441 Y103.985 E0.03971
G1 X110.630 Y102.689 E0.04106
G1 X110.928 Y101.461 E0.03963
G1 X111.520 Y99.820 E0.05470
G1 X112.091 Y98.653 E0.04072
G1 X112.746 Y97.574 E0.03957
G1 X113.457 Y96.613 E0.03749
G1 X113.760 Y96.837 F10800.000
G1 F1200.000
G1 X114.644 Y95.842 E0.04174
G1 X115.607 Y94.952 E0.04111
G1 X116.657 Y94.151 E0.04139
G1 X117.775 Y93.449 E0.04138
G1 X118.926 Y92.863 E0.04053
G1 X120.790 Y92.164 E0.06239
G1 X124.211 Y91.160 E0.11182
G1 X124.948 Y91.050 E0.02334
G1 X126.174 Y91.097 E0.03849
G1 X126.775 Y91.196 E0.01908
G1 X130.988 Y92.815 E0.14154
G1 X132.466 Y93.575 E0.05210
G1 X133.262 Y94.080 E0.02956
G1 X134.253 Y94.825 E0.03887
G1 X135.156 Y95.639 E0.03811
G1 X135.997 Y96.540 E0.03866
G1 X136.777 Y97.544 E0.03985
G1 X137.691 Y99.026 E0.05458
G1 X138.224 Y100.146 E0.03891
G1 X138.660 Y101.343 E0.03994
G1 X138.969 Y102.536 E0.03863
G1 X139.162 Y103.745 E0.03838
G1 X139.242 Y104.999 E0.03942
G1 X139.164 Y106.690 E0.05305
G1 X138.978 Y107.885 E0.03793
G1 X138.675 Y109.095 E0.03912
G1 X138.263 Y110.266 E0.03894
G1 X137.482 Y111.867 E0.05583
G1 X136.772 Y112.974 E0.04124
G1 X135.934 Y114.035 E0.04240
G1 X135.047 Y114.964 E0.04026
G1 X134.048 Y115.833 E0.04152
G1 X132.959 Y116.616 E0.04206
G1 X131.352 Y117.521 E0.05781
G1 X130.156 Y118.031 E0.04079
G1 X128.846 Y118.449 E0.04311
G1 X127.552 Y118.732 E0.04155
G1 X126.232 Y118.900 E0.04169
G1 X124.930 Y118.950 E0.04087
G1 X123.604 Y118.884 E0.04163
G1 X122.288 Y118.701 E0.04164
G1 X120.997 Y118.403 E0.04155
G1 X119.706 Y117.975 E0.04265
G1 X118.551 Y117.470 E0.03951
G1 X117.015 Y116.594 E0.05545
G1 X115.970 Y115.842 E0.04038
G1 X115.007 Y115.008 E0.03993
G1 X114.153 Y114.126 E0.03849
G1 X113.352 Y113.134 E0.03998
G1 X112.656 Y112.089 E0.03938
G1 X111.966 Y110.775 E0.04652
G1 X111.394 Y109.300 E0.04960
G1 X111.003 Y107.774 E0.04941
G1 X110.854 Y106.829 E0.02998
G1 X110.758 Y105.252 E0.04956
G1 X110.817 Y104.021 E0.03865
G1 X110.999 Y102.767 E0.03972
G1 X111.288 Y101.573 E0.03852
G1 X111.869 Y99.964 E0.05364
G1 X112.424 Y98.830 E0.03956
G1 X113.059 Y97.785 E0.03837
G1 X113.724 Y96.885 E0.03507
; printing object C:/Users/mlp/AppData/Local/Temp/Neutron/Body1.stl id:0 copy 0
;WIPE_START
G1 F8640.000
G1 X114.644 Y95.842 E-0.32120
G1 X115.607 Y94.952 E-0.30272
G1 X116.076 Y94.594 E-0.13608
;WIPE_END
G1 E-0.04000 F2100.000
G1 Z0.600 F10800.000
G1 X116.354 Y99.043
G1 Z0.200
G1 E0.80000 F2100.000
;TYPE:External perimeter
G1 F1200.000
G1 X116.577 Y98.772 E0.01100
G1 X117.137 Y98.166 E0.02587
G1 X117.747 Y97.600 E0.02609
G1 X118.394 Y97.087 E0.02590
G1 X118.737 Y96.845 E0.01315
G1 X119.439 Y96.408 E0.02593
G1 X119.808 Y96.207 E0.01316
G1 X120.557 Y95.853 E0.02600
G1 X121.331 Y95.556 E0.02599
G1 X121.733 Y95.428 E0.01321
G1 X122.530 Y95.220 E0.02584
G1 X122.941 Y95.137 E0.01312
G1 X123.761 Y95.017 E0.02599
G1 X124.591 Y94.956 E0.02611
G1 X125.417 Y94.955 E0.02591
G1 X125.836 Y94.978 E0.01314
G1 X126.660 Y95.067 E0.02599
G1 X127.480 Y95.219 E0.02613
G1 X128.279 Y95.429 E0.02592
G1 X128.677 Y95.557 E0.01309
G1 X129.069 Y95.700 E0.01310
G1 X129.830 Y96.025 E0.02596
G1 X130.567 Y96.407 E0.02603
G1 X131.270 Y96.841 E0.02589
G1 X131.615 Y97.083 E0.01321
G1 X132.265 Y97.597 E0.02598
G1 X132.873 Y98.160 E0.02599
G1 X133.163 Y98.463 E0.01316
G1 X133.699 Y99.095 E0.02597
G1 X134.183 Y99.767 E0.02596
G1 X134.407 Y100.121 E0.01314
G1 X134.807 Y100.846 E0.02595
G1 X135.146 Y101.601 E0.02595
G1 X135.293 Y101.994 E0.01316
G1 X135.534 Y102.787 E0.02598
G1 X135.707 Y103.597 E0.02597
G1 X135.768 Y104.012 E0.01315
G1 X135.837 Y104.836 E0.02595
G1 X135.837 Y105.664 E0.02594
G1 X135.811 Y106.082 E0.01315
G1 X135.708 Y106.903 E0.02595
G1 X135.534 Y107.716 E0.02604
G1 X135.421 Y108.118 E0.01310
G1 X135.146 Y108.899 E0.02597
G1 X134.807 Y109.654 E0.02595
G1 X134.612 Y110.025 E0.01314
G1 X134.184 Y110.733 E0.02595
G1 X133.697 Y111.408 E0.02609
G1 X133.163 Y112.038 E0.02590
G1 X132.873 Y112.342 E0.01316
G1 X132.267 Y112.904 E0.02593
G1 X131.943 Y113.171 E0.01316
G1 X131.274 Y113.659 E0.02597
G1 X130.569 Y114.095 E0.02597
G1 X130.199 Y114.295 E0.01321
G1 X129.452 Y114.648 E0.02590
G1 X128.679 Y114.945 E0.02598
G1 X128.279 Y115.074 E0.01315
G1 X127.478 Y115.284 E0.02599
G1 X126.662 Y115.435 E0.02600
G1 X126.246 Y115.488 E0.01315
G1 X125.422 Y115.548 E0.02592
G1 X125.003 Y115.555 E0.01314
G1 X124.175 Y115.525 E0.02598
G1 X123.351 Y115.435 E0.02598
G1 X122.937 Y115.367 E0.01315
G1 X122.130 Y115.187 E0.02592
G1 X121.726 Y115.074 E0.01315
G1 X120.942 Y114.805 E0.02599
G1 X120.180 Y114.480 E0.02598
G1 X119.805 Y114.294 E0.01314
G1 X119.084 Y113.885 E0.02598
G1 X118.397 Y113.422 E0.02596
G1 X118.063 Y113.169 E0.01315
G1 X117.434 Y112.629 E0.02599
G1 X116.849 Y112.043 E0.02597
G1 X116.571 Y111.729 E0.01315
G1 X116.060 Y111.077 E0.02597
G1 X115.603 Y110.387 E0.02596
G1 X115.393 Y110.023 E0.01316
G1 X115.024 Y109.282 E0.02597
G1 X114.718 Y108.512 E0.02596
G1 X114.587 Y108.114 E0.01315
G1 X114.379 Y107.312 E0.02596
G1 X114.239 Y106.496 E0.02597
G1 X114.195 Y106.080 E0.01312
G1 X114.152 Y105.251 E0.02601
G1 X114.196 Y104.423 E0.02601
G1 X114.240 Y104.007 E0.01312
G1 X114.380 Y103.193 E0.02587
G1 X114.477 Y102.785 E0.01316
G1 X114.718 Y101.993 E0.02595
G1 X115.024 Y101.221 E0.02603
G1 X115.394 Y100.477 E0.02605
G1 X115.824 Y99.767 E0.02603
G1 X116.316 Y99.089 E0.02626
G1 X116.220 Y98.719 F10800.000
;WIPE_START
G1 F8640.000
G1 X116.577 Y98.772 E-0.09487
G1 X117.137 Y98.166 E-0.19053
G1 X117.747 Y97.600 E-0.19212
G1 X118.394 Y97.087 E-0.19076
G1 X118.719 Y96.858 E-0.09172
;WIPE_END
G1 E-0.04000 F2100.000
G1 Z0.600 F10800.000
G1 X125.630 Y94.150
G1 Z0.200
G1 E0.80000 F2100.000
G1 F1200.000
G1 X125.623 Y94.247 E0.00306
G1 X126.219 Y94.294 E0.01875
G1 X126.794 Y94.368 E0.01817
G1 X127.061 Y94.518 E0.00961
G1 X127.374 Y94.633 E0.01044
G1 X128.562 Y94.979 E0.03882
G1 X129.134 Y95.173 E0.01892
G1 X129.693 Y95.396 E0.01888
G1 X130.201 Y95.628 E0.01750
G1 X130.693 Y95.882 E0.01738
G1 X131.175 Y96.162 E0.01747
G1 X131.642 Y96.465 E0.01746
G1 X132.421 Y97.052 E0.03058
G1 X133.143 Y97.702 E0.03044
G1 X133.802 Y98.409 E0.03032
G1 X134.401 Y99.177 E0.03053
G1 X134.672 Y99.575 E0.01511
G1 X135.165 Y100.416 E0.03057
G1 X135.578 Y101.292 E0.03036
G1 X135.908 Y102.201 E0.03033
G1 X136.131 Y103.049 E0.02747
G1 X136.205 Y103.426 E0.01205
G1 X136.311 Y104.200 E0.02450
G1 X136.342 Y104.583 E0.01205
G1 X136.361 Y105.357 E0.02427
G1 X136.307 Y106.299 E0.02960
G1 X136.236 Y106.850 E0.01741
G1 X136.136 Y107.398 E0.01746
G1 X136.007 Y107.940 E0.01746
G1 X135.850 Y108.473 E0.01745
G1 X135.664 Y108.998 E0.01744
G1 X135.451 Y109.512 E0.01744
G1 X135.210 Y110.013 E0.01745
G1 X134.963 Y110.466 E0.01617
G1 X134.693 Y110.906 E0.01617
G1 X134.402 Y111.332 E0.01618
G1 X133.759 Y112.143 E0.03245
G1 X133.040 Y112.894 E0.03261
G1 X132.258 Y113.573 E0.03248
G1 X131.419 Y114.179 E0.03244
G1 X130.528 Y114.707 E0.03248
G1 X129.590 Y115.155 E0.03261
G1 X128.610 Y115.516 E0.03273
G1 X127.577 Y115.790 E0.03350
G1 X126.522 Y115.972 E0.03357
G1 X125.996 Y116.027 E0.01658
G1 X124.933 Y116.067 E0.03336
G1 X123.872 Y116.014 E0.03332
G1 X122.814 Y115.867 E0.03348
G1 X121.771 Y115.626 E0.03355
G1 X120.766 Y115.295 E0.03318
G1 X119.854 Y114.898 E0.03119
G1 X118.980 Y114.424 E0.03115
G1 X118.150 Y113.877 E0.03120
G1 X117.758 Y113.580 E0.01542
G1 X117.005 Y112.929 E0.03120
G1 X116.311 Y112.214 E0.03125
G1 X115.687 Y111.443 E0.03109
G1 X115.136 Y110.619 E0.03109
G1 X114.893 Y110.192 E0.01541
G1 X114.605 Y109.615 E0.02020
G1 X114.353 Y109.023 E0.02016
G1 X114.139 Y108.419 E0.02011
G1 X113.962 Y107.800 E0.02017
G1 X113.822 Y107.171 E0.02020
G1 X113.722 Y106.537 E0.02014
G1 X113.661 Y105.898 E0.02014
G1 X113.641 Y105.253 E0.02022
G1 X113.666 Y104.540 E0.02237
G1 X113.741 Y103.835 E0.02224
G1 X113.867 Y103.129 E0.02247
G1 X114.040 Y102.436 E0.02239
G1 X114.220 Y101.863 E0.01883
G1 X114.432 Y101.304 E0.01873
G1 X114.675 Y100.757 E0.01878
G1 X114.948 Y100.222 E0.01885
G1 X115.252 Y99.702 E0.01888
G1 X115.585 Y99.200 E0.01888
G1 X115.944 Y98.719 E0.01883
G1 X116.329 Y98.260 E0.01876
G1 X116.688 Y97.875 E0.01650
G1 X117.065 Y97.508 E0.01651
G1 X117.461 Y97.160 E0.01652
G1 X117.871 Y96.831 E0.01649
G1 X118.744 Y96.227 E0.03326
G1 X119.663 Y95.707 E0.03312
G1 X120.621 Y95.273 E0.03297
G1 X121.620 Y94.925 E0.03317
G1 X122.648 Y94.666 E0.03325
G1 X123.693 Y94.501 E0.03317
G1 X125.071 Y94.403 E0.04333
G1 X125.069 Y94.385 E0.00057
G1 X125.575 Y94.173 E0.01720
G1 X125.590 Y94.238 F10800.000
G1 X125.084 Y94.075
G1 F1200.000
G1 X125.048 Y94.252 E0.00568
G1 X124.995 Y93.905 E0.01102
G1 X125.005 Y93.859 E0.00150
G1 X125.114 Y93.922 E0.00395
G1 X125.096 Y94.016 E0.00300
G1 X124.925 Y94.163 F10800.000
G1 X125.824 Y93.744
G1 F1200.000
G1 X125.923 Y93.690 E0.00352
G1 X125.997 Y93.678 E0.00236
G1 X126.130 Y93.707 E0.00425
G1 X126.218 Y93.775 E0.00349
G1 X125.884 Y93.749 E0.01050
G1 X125.929 Y93.703 F10800.000
G1 X125.492 Y94.598
;TYPE:Gap fill
;WIDTH:0.377891
G1 F1200.000
G1 X125.869 Y94.623 E0.01053
;WIDTH:0.387399
G1 X126.680 Y94.712 E0.02335
;WIDTH:0.286103
G1 X127.111 Y94.851 E0.00917
;WIDTH:0.166819
G1 X128.353 Y95.184 E0.01324
G1 X129.044 Y95.416 E0.00751
G1 X129.938 Y95.791 E0.00999
G1 X130.697 Y96.184 E0.00880
G1 X131.493 Y96.679 E0.00965
G1 X132.255 Y97.254 E0.00984
G1 X132.960 Y97.887 E0.00977
G1 X133.603 Y98.579 E0.00973
G1 X134.190 Y99.330 E0.00983
G1 X134.625 Y99.994 E0.00818
G1 X135.035 Y100.735 E0.00872
G1 X135.337 Y101.392 E0.00745
G1 X135.534 Y101.914 E0.00575
G1 X135.781 Y102.720 E0.00868
G1 X135.962 Y103.553 E0.00878
G1 X136.080 Y104.597 E0.01082
G1 X136.090 Y105.674 E0.01110
G1 X136.048 Y106.275 E0.00621
G1 X135.980 Y106.810 E0.00556
G1 X135.783 Y107.775 E0.01014
G1 X135.601 Y108.393 E0.00664
G1 X135.387 Y108.992 E0.00656
G1 X135.210 Y109.404 E0.00462
G1 X134.839 Y110.151 E0.00859
G1 X134.398 Y110.878 E0.00876
G1 X133.888 Y111.584 E0.00897
G1 X133.564 Y111.969 E0.00518
G1 X133.048 Y112.522 E0.00780
G1 X132.433 Y113.091 E0.00863
G1 X132.099 Y113.373 E0.00450
G1 X131.413 Y113.871 E0.00873
G1 X130.406 Y114.478 E0.01212
G1 X129.556 Y114.885 E0.00971
G1 X128.534 Y115.266 E0.01124
G1 X127.536 Y115.535 E0.01065
G1 X126.487 Y115.717 E0.01097
G1 X125.978 Y115.768 E0.00527
G1 X124.935 Y115.810 E0.01076
G1 X123.896 Y115.755 E0.01071
G1 X122.861 Y115.613 E0.01077
G1 X121.838 Y115.375 E0.01081
G1 X120.862 Y115.053 E0.01059
G1 X119.968 Y114.664 E0.01004
G1 X119.114 Y114.201 E0.01000
G1 X118.298 Y113.666 E0.01005
G1 X117.904 Y113.369 E0.00509
G1 X117.263 Y112.817 E0.00871
G1 X116.663 Y112.214 E0.00876
G1 X116.377 Y111.893 E0.00444
G1 X115.896 Y111.289 E0.00795
G1 X115.384 Y110.525 E0.00948
G1 X115.123 Y110.068 E0.00541
G1 X114.843 Y109.505 E0.00648
G1 X114.599 Y108.928 E0.00646
G1 X114.341 Y108.188 E0.00807
G1 X114.129 Y107.369 E0.00872
G1 X113.979 Y106.504 E0.00904
G1 X113.923 Y105.881 E0.00645
G1 X113.896 Y105.253 E0.00647
G1 X113.938 Y104.404 E0.00876
G1 X113.999 Y103.874 E0.00550
G1 X114.129 Y103.140 E0.00767
G1 X114.290 Y102.506 E0.00673
G1 X114.463 Y101.947 E0.00603
G1 X114.791 Y101.120 E0.00916
G1 X115.174 Y100.345 E0.00891
G1 X115.612 Y99.623 E0.00870
G1 X116.149 Y98.881 E0.00944
G1 X116.876 Y98.060 E0.01130
G1 X117.629 Y97.360 E0.01059
G1 X118.028 Y97.042 E0.00526
G1 X118.596 Y96.636 E0.00719
G1 X119.315 Y96.191 E0.00870
G1 X119.779 Y95.936 E0.00546
G1 X120.457 Y95.623 E0.00769
G1 X121.250 Y95.319 E0.00875
;WIDTH:0.176784
G1 X121.694 Y95.172 E0.00520
G1 X122.475 Y94.972 E0.00897
G1 X122.898 Y94.885 E0.00481
;WIDTH:0.184224
G1 X123.723 Y94.760 E0.00980
G1 X124.584 Y94.697 E0.01015
;WIDTH:0.234107
G1 X125.296 Y94.671 E0.01132
;WIDTH:0.280389
G1 X125.359 Y94.648 E0.00133
;WIDTH:0.326671
G1 X125.422 Y94.625 E0.00159
;WIDTH:0.338309
G1 X125.430 Y94.619 E0.00024
;WIDTH:0.367272
G1 X125.436 Y94.615 E0.00019
; stop printing object C:/Users/mlp/AppData/Local/Temp/Neutron/Body1.stl id:0 copy 0
M106 S84.15
;LAYER_CHANGE
;Z:0.3
;HEIGHT:0.1
;BEFORE_LAYER_CHANGE
G92 E0.0
;0.3


;WIPE_START
G1 F8640.000
G1 X125.869 Y94.623 E-0.10015
;WIPE_END
G1 E-0.69985 F2100.000
G1 Z0.600 F10800.000
;AFTER_LAYER_CHANGE
;0.3
M104 S210 ; set temperature
G1 X126.874 Y90.832
G1 Z0.300
G1 E0.80000 F2100.000
;TYPE:Skirt
;WIDTH:0.42
G1 F2018
G1 X131.140 Y92.470 E0.07572
G1 X132.649 Y93.246 E0.02811
G1 X133.473 Y93.767 E0.01616
G1 X134.493 Y94.534 E0.02114
G1 X135.420 Y95.369 E0.02068
G1 X136.284 Y96.296 E0.02099
G1 X137.087 Y97.330 E0.02169
G1 X138.021 Y98.843 E0.02945
G1 X138.569 Y99.995 E0.02114
G1 X139.020 Y101.231 E0.02180
G1 X139.338 Y102.458 E0.02101
G1 X139.537 Y103.706 E0.02094
G1 X139.620 Y105.000 E0.02148
G1 X139.540 Y106.724 E0.02860
G1 X139.349 Y107.957 E0.02068
G1 X139.037 Y109.204 E0.02129
G1 X138.610 Y110.413 E0.02126
G1 X137.813 Y112.048 E0.03014
G1 X137.083 Y113.187 E0.02241
