; generated by PrusaSlicer 2.3.3+win64 on 2022-01-24 at 14:32:42 UTC

; 

; external perimeters extrusion width = 0.45mm
; perimeters extrusion width = 0.45mm
; infill extrusion width = 0.45mm
; solid infill extrusion width = 0.45mm
; top infill extrusion width = 0.40mm
; first layer extrusion width = 0.42mm

M73 P0 R26
M73 Q0 S26
M201 X1000 Y1000 Z200 E5000 ; sets maximum accelerations, mm/sec^2
M203 X200 Y200 Z12 E120 ; sets maximum feedrates, mm/sec
M204 P1250 R1250 T1250 ; sets acceleration (P, T) and retract acceleration (R), mm/sec^2
M205 X8.00 Y8.00 Z0.40 E4.50 ; sets the jerk limits, mm/sec
M205 S0 T0 ; sets the minimum extruding and travel feed rate, mm/sec
M107
;TYPE:Custom
M862.3 P "MK3S" ; printer model check
M862.1 P0.4 ; nozzle diameter check
M115 U3.10.0 ; tell printer latest fw version
G90 ; use absolute coordinates
M83 ; extruder relative mode
M104 S215 ; set extruder temp
M140 S60 ; set bed temp
M190 S60 ; wait for bed temp
M109 S215 ; wait for extruder temp
G28 W ; home all without mesh bed level
G80 ; mesh bed leveling
G1 Y-3.0 F1000.0 ; go outside print area
G92 E0.0
G1 X60.0 E9.0 F1000.0 ; intro line
G1 X100.0 E12.5 F1000.0 ; intro line
G92 E0.0
M221 S95

; Don't change E values below. Excessive value can damage the printer.
M907 E430 ; set extruder motor current
G21 ; set units to millimeters
G90 ; use absolute coordinates
M83 ; use relative distances for extrusion
M900 K0.05 ; Filament gcode LA 1.5
M900 K30 ; Filament gcode LA 1.0
;LAYER_CHANGE
;Z:0.2
;HEIGHT:0.2
;BEFORE_LAYER_CHANGE
G92 E0.0
;0.2


G1 E-0.80000 F2100.000
G1 Z0.400 F10800.000
;AFTER_LAYER_CHANGE
;0.2
G1 X113.178 Y95.726
G1 Z0.200
G1 E0.80000 F2100.000
M204 S1000
;TYPE:Skirt
;WIDTH:0.42
G1 F1200.000
G1 X114.330 Y94.451 E0.05388
G1 X115.118 Y93.725 E0.03360
G1 X116.529 Y92.651 E0.05560
G1 X117.394 Y92.111 E0.03198
G1 X118.934 Y91.332 E0.05410
G1 X120.673 Y90.698 E0.05804
G1 X124.062 Y89.707 E0.11070
G1 X125.068 Y89.571 E0.03182
G1 X126.339 Y89.627 E0.03989
G1 X126.900 Y89.736 E0.01794
G1 X131.318 Y91.444 E0.14850
G1 X132.858 Y92.259 E0.05465
G1 X133.711 Y92.814 E0.03188
G1 X135.099 Y93.913 E0.05553
G1 X135.864 Y94.642 E0.03311
G1 X137.000 Y95.948 E0.05429
G1 X137.598 Y96.774 E0.03196
G1 X138.500 Y98.301 E0.05561
G1 X138.961 Y99.281 E0.03398
G1 X139.565 Y100.956 E0.05581
G1 X139.966 Y102.684 E0.05561
G1 X140.111 Y103.758 E0.03398
G1 X140.183 Y105.472 E0.05380
G1 X140.129 Y106.548 E0.03378
G1 X139.875 Y108.306 E0.05569
G1 X139.635 Y109.297 E0.03198
G1 X139.064 Y110.978 E0.05567
G1 X138.301 Y112.576 E0.05551
G1 X137.777 Y113.457 E0.03214
G1 X136.733 Y114.889 E0.05557
G1 X136.016 Y115.702 E0.03398
G1 X134.720 Y116.918 E0.05573
G1 X133.290 Y117.972 E0.05568
G1 X132.364 Y118.530 E0.03390
G1 X130.816 Y119.277 E0.05389
G1 X129.809 Y119.653 E0.03372
G1 X128.090 Y120.118 E0.05581
G1 X126.327 Y120.377 E0.05587
G1 X125.282 Y120.433 E0.03282
G1 X123.536 Y120.364 E0.05479
G1 X122.463 Y120.221 E0.03393
G1 X120.728 Y119.822 E0.05582
G1 X119.056 Y119.222 E0.05569
G1 X118.073 Y118.762 E0.03403
G1 X116.544 Y117.862 E0.05564
G1 X115.717 Y117.265 E0.03198
G1 X114.376 Y116.099 E0.05573
G1 X113.186 Y114.788 E0.05551
G1 X112.570 Y113.970 E0.03210
G1 X111.639 Y112.461 E0.05561
G1 X111.157 Y111.485 E0.03411
G1 X110.522 Y109.825 E0.05573
G1 X110.088 Y108.104 E0.05564
G1 X109.922 Y107.031 E0.03407
G1 X109.817 Y105.270 E0.05531
G1 X109.852 Y104.238 E0.03237
G1 X110.073 Y102.473 E0.05576
G1 X110.501 Y100.748 E0.05573
G1 X110.858 Y99.728 E0.03389
G1 X111.601 Y98.110 E0.05582
G1 X112.527 Y96.595 E0.05568
G1 X113.142 Y95.774 E0.03215
G1 X113.443 Y95.999 F10800.000
G1 F1200.000
G1 X114.598 Y94.715 E0.05415
G1 X115.359 Y94.015 E0.03244
G1 X116.741 Y92.962 E0.05446
G1 X117.575 Y92.442 E0.03081
G1 X119.088 Y91.676 E0.05318
G1 X120.788 Y91.057 E0.05673
G1 X124.163 Y90.071 E0.11024
G1 X125.067 Y89.948 E0.02861
G1 X126.299 Y90.003 E0.03865
G1 X126.790 Y90.096 E0.01567
G1 X131.158 Y91.785 E0.14683
G1 X132.671 Y92.587 E0.05370
G1 X133.496 Y93.123 E0.03085
G1 X134.855 Y94.201 E0.05439
G1 X135.591 Y94.902 E0.03187
G1 X136.708 Y96.186 E0.05336
G1 X137.286 Y96.985 E0.03092
G1 X138.169 Y98.481 E0.05448
G1 X138.613 Y99.425 E0.03269
G1 X139.203 Y101.061 E0.05452
G1 X139.596 Y102.757 E0.05460
G1 X139.735 Y103.786 E0.03255
G1 X139.806 Y105.475 E0.05303
G1 X139.754 Y106.510 E0.03248
G1 X139.505 Y108.232 E0.05454
G1 X139.274 Y109.188 E0.03083
G1 X138.715 Y110.834 E0.05452
G1 X137.966 Y112.402 E0.05449
G1 X137.461 Y113.251 E0.03097
G1 X136.436 Y114.657 E0.05455
G1 X135.749 Y115.435 E0.03255
G1 X134.477 Y116.629 E0.05471
G1 X133.077 Y117.661 E0.05454
G1 X132.186 Y118.198 E0.03260
G1 X130.667 Y118.931 E0.05287
G1 X129.695 Y119.294 E0.03255
G1 X128.016 Y119.748 E0.05454
G1 X126.289 Y120.001 E0.05471
G1 X125.279 Y120.056 E0.03172
G1 X123.567 Y119.988 E0.05371
G1 X122.536 Y119.851 E0.03263
G1 X120.836 Y119.461 E0.05466
G1 X119.195 Y118.872 E0.05466
G1 X118.254 Y118.431 E0.03260
G1 X116.752 Y117.548 E0.05461
G1 X115.955 Y116.973 E0.03083
G1 X114.641 Y115.831 E0.05457
M73 Q1 S26
G1 X113.474 Y114.543 E0.05449
G1 X112.880 Y113.756 E0.03092
G1 X111.966 Y112.274 E0.05460
G1 X111.504 Y111.339 E0.03269
G1 X110.882 Y109.714 E0.05457
M73 P1 R26
G1 X110.457 Y108.025 E0.05461
G1 X110.298 Y106.996 E0.03264
G1 X110.194 Y105.267 E0.05431
G1 X110.227 Y104.273 E0.03119
G1 X110.444 Y102.545 E0.05460
G1 X110.864 Y100.851 E0.05471
G1 X111.207 Y99.870 E0.03259
G1 X111.935 Y98.286 E0.05466
G1 X112.843 Y96.802 E0.05454
G1 X113.407 Y96.047 E0.02955
; printing object C:/Users/mlp/AppData/Local/Temp/Neutron/Body1.stl id:0 copy 0
;WIPE_START
G1 F8640.000
G1 X114.598 Y94.715 E-0.41257
G1 X115.359 Y94.015 E-0.23890
G1 X115.733 Y93.730 E-0.10853
;WIPE_END
G1 E-0.04000 F2100.000
G1 Z0.600 F10800.000
G1 X116.033 Y98.198
G1 Z0.200
G1 E0.80000 F2100.000
;TYPE:External perimeter
G1 F1200.000
G1 X116.397 Y97.754 E0.01801
G1 X116.870 Y97.243 E0.02183
G1 X117.373 Y96.762 E0.02183
G1 X117.905 Y96.313 E0.02183
G1 X118.463 Y95.897 E0.02183
G1 X119.045 Y95.516 E0.02183
G1 X119.650 Y95.171 E0.02183
G1 X120.274 Y94.863 E0.02183
G1 X120.917 Y94.594 E0.02183
G1 X121.405 Y94.424 E0.01622
G1 X122.243 Y94.177 E0.02738
G1 X122.924 Y94.029 E0.02187
G1 X123.612 Y93.923 E0.02183
G1 X124.305 Y93.860 E0.02183
G1 X124.822 Y93.844 E0.01622
G1 X125.696 Y93.860 E0.02738
G1 X126.390 Y93.923 E0.02187
G1 X127.078 Y94.029 E0.02183
G1 X127.758 Y94.177 E0.02183
G1 X128.256 Y94.317 E0.01622
G1 X129.085 Y94.594 E0.02738
G1 X129.728 Y94.863 E0.02187
G1 X130.352 Y95.171 E0.02183
G1 X130.957 Y95.516 E0.02183
G1 X131.539 Y95.897 E0.02183
G1 X132.097 Y96.313 E0.02183
G1 X132.629 Y96.762 E0.02183
G1 X133.133 Y97.243 E0.02183
G1 X133.606 Y97.754 E0.02183
G1 X134.047 Y98.292 E0.02183
G1 X134.454 Y98.857 E0.02183
G1 X134.826 Y99.445 E0.02183
G1 X135.162 Y100.055 E0.02183
G1 X135.460 Y100.684 E0.02183
G1 X135.719 Y101.330 E0.02183
G1 X135.938 Y101.990 E0.02183
G1 X136.117 Y102.663 E0.02183
G1 X136.254 Y103.346 E0.02183
G1 X136.349 Y104.035 E0.02183
G1 X136.402 Y104.729 E0.02183
G1 X136.413 Y105.425 E0.02183
G1 X136.381 Y106.121 E0.02183
G1 X136.307 Y106.813 E0.02183
G1 X136.190 Y107.499 E0.02183
G1 X136.033 Y108.177 E0.02183
G1 X135.834 Y108.844 E0.02183
G1 X135.656 Y109.330 E0.01622
G1 X135.317 Y110.135 E0.02738
G1 X134.999 Y110.756 E0.02187
G1 X134.645 Y111.355 E0.02183
G1 X134.255 Y111.931 E0.02183
G1 X133.939 Y112.341 E0.01622
G1 X133.374 Y113.007 E0.02738
G1 X132.885 Y113.504 E0.02187
G1 X132.368 Y113.969 E0.02179
G1 X131.822 Y114.402 E0.02186
G1 X131.251 Y114.801 E0.02183
G1 X130.657 Y115.164 E0.02183
G1 X130.042 Y115.490 E0.02183
G1 X129.410 Y115.778 E0.02179
G1 X128.759 Y116.028 E0.02186
G1 X128.095 Y116.237 E0.02183
G1 X127.419 Y116.405 E0.02183
G1 X126.735 Y116.532 E0.02183
G1 X126.044 Y116.616 E0.02183
G1 X125.349 Y116.659 E0.02183
G1 X124.653 Y116.659 E0.02183
G1 X123.958 Y116.616 E0.02183
G1 X123.267 Y116.532 E0.02183
G1 X122.583 Y116.405 E0.02183
G1 X121.907 Y116.237 E0.02183
G1 X121.243 Y116.028 E0.02183
G1 X120.593 Y115.779 E0.02183
G1 X119.960 Y115.490 E0.02183
G1 X119.345 Y115.164 E0.02183
G1 X118.751 Y114.801 E0.02183
G1 X118.181 Y114.402 E0.02183
G1 X117.635 Y113.969 E0.02186
G1 X117.118 Y113.504 E0.02179
G1 X116.629 Y113.008 E0.02183
G1 X116.172 Y112.483 E0.02183
G1 X115.748 Y111.931 E0.02183
G1 X115.358 Y111.355 E0.02183
G1 X115.003 Y110.756 E0.02183
G1 X114.686 Y110.136 E0.02183
G1 X114.406 Y109.495 E0.02194
G1 X114.169 Y108.844 E0.02171
G1 X113.970 Y108.177 E0.02182
G1 X113.852 Y107.673 E0.01622
G1 X113.696 Y106.814 E0.02738
G1 X113.621 Y106.121 E0.02187
G1 X113.590 Y105.425 E0.02183
G1 X113.600 Y104.729 E0.02183
G1 X113.640 Y104.214 E0.01622
G1 X113.748 Y103.347 E0.02738
G1 X113.886 Y102.663 E0.02187
G1 X114.064 Y101.990 E0.02183
G1 X114.283 Y101.330 E0.02183
G1 X114.542 Y100.684 E0.02183
G1 X114.840 Y100.055 E0.02183
G1 X115.176 Y99.445 E0.02183
G1 X115.548 Y98.857 E0.02183
G1 X115.995 Y98.244 E0.02376
G1 X115.881 Y97.828 F10800.000
;WIPE_START
G1 F8640.000
G1 X116.397 Y97.754 E-0.14647
G1 X116.870 Y97.243 E-0.16073
G1 X117.373 Y96.762 E-0.16073
G1 X117.905 Y96.313 E-0.16073
G1 X118.361 Y95.973 E-0.13134
;WIPE_END
G1 E-0.04000 F2100.000
G1 Z0.600 F10800.000
G1 X124.863 Y93.468
G1 Z0.200
G1 E0.80000 F2100.000
;TYPE:Perimeter
G1 F1200.000
G1 X124.886 Y93.452 E0.00089
G1 X125.030 Y93.471 E0.00456
G1 X124.923 Y93.469 E0.00338
G1 X124.974 Y93.083 F10800.000
;TYPE:External perimeter
G1 F1200.000
G1 X124.992 Y92.815 E0.00840
G1 X125.056 Y92.817 E0.00200
G1 X125.280 Y93.128 E0.01205
G1 X126.096 Y93.176 E0.02561
G1 X126.501 Y93.226 E0.01282
G1 X126.798 Y93.291 E0.00952
G1 X127.142 Y93.466 E0.01210
G1 X128.230 Y93.773 E0.03544
G1 X128.927 Y93.992 E0.02292
G1 X129.606 Y94.252 E0.02280
G1 X130.268 Y94.554 E0.02280
G1 X130.911 Y94.895 E0.02280
G1 X131.531 Y95.274 E0.02280
G1 X132.127 Y95.691 E0.02280
G1 X132.697 Y96.143 E0.02280
G1 X133.238 Y96.629 E0.02280
G1 X133.748 Y97.147 E0.02280
G1 X134.226 Y97.696 E0.02280
G1 X134.680 Y98.288 E0.02342
G1 X135.077 Y98.874 E0.02219
G1 X135.447 Y99.501 E0.02280
G1 X135.778 Y100.148 E0.02280
G1 X136.069 Y100.815 E0.02280
G1 X136.319 Y101.498 E0.02280
G1 X136.527 Y102.194 E0.02280
G1 X136.692 Y102.903 E0.02280
G1 X136.813 Y103.620 E0.02280
G1 X136.891 Y104.343 E0.02280
G1 X136.924 Y105.070 E0.02280
G1 X136.913 Y105.797 E0.02280
G1 X136.857 Y106.522 E0.02280
G1 X136.758 Y107.242 E0.02280
G1 X136.615 Y107.955 E0.02280
G1 X136.428 Y108.658 E0.02280
G1 X136.199 Y109.349 E0.02280
G1 X135.929 Y110.023 E0.02280
G1 X135.608 Y110.698 E0.02342
G1 X135.266 Y111.318 E0.02219
G1 X134.878 Y111.933 E0.02280
G1 X134.452 Y112.522 E0.02280
G1 X133.991 Y113.085 E0.02280
G1 X133.497 Y113.618 E0.02280
G1 X132.971 Y114.121 E0.02280
G1 X132.415 Y114.590 E0.02280
G1 X131.832 Y115.025 E0.02280
G1 X131.224 Y115.423 E0.02280
G1 X130.592 Y115.783 E0.02280
G1 X129.940 Y116.105 E0.02280
G1 X129.250 Y116.392 E0.02342
G1 X128.582 Y116.625 E0.02219
G1 X127.882 Y116.822 E0.02280
G1 X127.171 Y116.976 E0.02280
G1 X126.452 Y117.087 E0.02280
G1 X125.728 Y117.153 E0.02280
G1 X125.001 Y117.175 E0.02280
G1 X124.274 Y117.153 E0.02280
G1 X123.531 Y117.084 E0.02342
G1 X122.831 Y116.976 E0.02219
G1 X122.120 Y116.822 E0.02280
G1 X121.420 Y116.625 E0.02280
G1 X120.734 Y116.386 E0.02280
G1 X120.063 Y116.105 E0.02280
G1 X119.410 Y115.783 E0.02280
G1 X118.779 Y115.423 E0.02280
G1 X118.170 Y115.025 E0.02280
G1 X117.587 Y114.590 E0.02280
G1 X117.031 Y114.121 E0.02280
G1 X116.506 Y113.618 E0.02280
G1 X116.011 Y113.085 E0.02280
G1 X115.539 Y112.506 E0.02342
G1 X115.125 Y111.933 E0.02219
G1 X114.736 Y111.318 E0.02280
G1 X114.385 Y110.681 E0.02280
G1 X114.074 Y110.024 E0.02280
G1 X113.797 Y109.330 E0.02342
G1 X113.574 Y108.658 E0.02219
G1 X113.388 Y107.955 E0.02280
G1 X113.245 Y107.242 E0.02280
G1 X113.145 Y106.522 E0.02280
G1 X113.090 Y105.797 E0.02280
G1 X113.079 Y105.070 E0.02280
G1 X113.112 Y104.343 E0.02280
G1 X113.189 Y103.620 E0.02280
G1 X113.311 Y102.903 E0.02280
G1 X113.476 Y102.194 E0.02280
G1 X113.683 Y101.498 E0.02280
G1 X113.933 Y100.815 E0.02280
G1 X114.224 Y100.148 E0.02280
G1 X114.556 Y99.501 E0.02280
G1 X114.926 Y98.874 E0.02280
G1 X115.333 Y98.272 E0.02280
G1 X115.777 Y97.696 E0.02280
G1 X116.254 Y97.147 E0.02280
G1 X116.765 Y96.629 E0.02280
G1 X117.306 Y96.143 E0.02280
G1 X117.875 Y95.691 E0.02280
G1 X118.471 Y95.274 E0.02280
G1 X119.092 Y94.895 E0.02280
G1 X119.734 Y94.554 E0.02280
G1 X120.396 Y94.252 E0.02280
G1 X121.075 Y93.992 E0.02280
G1 X121.769 Y93.774 E0.02280
G1 X122.475 Y93.598 E0.02280
G1 X123.191 Y93.465 E0.02286
G1 X124.009 Y93.353 E0.02588
G1 X124.373 Y93.346 E0.01142
G1 X124.792 Y93.059 E0.01592
G1 X124.914 Y93.075 E0.00385
G1 X125.241 Y93.058 F10800.000
;WIPE_START
G1 F8640.000
G1 X124.992 Y92.815 E-0.06259
G1 X125.056 Y92.817 E-0.01472
G1 X125.280 Y93.128 E-0.08873
G1 X126.096 Y93.176 E-0.18857
G1 X126.501 Y93.226 E-0.09438
G1 X126.798 Y93.291 E-0.07009
G1 X127.142 Y93.466 E-0.08911
G1 X127.775 Y93.644 E-0.15182
;WIPE_END
G1 E-0.04000 F2100.000
G1 Z0.600 F10800.000
G1 X125.818 Y92.641
G1 Z0.200
G1 E0.80000 F2100.000
G1 F1200.000
G1 X125.921 Y92.585 E0.00366
G1 X125.991 Y92.573 E0.00223
G1 X126.124 Y92.601 E0.00427
G1 X126.210 Y92.666 E0.00339
G1 X125.878 Y92.645 E0.01044
G1 X125.927 Y92.598 F10800.000
G1 X125.721 Y93.508
;TYPE:Gap fill
;WIDTH:0.382637
G1 F1200.000
G1 X126.428 Y93.573 E0.02006
;WIDTH:0.279381
G1 X126.681 Y93.619 E0.00505
G1 X127.028 Y93.731 E0.00717
;WIDTH:0.171425
G1 X128.156 Y94.020 E0.01244
G1 X129.176 Y94.358 E0.01148
G1 X130.154 Y94.785 E0.01141
G1 X131.087 Y95.299 E0.01138
G1 X131.973 Y95.898 E0.01142
G1 X132.800 Y96.575 E0.01142
G1 X133.558 Y97.323 E0.01138
G1 X134.246 Y98.137 E0.01138
G1 X134.858 Y99.013 E0.01142
G1 X135.386 Y99.938 E0.01138
G1 X135.829 Y100.911 E0.01142
G1 X136.181 Y101.920 E0.01142
G1 X136.438 Y102.954 E0.01138
G1 X136.601 Y104.010 E0.01142
G1 X136.666 Y105.073 E0.01138
G1 X136.633 Y106.142 E0.01142
G1 X136.503 Y107.199 E0.01138
G1 X136.277 Y108.240 E0.01138
G1 X135.957 Y109.260 E0.01142
G1 X135.544 Y110.243 E0.01140
G1 X135.044 Y111.187 E0.01141
G1 X134.459 Y112.081 E0.01142
G1 X134.137 Y112.503 E0.00567
G1 X133.562 Y113.176 E0.00945
G1 X132.798 Y113.929 E0.01146
G1 X131.973 Y114.605 E0.01140
G1 X131.089 Y115.203 E0.01140
G1 X130.152 Y115.718 E0.01142
G1 X129.158 Y116.151 E0.01159
G1 X128.162 Y116.481 E0.01122
G1 X127.124 Y116.722 E0.01138
G1 X126.069 Y116.868 E0.01138
G1 X125.001 Y116.917 E0.01142
G1 X123.937 Y116.868 E0.01138
G1 X122.878 Y116.722 E0.01142
G1 X121.837 Y116.480 E0.01142
G1 X120.826 Y116.144 E0.01138
G1 X119.850 Y115.718 E0.01138
G1 X118.913 Y115.203 E0.01142
G1 X118.028 Y114.604 E0.01142
G1 X117.204 Y113.929 E0.01138
G1 X116.443 Y113.178 E0.01142
G1 X115.744 Y112.349 E0.01159
G1 X115.143 Y111.488 E0.01122
G1 X114.615 Y110.563 E0.01138
G1 X114.173 Y109.590 E0.01142
G1 X113.822 Y108.584 E0.01138
G1 X113.639 Y107.897 E0.00760
G1 X113.501 Y107.199 E0.00760
G1 X113.370 Y106.142 E0.01138
G1 X113.337 Y105.073 E0.01142
G1 X113.386 Y104.186 E0.00949
G1 X113.447 Y103.655 E0.00571
G1 X113.564 Y102.954 E0.00760
G1 X113.821 Y101.920 E0.01138
G1 X114.173 Y100.911 E0.01142
G1 X114.614 Y99.941 E0.01138
G1 X115.144 Y99.013 E0.01142
G1 X115.754 Y98.140 E0.01138
G1 X116.444 Y97.323 E0.01142
G1 X117.206 Y96.573 E0.01142
G1 X118.030 Y95.898 E0.01138
G1 X118.915 Y95.299 E0.01142
G1 X119.848 Y94.785 E0.01138
G1 X120.828 Y94.358 E0.01142
G1 X121.839 Y94.024 E0.01138
G1 X122.880 Y93.780 E0.01142
;WIDTH:0.178524
G1 X123.583 Y93.669 E0.00802
G1 X124.030 Y93.618 E0.00507
G1 X124.434 Y93.600 E0.00457
;WIDTH:0.188396
G1 X124.692 Y93.555 E0.00317
G1 X124.666 Y93.467 F10800.000
;WIDTH:0.371459
G1 F1200.000
G1 X125.721 Y93.508 E0.02885
; stop printing object C:/Users/mlp/AppData/Local/Temp/Neutron/Body1.stl id:0 copy 0
M106 S84.15
;LAYER_CHANGE
;Z:0.3
;HEIGHT:0.1
;BEFORE_LAYER_CHANGE
G92 E0.0
;0.3


;WIPE_START
G1 F8640.000
G1 X124.666 Y93.467 E-0.24382
;WIPE_END
G1 E-0.55618 F2100.000
G1 Z0.600 F10800.000
;AFTER_LAYER_CHANGE
;0.3
M104 S210 ; set temperature
G1 X125.068 Y89.571
G1 Z0.300
G1 E0.80000 F2100.000
;TYPE:Skirt
;WIDTH:0.42
G1 F2250
G1 X126.339 Y89.627 E0.02108
