; generated by PrusaSlicer 2.3.3+win64 on 2022-01-27 at 18:25:44 UTC

; 

; external perimeters extrusion width = 0.45mm
; perimeters extrusion width = 0.45mm
; infill extrusion width = 0.45mm
; solid infill extrusion width = 0.45mm
; top infill extrusion width = 0.40mm
; first layer extrusion width = 0.42mm

M73 P0 R27
M73 Q0 S27
M201 X1000 Y1000 Z200 E5000 ; sets maximum accelerations, mm/sec^2
M203 X200 Y200 Z12 E120 ; sets maximum feedrates, mm/sec
M204 P1250 R1250 T1250 ; sets acceleration (P, T) and retract acceleration (R), mm/sec^2
M205 X8.00 Y8.00 Z0.40 E4.50 ; sets the jerk limits, mm/sec
M205 S0 T0 ; sets the minimum extruding and travel feed rate, mm/sec
M107
;TYPE:Custom
M862.3 P "MK3S" ; printer model check
M862.1 P0.4 ; nozzle diameter check
M115 U3.10.0 ; tell printer latest fw version
G90 ; use absolute coordinates
M83 ; extruder relative mode
M104 S215 ; set extruder temp
M140 S65 ; set bed temp
M190 S65 ; wait for bed temp
M109 S215 ; wait for extruder temp
G28 W ; home all without mesh bed level
G80 ; mesh bed leveling
G1 Y-3.0 F1000.0 ; go outside print area
G92 E0.0
G1 X60.0 E9.0 F1000.0 ; intro line
G1 X100.0 E12.5 F1000.0 ; intro line
G92 E0.0
M221 S95

; Don't change E values below. Excessive value can damage the printer.
M907 E430 ; set extruder motor current
G21 ; set units to millimeters
G90 ; use absolute coordinates
M83 ; use relative distances for extrusion
M900 K0.05 ; Filament gcode LA 1.5
M900 K30 ; Filament gcode LA 1.0
;LAYER_CHANGE
;Z:0.2
;HEIGHT:0.2
;BEFORE_LAYER_CHANGE
G92 E0.0
;0.2


G1 E-0.80000 F2100.000
G1 Z0.400 F10800.000
;AFTER_LAYER_CHANGE
;0.2
G1 X113.177 Y95.725
G1 Z0.200
G1 E0.80000 F2100.000
M204 S1000
;TYPE:Skirt
;WIDTH:0.42
G1 F1200.000
G1 X114.330 Y94.449 E0.05389
G1 X115.119 Y93.723 E0.03364
G1 X116.529 Y92.649 E0.05556
G1 X117.394 Y92.110 E0.03197
G1 X118.935 Y91.331 E0.05415
G1 X120.673 Y90.697 E0.05800
G1 X124.062 Y89.706 E0.11070
G1 X125.067 Y89.570 E0.03182
G1 X126.345 Y89.627 E0.04010
G1 X126.892 Y89.732 E0.01745
G1 X131.318 Y91.443 E0.14878
G1 X132.858 Y92.258 E0.05465
G1 X133.710 Y92.812 E0.03184
G1 X135.099 Y93.912 E0.05556
G1 X135.864 Y94.641 E0.03312
G1 X137.000 Y95.947 E0.05428
G1 X137.598 Y96.773 E0.03197
G1 X138.499 Y98.298 E0.05556
G1 X138.961 Y99.280 E0.03402
G1 X139.564 Y100.951 E0.05569
G1 X139.965 Y102.681 E0.05569
G1 X140.111 Y103.752 E0.03389
G1 X140.183 Y105.470 E0.05389
G1 X140.129 Y106.545 E0.03377
G1 X139.875 Y108.303 E0.05569
G1 X139.636 Y109.295 E0.03198
G1 X139.064 Y110.976 E0.05567
G1 X138.300 Y112.575 E0.05556
G1 X137.778 Y113.455 E0.03210
G1 X136.734 Y114.887 E0.05556
G1 X136.016 Y115.701 E0.03402
G1 X134.720 Y116.916 E0.05569
G1 X133.291 Y117.970 E0.05569
G1 X132.362 Y118.530 E0.03402
G1 X130.817 Y119.276 E0.05376
G1 X129.808 Y119.652 E0.03377
G1 X128.090 Y120.117 E0.05582
G1 X126.328 Y120.375 E0.05582
G1 X125.282 Y120.432 E0.03287
G1 X123.535 Y120.363 E0.05479
G1 X122.464 Y120.220 E0.03389
G1 X120.729 Y119.821 E0.05582
G1 X119.057 Y119.221 E0.05569
G1 X118.074 Y118.761 E0.03402
G1 X116.543 Y117.861 E0.05569
G1 X115.716 Y117.263 E0.03198
G1 X114.377 Y116.098 E0.05567
G1 X113.186 Y114.786 E0.05556
G1 X112.569 Y113.968 E0.03210
G1 X111.639 Y112.460 E0.05556
G1 X111.156 Y111.483 E0.03417
G1 X110.522 Y109.825 E0.05567
G1 X110.088 Y108.102 E0.05569
G1 X109.923 Y107.030 E0.03402
G1 X109.817 Y105.269 E0.05531
G1 X109.852 Y104.237 E0.03237
G1 X110.073 Y102.471 E0.05580
G1 X110.501 Y100.747 E0.05569
G1 X110.858 Y99.727 E0.03389
G1 X111.601 Y98.109 E0.05582
G1 X112.527 Y96.594 E0.05569
G1 X113.141 Y95.773 E0.03214
G1 X113.443 Y95.998 F10800.000
G1 F1200.000
G1 X114.598 Y94.714 E0.05416
G1 X115.360 Y94.013 E0.03248
G1 X116.741 Y92.961 E0.05443
G1 X117.575 Y92.441 E0.03081
G1 X119.090 Y91.675 E0.05323
G1 X120.789 Y91.055 E0.05669
G1 X124.163 Y90.070 E0.11023
G1 X125.067 Y89.947 E0.02861
G1 X126.305 Y90.002 E0.03886
G1 X126.787 Y90.095 E0.01538
G1 X131.158 Y91.784 E0.14692
G1 X132.671 Y92.586 E0.05370
G1 X133.495 Y93.121 E0.03081
G1 X134.855 Y94.199 E0.05443
G1 X135.591 Y94.901 E0.03188
G1 X136.708 Y96.185 E0.05335
G1 X137.284 Y96.981 E0.03081
G1 X138.168 Y98.479 E0.05455
G1 X138.613 Y99.424 E0.03274
G1 X139.203 Y101.060 E0.05452
G1 X139.595 Y102.754 E0.05455
G1 X139.735 Y103.785 E0.03259
G1 X139.806 Y105.473 E0.05299
G1 X139.754 Y106.508 E0.03248
G1 X139.505 Y108.229 E0.05455
G1 X139.275 Y109.185 E0.03083
G1 X138.716 Y110.832 E0.05452
G1 X137.966 Y112.402 E0.05455
G1 X137.462 Y113.249 E0.03092
G1 X136.437 Y114.655 E0.05455
G1 X135.749 Y115.434 E0.03259
G1 X134.478 Y116.628 E0.05466
G1 X133.077 Y117.660 E0.05455
G1 X132.187 Y118.196 E0.03259
G1 X130.668 Y118.929 E0.05288
G1 X129.694 Y119.293 E0.03260
G1 X128.015 Y119.747 E0.05455
G1 X126.286 Y120.001 E0.05478
G1 X125.278 Y120.054 E0.03164
G1 X123.567 Y119.987 E0.05371
G1 X122.536 Y119.850 E0.03260
G1 X120.837 Y119.460 E0.05466
G1 X119.196 Y118.871 E0.05466
G1 X118.254 Y118.430 E0.03259
G1 X116.752 Y117.546 E0.05467
G1 X115.954 Y116.971 E0.03083
G1 X114.642 Y115.830 E0.05452
G1 X113.473 Y114.542 E0.05455
G1 X112.879 Y113.754 E0.03092
G1 X111.966 Y112.273 E0.05455
G1 X111.504 Y111.337 E0.03274
G1 X110.883 Y109.713 E0.05452
G1 X110.457 Y108.022 E0.05466
G1 X110.298 Y106.995 E0.03259
M73 Q1 S27
G1 X110.194 Y105.266 E0.05431
G1 X110.227 Y104.272 E0.03119
G1 X110.444 Y102.543 E0.05464
G1 X110.864 Y100.851 E0.05466
M73 P1 R27
G1 X111.207 Y99.869 E0.03260
G1 X111.935 Y98.285 E0.05466
G1 X112.843 Y96.801 E0.05455
G1 X113.407 Y96.046 E0.02955
; printing object C:/Users/mlp/AppData/Local/Temp/Neutron/Body1.stl id:0 copy 0
;WIPE_START
G1 F8640.000
G1 X114.598 Y94.714 E-0.41264
G1 X115.360 Y94.013 E-0.23916
G1 X115.733 Y93.729 E-0.10820
;WIPE_END
G1 E-0.04000 F2100.000
G1 Z0.600 F10800.000
G1 X116.052 Y98.175
G1 Z0.200
G1 E0.80000 F2100.000
;TYPE:External perimeter
G1 F1200.000
G1 X116.334 Y97.825 E0.01410
G1 X116.808 Y97.305 E0.02204
G1 X117.312 Y96.816 E0.02204
G1 X117.709 Y96.476 E0.01638
G1 X118.406 Y95.936 E0.02765
G1 X118.993 Y95.547 E0.02208
G1 X119.602 Y95.195 E0.02204
G1 X120.231 Y94.882 E0.02204
G1 X120.878 Y94.608 E0.02204
G1 X121.541 Y94.374 E0.02204
G1 X122.217 Y94.182 E0.02204
G1 X122.904 Y94.032 E0.02204
G1 X123.599 Y93.924 E0.02204
G1 X124.299 Y93.859 E0.02204
G1 X124.821 Y93.843 E0.01638
G1 X125.702 Y93.859 E0.02765
G1 X126.404 Y93.924 E0.02208
G1 X127.098 Y94.032 E0.02204
G1 X127.785 Y94.182 E0.02204
G1 X128.461 Y94.374 E0.02204
G1 X129.124 Y94.608 E0.02204
G1 X129.771 Y94.882 E0.02204
G1 X130.400 Y95.195 E0.02204
G1 X131.009 Y95.547 E0.02204
G1 X131.595 Y95.935 E0.02204
G1 X132.156 Y96.359 E0.02204
G1 X132.690 Y96.816 E0.02204
G1 X133.195 Y97.305 E0.02204
G1 X133.546 Y97.691 E0.01638
G1 X134.108 Y98.371 E0.02765
G1 X134.515 Y98.946 E0.02208
G1 X134.885 Y99.544 E0.02204
G1 X135.218 Y100.163 E0.02204
G1 X135.511 Y100.802 E0.02204
G1 X135.765 Y101.457 E0.02204
G1 X135.978 Y102.127 E0.02204
G1 X136.106 Y102.634 E0.01638
G1 X136.279 Y103.498 E0.02765
G1 X136.365 Y104.197 E0.02208
G1 X136.409 Y104.899 E0.02204
G1 X136.409 Y105.602 E0.02204
G1 X136.365 Y106.303 E0.02204
G1 X136.279 Y107.001 E0.02204
G1 X136.150 Y107.692 E0.02204
G1 X135.978 Y108.373 E0.02204
G1 X135.765 Y109.043 E0.02204
G1 X135.511 Y109.699 E0.02204
G1 X135.218 Y110.337 E0.02204
G1 X134.885 Y110.957 E0.02204
G1 X134.515 Y111.554 E0.02204
G1 X134.109 Y112.128 E0.02204
G1 X133.668 Y112.676 E0.02204
G1 X133.195 Y113.195 E0.02204
G1 X132.690 Y113.684 E0.02204
G1 X132.156 Y114.142 E0.02204
G1 X131.595 Y114.565 E0.02204
G1 X131.009 Y114.954 E0.02204
G1 X130.400 Y115.305 E0.02204
G1 X129.771 Y115.618 E0.02204
G1 X129.124 Y115.892 E0.02204
G1 X128.461 Y116.126 E0.02204
G1 X127.785 Y116.318 E0.02204
G1 X127.098 Y116.469 E0.02204
G1 X126.404 Y116.577 E0.02204
G1 X125.704 Y116.641 E0.02204
G1 X125.001 Y116.663 E0.02204
G1 X124.299 Y116.641 E0.02204
G1 X123.599 Y116.577 E0.02204
G1 X122.904 Y116.469 E0.02204
G1 X122.217 Y116.318 E0.02204
G1 X121.541 Y116.126 E0.02204
G1 X120.878 Y115.892 E0.02204
G1 X120.231 Y115.618 E0.02204
G1 X119.602 Y115.305 E0.02204
G1 X118.993 Y114.954 E0.02204
G1 X118.407 Y114.565 E0.02204
G1 X117.846 Y114.142 E0.02204
G1 X117.312 Y113.684 E0.02204
G1 X116.808 Y113.195 E0.02204
G1 X116.334 Y112.676 E0.02204
G1 X115.894 Y112.128 E0.02204
G1 X115.487 Y111.554 E0.02204
G1 X115.117 Y110.957 E0.02204
G1 X114.785 Y110.337 E0.02204
G1 X114.491 Y109.699 E0.02204
G1 X114.237 Y109.043 E0.02204
G1 X114.024 Y108.373 E0.02204
G1 X113.853 Y107.692 E0.02204
G1 X113.723 Y107.001 E0.02204
G1 X113.659 Y106.482 E0.01638
G1 X113.594 Y105.603 E0.02765
G1 X113.594 Y104.899 E0.02208
G1 X113.637 Y104.197 E0.02204
G1 X113.723 Y103.500 E0.02204
G1 X113.853 Y102.809 E0.02204
G1 X114.024 Y102.127 E0.02204
G1 X114.237 Y101.457 E0.02204
G1 X114.491 Y100.802 E0.02204
G1 X114.785 Y100.163 E0.02204
G1 X115.117 Y99.544 E0.02204
G1 X115.392 Y99.100 E0.01638
G1 X116.015 Y98.222 E0.03374
G1 X115.898 Y97.806 F10800.000
;WIPE_START
G1 F8640.000
G1 X116.334 Y97.825 E-0.11768
G1 X116.808 Y97.305 E-0.16231
G1 X117.312 Y96.816 E-0.16231
G1 X117.709 Y96.476 E-0.12061
G1 X118.384 Y95.953 E-0.19709
;WIPE_END
G1 E-0.04000 F2100.000
G1 Z0.600 F10800.000
G1 X125.582 Y93.063
G1 Z0.200
G1 E0.80000 F2100.000
G1 F1200.000
G1 X125.579 Y93.098 E0.00110
G1 X126.101 Y93.247 E0.01701
G1 X126.460 Y93.213 E0.01131
G1 X127.191 Y93.341 E0.02327
G1 X127.522 Y93.534 E0.01202
G1 X129.310 Y94.132 E0.05912
G1 X129.985 Y94.418 E0.02297
G1 X130.642 Y94.745 E0.02303
G1 X131.278 Y95.112 E0.02303
G1 X131.891 Y95.518 E0.02303
G1 X132.477 Y95.960 E0.02303
G1 X133.034 Y96.438 E0.02303
G1 X133.562 Y96.950 E0.02303
G1 X134.056 Y97.492 E0.02303
G1 X134.517 Y98.064 E0.02303
G1 X134.941 Y98.664 E0.02303
G1 X135.328 Y99.288 E0.02303
G1 X135.675 Y99.935 E0.02303
G1 X135.982 Y100.602 E0.02303
G1 X136.247 Y101.287 E0.02303
G1 X136.470 Y101.987 E0.02303
G1 X136.649 Y102.699 E0.02303
G1 X136.784 Y103.421 E0.02303
G1 X136.874 Y104.150 E0.02303
G1 X136.919 Y104.883 E0.02303
G1 X136.919 Y105.617 E0.02303
G1 X136.874 Y106.350 E0.02303
G1 X136.784 Y107.079 E0.02303
G1 X136.649 Y107.801 E0.02303
G1 X136.470 Y108.513 E0.02303
G1 X136.247 Y109.213 E0.02303
G1 X135.982 Y109.898 E0.02303
G1 X135.675 Y110.565 E0.02303
G1 X135.328 Y111.212 E0.02303
G1 X134.941 Y111.837 E0.02303
G1 X134.517 Y112.436 E0.02303
G1 X134.056 Y113.008 E0.02303
G1 X133.562 Y113.551 E0.02303
G1 X133.034 Y114.062 E0.02303
G1 X132.477 Y114.540 E0.02303
G1 X131.891 Y114.983 E0.02303
G1 X131.278 Y115.388 E0.02303
G1 X130.642 Y115.755 E0.02302
G1 X129.967 Y116.090 E0.02365
G1 X129.309 Y116.369 E0.02240
G1 X128.616 Y116.613 E0.02303
G1 X127.910 Y116.814 E0.02303
G1 X127.192 Y116.971 E0.02303
G1 X126.470 Y117.083 E0.02293
G1 X125.735 Y117.152 E0.02314
G1 X125.001 Y117.174 E0.02301
G1 X124.267 Y117.152 E0.02302
G1 X123.516 Y117.081 E0.02365
G1 X122.810 Y116.971 E0.02240
G1 X122.093 Y116.814 E0.02303
G1 X121.386 Y116.613 E0.02303
G1 X120.694 Y116.369 E0.02303
G1 X120.017 Y116.083 E0.02303
G1 X119.360 Y115.755 E0.02303
G1 X118.724 Y115.388 E0.02303
G1 X118.112 Y114.983 E0.02303
G1 X117.526 Y114.540 E0.02303
G1 X116.968 Y114.062 E0.02303
G1 X116.441 Y113.551 E0.02303
G1 X115.946 Y113.008 E0.02303
G1 X115.486 Y112.436 E0.02303
G1 X115.061 Y111.837 E0.02303
G1 X114.675 Y111.212 E0.02303
G1 X114.327 Y110.565 E0.02303
G1 X114.020 Y109.898 E0.02303
G1 X113.755 Y109.213 E0.02303
G1 X113.532 Y108.513 E0.02303
G1 X113.353 Y107.801 E0.02303
G1 X113.218 Y107.079 E0.02303
G1 X113.128 Y106.350 E0.02303
G1 X113.083 Y105.617 E0.02303
G1 X113.083 Y104.883 E0.02303
G1 X113.128 Y104.150 E0.02303
G1 X113.218 Y103.421 E0.02303
G1 X113.353 Y102.699 E0.02303
G1 X113.532 Y101.987 E0.02303
G1 X113.755 Y101.287 E0.02303
G1 X114.020 Y100.602 E0.02303
G1 X114.327 Y99.935 E0.02302
G1 X114.685 Y99.271 E0.02365
G1 X115.061 Y98.664 E0.02240
G1 X115.486 Y98.064 E0.02303
G1 X115.946 Y97.492 E0.02303
G1 X116.441 Y96.950 E0.02303
G1 X116.968 Y96.438 E0.02303
G1 X117.526 Y95.960 E0.02303
G1 X118.112 Y95.518 E0.02303
G1 X118.724 Y95.112 E0.02303
G1 X119.360 Y94.745 E0.02303
G1 X120.017 Y94.418 E0.02303
G1 X120.694 Y94.131 E0.02302
G1 X121.405 Y93.882 E0.02365
G1 X122.093 Y93.686 E0.02240
G1 X122.810 Y93.529 E0.02303
G1 X123.535 Y93.417 E0.02300
G1 X125.061 Y93.291 E0.04802
G1 X125.527 Y93.086 E0.01595
G1 X125.565 Y93.093 F10800.000
G1 X125.103 Y92.807
G1 F1200.000
G1 X125.057 Y93.263 E0.01437
G1 X124.986 Y92.805 E0.01451
G1 X124.996 Y92.743 E0.00197
G1 X125.051 Y92.776 E0.00202
G1 X124.879 Y93.138 F10800.000
G1 X125.823 Y92.636
G1 F1200.000
G1 X125.920 Y92.584 E0.00345
G1 X126.056 Y92.578 E0.00427
G1 X126.127 Y92.601 E0.00235
G1 X126.218 Y92.673 E0.00365
G1 X125.883 Y92.642 E0.01056
G1 X125.926 Y92.597 F10800.000
G1 X125.716 Y93.505
;TYPE:Gap fill
;WIDTH:0.416237
G1 F1200.000
G1 X125.275 Y93.439 E0.01384
G1 X125.282 Y93.392 F10800.000
;WIDTH:0.247489
G1 F1200.000
G1 X125.396 Y93.476 E0.00241
;WIDTH:0.365992
G1 X125.434 Y93.504 E0.00127
G1 X125.385 Y93.523 E0.00142
;WIDTH:0.325384
G1 X125.336 Y93.543 E0.00124
;WIDTH:0.284776
G1 X125.286 Y93.562 E0.00106
;WIDTH:0.244169
G1 X124.821 Y93.577 E0.00780
;WIDTH:0.197352
G1 X124.285 Y93.607 E0.00689
;WIDTH:0.169546
G1 X123.565 Y93.671 E0.00761
G1 X122.857 Y93.780 E0.00754
G1 X122.155 Y93.934 E0.00757
G1 X121.466 Y94.131 E0.00755
G1 X120.788 Y94.369 E0.00757
G1 X120.124 Y94.650 E0.00759
G1 X119.479 Y94.971 E0.00759
G1 X118.859 Y95.330 E0.00755
G1 X118.259 Y95.726 E0.00757
G1 X117.689 Y96.163 E0.00757
G1 X117.142 Y96.626 E0.00754
G1 X116.624 Y97.127 E0.00759
G1 X116.140 Y97.659 E0.00757
G1 X115.690 Y98.218 E0.00757
G1 X115.278 Y98.807 E0.00757
G1 X114.896 Y99.418 E0.00759
G1 X114.556 Y100.050 E0.00755
G1 X114.256 Y100.702 E0.00756
G1 X113.995 Y101.374 E0.00759
G1 X113.778 Y102.057 E0.00755
G1 X113.603 Y102.754 E0.00757
G1 X113.471 Y103.460 E0.00757
G1 X113.383 Y104.172 E0.00755
G1 X113.338 Y104.893 E0.00761
G1 X113.339 Y105.615 E0.00760
G1 X113.387 Y106.326 E0.00751
G1 X113.471 Y107.040 E0.00757
G1 X113.603 Y107.746 E0.00757
G1 X113.778 Y108.441 E0.00755
G1 X113.997 Y109.130 E0.00761
G1 X114.256 Y109.798 E0.00755
G1 X114.556 Y110.451 E0.00757
G1 X114.896 Y111.084 E0.00757
G1 X115.273 Y111.694 E0.00755
G1 X115.691 Y112.284 E0.00761
G1 X116.140 Y112.842 E0.00755
G1 X116.623 Y113.371 E0.00755
G1 X117.142 Y113.875 E0.00761
G1 X117.686 Y114.341 E0.00755
G1 X118.259 Y114.774 E0.00757
G1 X118.860 Y115.172 E0.00759
G1 X119.481 Y115.530 E0.00755
G1 X120.124 Y115.851 E0.00757
G1 X120.786 Y116.131 E0.00757
G1 X121.462 Y116.369 E0.00755
G1 X122.155 Y116.566 E0.00759
G1 X122.857 Y116.720 E0.00757
G1 X123.548 Y116.827 E0.00736
G1 X124.283 Y116.897 E0.00778
G1 X125.001 Y116.919 E0.00756
G1 X125.717 Y116.897 E0.00754
G1 X126.438 Y116.830 E0.00762
G1 X127.145 Y116.720 E0.00753
G1 X127.845 Y116.567 E0.00755
G1 X128.538 Y116.370 E0.00759
G1 X129.216 Y116.131 E0.00757
G1 X129.860 Y115.858 E0.00736
G1 X130.522 Y115.530 E0.00778
G1 X131.144 Y115.171 E0.00756
G1 X131.741 Y114.775 E0.00755
G1 X132.316 Y114.341 E0.00759
G1 X132.862 Y113.873 E0.00757
G1 X133.377 Y113.374 E0.00755
G1 X133.862 Y112.842 E0.00759
G1 X134.314 Y112.280 E0.00759
G1 X134.728 Y111.695 E0.00755
G1 X135.106 Y111.084 E0.00757
G1 X135.446 Y110.451 E0.00757
G1 X135.746 Y109.800 E0.00755
G1 X136.006 Y109.128 E0.00759
G1 X136.224 Y108.443 E0.00757
G1 X136.399 Y107.748 E0.00755
G1 X136.531 Y107.040 E0.00759
G1 X136.620 Y106.327 E0.00757
G1 X136.642 Y105.968 E0.00378
G1 X136.664 Y105.610 E0.00378
G1 X136.664 Y104.891 E0.00757
G1 X136.620 Y104.174 E0.00757
G1 X136.531 Y103.460 E0.00757
G1 X136.395 Y102.755 E0.00757
G1 X136.224 Y102.055 E0.00759
G1 X136.006 Y101.372 E0.00755
G1 X135.747 Y100.702 E0.00757
G1 X135.445 Y100.047 E0.00759
G1 X135.106 Y99.416 E0.00755
G1 X134.728 Y98.805 E0.00757
G1 X134.309 Y98.214 E0.00762
G1 X133.859 Y97.661 E0.00751
G1 X133.378 Y97.127 E0.00757
G1 X132.862 Y96.627 E0.00757
G1 X132.318 Y96.161 E0.00755
G1 X131.743 Y95.727 E0.00759
G1 X131.144 Y95.330 E0.00757
G1 X130.523 Y94.971 E0.00755
G1 X129.878 Y94.650 E0.00759
G1 X129.220 Y94.371 E0.00753
G1 X128.538 Y94.137 E0.00759
G1 X127.392 Y93.797 E0.01260
;WIDTH:0.288501
G1 X127.069 Y93.674 E0.00704
