; generated by PrusaSlicer 2.3.3+win64 on 2022-02-27 at 16:59:12 UTC

; 

; external perimeters extrusion width = 0.45mm
; perimeters extrusion width = 0.45mm
; infill extrusion width = 0.45mm
; solid infill extrusion width = 0.45mm
; top infill extrusion width = 0.40mm
; first layer extrusion width = 0.42mm

M73 P0 R67
M73 Q0 S67
M201 X1000 Y1000 Z200 E5000 ; sets maximum accelerations, mm/sec^2
M203 X200 Y200 Z12 E120 ; sets maximum feedrates, mm/sec
M204 P1250 R1250 T1250 ; sets acceleration (P, T) and retract acceleration (R), mm/sec^2
M205 X8.00 Y8.00 Z0.40 E4.50 ; sets the jerk limits, mm/sec
M205 S0 T0 ; sets the minimum extruding and travel feed rate, mm/sec
M107
;TYPE:Custom
M862.3 P "MK3S" ; printer model check
M862.1 P0.4 ; nozzle diameter check
M115 U3.10.0 ; tell printer latest fw version
G90 ; use absolute coordinates
M83 ; extruder relative mode
M104 S215 ; set extruder temp
M140 S65 ; set bed temp
M190 S65 ; wait for bed temp
M109 S215 ; wait for extruder temp
G28 W ; home all without mesh bed level
G80 ; mesh bed leveling
G1 Y-3.0 F1000.0 ; go outside print area
G92 E0.0
G1 X60.0 E9.0 F1000.0 ; intro line
G1 X100.0 E12.5 F1000.0 ; intro line
G92 E0.0
M221 S95

; Don't change E values below. Excessive value can damage the printer.
M907 E430 ; set extruder motor current
G21 ; set units to millimeters
G90 ; use absolute coordinates
M83 ; use relative distances for extrusion
M900 K0.05 ; Filament gcode LA 1.5
M900 K30 ; Filament gcode LA 1.0
;LAYER_CHANGE
;Z:0.2
;HEIGHT:0.2
;BEFORE_LAYER_CHANGE
G92 E0.0
;0.2


G1 E-0.80000 F2100.000
G1 Z0.400 F10800.000
;AFTER_LAYER_CHANGE
;0.2
G1 X87.927 Y87.218
G1 Z0.200
G1 E0.80000 F2100.000
M204 S1000
;TYPE:Skirt
;WIDTH:0.42
G1 F1200.000
G1 X88.464 Y86.860 E0.02024
G1 X88.966 Y86.684 E0.01668
G1 X89.491 Y86.623 E0.01657
G1 X160.504 Y86.623 E2.22655
G1 X161.395 Y86.798 E0.02849
G1 X162.159 Y87.297 E0.02860
G1 X162.678 Y88.048 E0.02860
G1 X162.876 Y88.934 E0.02849
G1 X162.875 Y121.091 E1.00827
G1 X162.764 Y121.723 E0.02012
G1 X162.488 Y122.303 E0.02012
G1 X162.067 Y122.787 E0.02012
G1 X161.536 Y123.140 E0.02000
G1 X161.034 Y123.316 E0.01668
G1 X160.509 Y123.377 E0.01657
G1 X89.466 Y123.377 E2.22750
G1 X88.817 Y123.277 E0.02060
G1 X88.223 Y123.005 E0.02048
G1 X87.723 Y122.579 E0.02060
G1 X87.360 Y122.036 E0.02048
G1 X87.184 Y121.537 E0.01657
G1 X87.123 Y121.016 E0.01645
G1 X87.124 Y88.924 E1.00624
G1 X87.232 Y88.287 E0.02024
G1 X87.506 Y87.707 E0.02012
G1 X87.888 Y87.263 E0.01836
; printing object C:/Users/mlp/AppData/Local/Temp/Neutron/24VAC-5V Board mount.stl id:0 copy 0
;WIPE_START
G1 F8640.000
G1 X88.464 Y86.860 E-0.16244
G1 X88.966 Y86.684 E-0.12287
G1 X89.491 Y86.623 E-0.12200
G1 X91.019 Y86.623 E-0.35269
;WIPE_END
G1 E-0.04000 F2100.000
G1 Z0.600 F10800.000
G1 X143.365 Y115.500
G1 Z0.200
G1 E0.80000 F2100.000
;TYPE:Perimeter
G1 F1200.000
G1 X145.682 Y111.486 E0.14533
G1 X150.318 Y111.486 E0.14533
G1 X152.635 Y115.500 E0.14533
G1 X150.318 Y119.514 E0.14533
G1 X145.682 Y119.514 E0.14533
G1 X143.395 Y115.552 E0.14345
G1 X143.800 Y115.500 F10800.000
G1 F1200.000
G1 X145.900 Y111.863 E0.13168
G1 X150.100 Y111.863 E0.13168
G1 X152.200 Y115.500 E0.13168
G1 X150.100 Y119.137 E0.13168
G1 X145.900 Y119.137 E0.13168
G1 X143.830 Y115.552 E0.12980
G1 X144.236 Y115.500 F10800.000
;TYPE:External perimeter
G1 F1200.000
G1 X146.118 Y112.240 E0.11803
G1 X149.882 Y112.240 E0.11803
G1 X151.764 Y115.500 E0.11803
G1 X149.882 Y118.760 E0.11803
G1 X146.118 Y118.760 E0.11803
G1 X144.266 Y115.552 E0.11615
G1 X143.889 Y115.300 F10800.000
;WIPE_START
G1 F8640.000
G1 X145.872 Y112.679 E-0.76000
;WIPE_END
G1 E-0.04000 F2100.000
G1 Z0.600 F10800.000
G1 X153.551 Y106.830
G1 Z0.200
G1 E0.80000 F2100.000
;TYPE:Perimeter
G1 F1200.000
G1 X153.157 Y106.288 E0.02101
G1 X152.911 Y105.665 E0.02101
G1 X152.827 Y105.000 E0.02101
G1 X152.911 Y104.335 E0.02101
G1 X153.157 Y103.712 E0.02101
G1 X153.551 Y103.170 E0.02101
G1 X154.068 Y102.743 E0.02101
G1 X154.674 Y102.457 E0.02101
G1 X155.287 Y102.340 E0.01958
G1 X155.992 Y102.371 E0.02211
G1 X156.638 Y102.581 E0.02131
G1 X157.204 Y102.940 E0.02101
G1 X157.663 Y103.429 E0.02101
G1 X157.986 Y104.016 E0.02101
G1 X158.152 Y104.665 E0.02101
G1 X158.152 Y105.335 E0.02101
G1 X157.986 Y105.984 E0.02101
M73 P0 R66
G1 X157.663 Y106.571 E0.02101
G1 X157.204 Y107.060 E0.02101
G1 X156.638 Y107.419 E0.02101
G1 X156.001 Y107.626 E0.02101
G1 X155.332 Y107.668 E0.02101
G1 X154.674 Y107.543 E0.02101
G1 X154.068 Y107.257 E0.02101
G1 X153.597 Y106.868 E0.01913
G1 X153.838 Y106.578 F10800.000
G1 F1200.000
G1 X153.490 Y106.105 E0.01840
G1 X153.279 Y105.570 E0.01802
G1 X153.207 Y105.000 E0.01802
G1 X153.279 Y104.430 E0.01802
G1 X153.490 Y103.895 E0.01802
G1 X153.828 Y103.430 E0.01802
G1 X154.271 Y103.064 E0.01802
G1 X154.791 Y102.819 E0.01802
G1 X155.315 Y102.719 E0.01671
G1 X155.924 Y102.745 E0.01912
G1 X156.476 Y102.925 E0.01821
G1 X156.962 Y103.233 E0.01802
G1 X157.355 Y103.652 E0.01802
G1 X157.632 Y104.156 E0.01802
G1 X157.775 Y104.713 E0.01802
G1 X157.775 Y105.287 E0.01802
G1 X157.632 Y105.844 E0.01802
G1 X157.355 Y106.348 E0.01802
G1 X156.962 Y106.767 E0.01802
G1 X156.476 Y107.075 E0.01802
G1 X155.930 Y107.253 E0.01802
G1 X155.356 Y107.289 E0.01802
G1 X154.791 Y107.181 E0.01802
G1 X154.271 Y106.936 E0.01802
G1 X153.884 Y106.616 E0.01576
G1 X154.124 Y106.325 F10800.000
;TYPE:External perimeter
G1 F1200.000
G1 X153.823 Y105.922 E0.01579
G1 X153.647 Y105.476 E0.01504
G1 X153.587 Y105.000 E0.01504
G1 X153.647 Y104.524 E0.01504
G1 X153.823 Y104.078 E0.01504
G1 X154.105 Y103.690 E0.01504
G1 X154.475 Y103.385 E0.01504
G1 X154.909 Y103.180 E0.01504
G1 X155.342 Y103.098 E0.01384
G1 X155.857 Y103.120 E0.01613
G1 X156.315 Y103.269 E0.01510
G1 X156.720 Y103.526 E0.01504
G1 X157.048 Y103.875 E0.01504
G1 X157.279 Y104.296 E0.01504
G1 X157.398 Y104.760 E0.01504
G1 X157.398 Y105.240 E0.01504
G1 X157.279 Y105.704 E0.01504
G1 X157.048 Y106.125 E0.01504
G1 X156.720 Y106.474 E0.01504
G1 X156.315 Y106.731 E0.01504
G1 X155.859 Y106.879 E0.01504
G1 X155.380 Y106.909 E0.01504
G1 X154.909 Y106.820 E0.01504
G1 X154.475 Y106.615 E0.01504
G1 X154.171 Y106.364 E0.01238
G1 X153.736 Y106.420 F10800.000
;WIPE_START
G1 F8640.000
G1 X153.823 Y105.922 E-0.12978
G1 X153.647 Y105.476 E-0.11074
G1 X153.587 Y105.000 E-0.11074
G1 X153.647 Y104.524 E-0.11074
G1 X153.823 Y104.078 E-0.11074
G1 X154.105 Y103.690 E-0.11074
G1 X154.361 Y103.479 E-0.07653
;WIPE_END
G1 E-0.04000 F2100.000
G1 Z0.600 F10800.000
G1 X150.404 Y98.664
G1 Z0.200
G1 E0.80000 F2100.000
;TYPE:Perimeter
G1 F1200.000
G1 X145.596 Y98.664 E0.15076
G1 X143.192 Y94.500 E0.15076
G1 X145.596 Y90.336 E0.15076
G1 X150.404 Y90.336 E0.15076
G1 X152.808 Y94.500 E0.15076
G1 X150.434 Y98.612 E0.14888
G1 X150.186 Y98.287 F10800.000
G1 F1200.000
G1 X145.814 Y98.287 E0.13711
G1 X143.627 Y94.500 E0.13711
G1 X145.814 Y90.713 E0.13711
G1 X150.186 Y90.713 E0.13711
G1 X152.373 Y94.500 E0.13711
G1 X150.216 Y98.235 E0.13523
G1 X149.969 Y97.910 F10800.000
;TYPE:External perimeter
G1 F1200.000
G1 X146.031 Y97.910 E0.12346
G1 X144.062 Y94.500 E0.12346
G1 X146.031 Y91.090 E0.12346
G1 X149.969 Y91.090 E0.12346
G1 X151.938 Y94.500 E0.12346
G1 X149.999 Y97.858 E0.12158
G1 X149.969 Y98.310 F10800.000
;WIPE_START
G1 F8640.000
G1 X146.708 Y97.901 E-0.76000
;WIPE_END
G1 E-0.04000 F2100.000
G1 Z0.600 F10800.000
G1 X106.635 Y94.500
G1 Z0.200
G1 E0.80000 F2100.000
;TYPE:Perimeter
G1 F1200.000
G1 X104.318 Y98.514 E0.14533
G1 X99.682 Y98.514 E0.14533
G1 X97.365 Y94.500 E0.14533
G1 X99.682 Y90.486 E0.14533
G1 X104.318 Y90.486 E0.14533
G1 X106.605 Y94.448 E0.14345
G1 X106.200 Y94.500 F10800.000
G1 F1200.000
G1 X104.100 Y98.137 E0.13168
G1 X99.900 Y98.137 E0.13168
G1 X97.800 Y94.500 E0.13168
G1 X99.900 Y90.863 E0.13168
G1 X104.100 Y90.863 E0.13168
G1 X106.170 Y94.448 E0.12980
G1 X105.764 Y94.500 F10800.000
;TYPE:External perimeter
G1 F1200.000
G1 X103.882 Y97.760 E0.11803
G1 X100.118 Y97.760 E0.11803
G1 X98.236 Y94.500 E0.11803
G1 X100.118 Y91.240 E0.11803
G1 X103.882 Y91.240 E0.11803
G1 X105.734 Y94.448 E0.11615
G1 X106.111 Y94.700 F10800.000
;WIPE_START
G1 F8640.000
G1 X104.128 Y97.321 E-0.76000
;WIPE_END
G1 E-0.04000 F2100.000
G1 Z0.600 F10800.000
G1 X96.204 Y102.940
G1 Z0.200
G1 E0.80000 F2100.000
;TYPE:Perimeter
G1 F1200.000
G1 X96.663 Y103.429 E0.02101
G1 X96.986 Y104.016 E0.02101
G1 X97.152 Y104.665 E0.02101
G1 X97.152 Y105.335 E0.02101
G1 X96.986 Y105.984 E0.02101
G1 X96.663 Y106.571 E0.02101
G1 X96.204 Y107.060 E0.02101
G1 X95.638 Y107.419 E0.02101
G1 X95.001 Y107.626 E0.02101
G1 X94.332 Y107.668 E0.02101
G1 X93.674 Y107.543 E0.02101
G1 X93.068 Y107.257 E0.02101
G1 X92.551 Y106.830 E0.02101
G1 X92.157 Y106.288 E0.02101
G1 X91.911 Y105.665 E0.02101
G1 X91.827 Y105.000 E0.02101
G1 X91.911 Y104.335 E0.02101
G1 X92.157 Y103.712 E0.02101
G1 X92.551 Y103.170 E0.02101
G1 X93.068 Y102.743 E0.02101
G1 X93.674 Y102.457 E0.02101
G1 X94.287 Y102.340 E0.01959
G1 X94.992 Y102.371 E0.02211
G1 X95.638 Y102.581 E0.02131
G1 X96.153 Y102.908 E0.01913
G1 X95.951 Y103.226 F10800.000
G1 F1200.000
G1 X96.355 Y103.652 E0.01840
G1 X96.632 Y104.156 E0.01802
G1 X96.775 Y104.713 E0.01802
G1 X96.775 Y105.287 E0.01802
G1 X96.632 Y105.844 E0.01802
G1 X96.355 Y106.348 E0.01802
G1 X95.962 Y106.767 E0.01802
G1 X95.476 Y107.075 E0.01802
G1 X94.930 Y107.253 E0.01802
G1 X94.356 Y107.289 E0.01802
G1 X93.791 Y107.181 E0.01802
G1 X93.271 Y106.936 E0.01802
G1 X92.828 Y106.570 E0.01802
G1 X92.490 Y106.105 E0.01802
G1 X92.279 Y105.570 E0.01802
G1 X92.207 Y105.000 E0.01802
G1 X92.279 Y104.430 E0.01802
G1 X92.490 Y103.895 E0.01802
G1 X92.828 Y103.430 E0.01802
G1 X93.271 Y103.064 E0.01802
G1 X93.791 Y102.819 E0.01802
G1 X94.315 Y102.719 E0.01671
G1 X94.924 Y102.745 E0.01912
G1 X95.476 Y102.925 E0.01821
G1 X95.901 Y103.194 E0.01576
G1 X95.699 Y103.513 F10800.000
;TYPE:External perimeter
G1 F1200.000
G1 X96.048 Y103.875 E0.01579
G1 X96.279 Y104.296 E0.01504
G1 X96.398 Y104.760 E0.01504
G1 X96.398 Y105.240 E0.01504
G1 X96.279 Y105.704 E0.01504
G1 X96.048 Y106.125 E0.01504
G1 X95.720 Y106.474 E0.01504
G1 X95.315 Y106.731 E0.01504
G1 X94.859 Y106.879 E0.01504
G1 X94.380 Y106.909 E0.01504
G1 X93.909 Y106.820 E0.01504
G1 X93.475 Y106.615 E0.01504
G1 X93.105 Y106.310 E0.01504
G1 X92.823 Y105.922 E0.01504
G1 X92.647 Y105.476 E0.01504
G1 X92.587 Y105.000 E0.01504
G1 X92.647 Y104.524 E0.01504
G1 X92.823 Y104.078 E0.01504
G1 X93.105 Y103.690 E0.01504
G1 X93.475 Y103.385 E0.01504
G1 X93.909 Y103.180 E0.01504
G1 X94.342 Y103.098 E0.01384
G1 X94.857 Y103.120 E0.01613
G1 X95.315 Y103.269 E0.01510
G1 X95.648 Y103.480 E0.01238
G1 X96.072 Y103.370 F10800.000
;WIPE_START
G1 F8640.000
G1 X96.048 Y103.875 E-0.12978
G1 X96.279 Y104.296 E-0.11074
G1 X96.398 Y104.760 E-0.11074
G1 X96.398 Y105.240 E-0.11074
G1 X96.279 Y105.704 E-0.11074
G1 X96.048 Y106.125 E-0.11074
G1 X95.821 Y106.366 E-0.07653
;WIPE_END
G1 E-0.04000 F2100.000
G1 Z0.600 F10800.000
G1 X99.682 Y111.486
G1 Z0.200
G1 E0.80000 F2100.000
;TYPE:Perimeter
G1 F1200.000
G1 X104.318 Y111.486 E0.14533
G1 X105.594 Y113.696 E0.08004
G1 X106.635 Y115.500 E0.06530
G1 X104.318 Y119.514 E0.14533
G1 X99.682 Y119.514 E0.14533
G1 X97.365 Y115.500 E0.14533
G1 X99.652 Y111.538 E0.14345
G1 X99.900 Y111.863 F10800.000
G1 F1200.000
G1 X104.100 Y111.863 E0.13168
G1 X105.267 Y113.885 E0.07321
G1 X106.200 Y115.500 E0.05847
G1 X104.100 Y119.137 E0.13168
M73 Q1 S67
G1 X99.900 Y119.137 E0.13168
M73 P1 R66
G1 X97.800 Y115.500 E0.13168
G1 X99.870 Y111.915 E0.12980
G1 X100.118 Y112.240 F10800.000
;TYPE:External perimeter
G1 F1200.000
G1 X103.882 Y112.240 E0.11803
G1 X105.764 Y115.500 E0.11803
G1 X103.882 Y118.760 E0.11803
G1 X100.118 Y118.760 E0.11803
G1 X98.236 Y115.500 E0.11803
G1 X100.088 Y112.292 E0.11615
G1 X100.118 Y111.840 F10800.000
;WIPE_START
G1 F8640.000
G1 X103.379 Y112.247 E-0.76000
;WIPE_END
G1 E-0.04000 F2100.000
G1 Z0.600 F10800.000
G1 X90.664 Y119.836
G1 Z0.200
G1 E0.80000 F2100.000
;TYPE:Perimeter
G1 F1200.000
G1 X90.664 Y90.164 E0.93033
G1 X159.336 Y90.164 E2.15315
G1 X159.336 Y119.836 E0.93033
G1 X90.724 Y119.836 E2.15127
G1 X90.287 Y120.213 F10800.000
G1 F1200.000
G1 X90.287 Y89.787 E0.95398
G1 X159.713 Y89.787 E2.17680
M73 Q1 S66
G1 X159.713 Y120.213 E0.95398
G1 X90.347 Y120.213 E2.17492
G1 X89.910 Y120.590 F10800.000
;TYPE:External perimeter
G1 F1200.000
G1 X89.910 Y89.410 E0.97763
G1 X160.090 Y89.410 E2.20044
G1 X160.090 Y120.590 E0.97763
G1 X89.970 Y120.590 E2.19856
G1 X90.060 Y120.219 F10800.000
;WIPE_START
G1 F8640.000
G1 X89.964 Y117.299 E-0.76000
;WIPE_END
G1 E-0.04000 F2100.000
G1 Z0.600 F10800.000
G1 X158.457 Y90.277
G1 Z0.200
G1 E0.80000 F2100.000
;TYPE:Solid infill
;WIDTH:0.421459
G1 F1200.000
G1 X159.053 Y90.873 E0.02652
G1 X159.053 Y91.408 E0.01685
G1 X158.092 Y90.447 E0.04279
G1 X157.556 Y90.447 E0.01685
G1 X159.053 Y91.944 E0.06662
G1 X159.053 Y92.479 E0.01685
G1 X157.021 Y90.447 E0.09045
G1 X156.486 Y90.447 E0.01685
G1 X159.053 Y93.014 E0.11428
G1 X159.053 Y93.550 E0.01685
G1 X155.950 Y90.447 E0.13811
G1 X155.415 Y90.447 E0.01685
G1 X159.053 Y94.085 E0.16194
G1 X159.053 Y94.620 E0.01685
G1 X154.880 Y90.447 E0.18577
G1 X154.344 Y90.447 E0.01685
G1 X159.053 Y95.156 E0.20960
G1 X159.053 Y95.691 E0.01685
G1 X153.809 Y90.447 E0.23343
G1 X153.274 Y90.447 E0.01685
G1 X159.053 Y96.226 E0.25726
G1 X159.053 Y96.762 E0.01685
G1 X152.738 Y90.447 E0.28109
G1 X152.203 Y90.447 E0.01685
G1 X159.053 Y97.297 E0.30492
G1 X159.053 Y97.832 E0.01685
G1 X151.668 Y90.447 E0.32875
G1 X151.132 Y90.447 E0.01685
G1 X159.053 Y98.368 E0.35258
G1 X159.053 Y98.903 E0.01685
G1 X151.065 Y90.915 E0.35557
G1 X151.796 Y92.182 E0.04604
G1 X159.053 Y99.438 E0.32302
G1 X159.053 Y99.974 E0.01685
G1 X152.528 Y93.448 E0.29046
G1 X153.135 Y94.500 E0.03822
M73 Q2 S66
G1 X153.102 Y94.558 E0.00209
G1 X159.053 Y100.509 E0.26492
M73 P2 R66
G1 X159.053 Y101.044 E0.01685
G1 X152.906 Y94.897 E0.27364
G1 X152.710 Y95.236 E0.01234
G1 X159.053 Y101.580 E0.28236
G1 X159.053 Y102.115 E0.01685
G1 X152.514 Y95.576 E0.29108
G1 X152.318 Y95.915 E0.01234
G1 X159.053 Y102.650 E0.29980
G1 X159.053 Y103.186 E0.01685
G1 X152.122 Y96.255 E0.30853
G1 X151.926 Y96.594 E0.01234
G1 X159.053 Y103.721 E0.31725
G1 X159.053 Y104.256 E0.01685
G1 X151.730 Y96.933 E0.32597
M73 P2 R65
G1 X151.534 Y97.273 E0.01234
G1 X156.500 Y102.239 E0.22106
G1 X156.760 Y102.323 E0.00859
G1 X157.386 Y102.720 E0.02334
G1 X157.893 Y103.261 E0.02334
G1 X158.251 Y103.911 E0.02334
G1 X158.278 Y104.016 E0.00343
G1 X159.053 Y104.792 E0.03451
G1 X159.053 Y105.327 E0.01685
G1 X158.435 Y104.709 E0.02751
G1 X158.435 Y105.244 E0.01685
G1 X159.053 Y105.862 E0.02751
G1 X159.053 Y106.398 E0.01685
G1 X158.352 Y105.696 E0.03122
G1 X158.236 Y106.116 E0.01370
G1 X159.053 Y106.933 E0.03637
G1 X159.053 Y107.468 E0.01685
G1 X158.046 Y106.461 E0.04482
G1 X157.893 Y106.739 E0.00997
G1 X157.843 Y106.793 E0.00234
G1 X159.053 Y108.004 E0.05388
G1 X159.053 Y108.539 E0.01685
G1 X157.583 Y107.069 E0.06542
G1 X157.386 Y107.280 E0.00908
G1 X157.308 Y107.329 E0.00291
G1 X159.053 Y109.074 E0.07769
G1 X159.053 Y109.610 E0.01685
G1 X156.980 Y107.537 E0.09227
G1 X156.760 Y107.677 E0.00822
G1 X156.628 Y107.720 E0.00436
G1 X159.053 Y110.145 E0.10796
G1 X159.053 Y110.680 E0.01685
G1 X156.224 Y107.851 E0.12594
G1 X156.054 Y107.906 E0.00561
G1 X155.762 Y107.924 E0.00923
G1 X159.053 Y111.216 E0.14650
G1 X159.053 Y111.751 E0.01685
G1 X155.027 Y107.725 E0.17921
;WIPE_START
G1 F8640.000
G1 X157.355 Y110.052 E-0.76000
;WIPE_END
G1 E-0.04000 F2100.000
G1 Z0.600 F10800.000
G1 X155.983 Y102.257
G1 Z0.200
G1 E0.80000 F2100.000
G1 F1200.000
G1 X151.338 Y97.612 E0.20678
G1 X151.142 Y97.951 E0.01234
G1 X155.250 Y102.060 E0.18287
G1 X154.801 Y102.145 E0.01441
G1 X150.946 Y98.291 E0.17158
G1 X150.750 Y98.630 E0.01234
G1 X154.396 Y102.276 E0.16227
G1 X154.032 Y102.447 E0.01266
G1 X150.532 Y98.947 E0.15580
G1 X149.996 Y98.947 E0.01685
G1 X153.716 Y102.667 E0.16557
G1 X153.423 Y102.909 E0.01197
G1 X149.461 Y98.947 E0.17636
G1 X148.926 Y98.947 E0.01685
G1 X153.179 Y103.201 E0.18934
G1 X152.954 Y103.511 E0.01206
G1 X148.390 Y98.947 E0.20315
G1 X147.855 Y98.947 E0.01685
G1 X152.787 Y103.879 E0.21954
